; GCode generated from image by Saad Ata.
G21 ; Set units to millimeters.
G90 ; Use absolute positioning.
M3
G1 X0.000 Y0.000
M3
G3 X692.000 Y156.000 I1.000 J-1608.371
M5 S20
G2 X693.000 Y158.000 I1.500 J0.500
G1 X693.000 Y157.000
M3
G3 X690.000 Y157.000 I1.000 J-1590.334
M3
G3 X688.000 Y158.000 I1.500 J-1570.381
M3
G2 X692.000 Y159.000 I1.500 J-0.500
M5 S20
G1 X693.000 Y159.000
M3
G3 X685.000 Y159.000 I1.000 J-1550.729
M3
G2 X690.000 Y160.000 I1.500 J-0.500
M5 S20
G1 X691.000 Y160.000
M3
G3 X683.000 Y160.000 I1.000 J-1533.497
M3
G2 X687.000 Y161.000 I1.500 J-0.500
M5 S20
G3 X689.000 Y161.000 I1.000 J-1550.497
M3
G3 X681.000 Y161.000 I1.500 J-1514.397
M3
G2 X685.000 Y162.000 I1.500 J-0.500
M5 S20
G1 X686.000 Y162.000
M3
G3 X678.000 Y162.000 I1.000 J-1495.581
M3
G2 X682.000 Y163.000 I1.500 J-0.500
M5 S20
G3 X684.000 Y163.000 I1.000 J-1512.433
M3
G3 X676.000 Y163.000 I1.000 J-1479.108
M3
G2 X680.000 Y164.000 I1.500 J-0.500
M5 S20
G1 X681.000 Y164.000
M3
G3 X674.000 Y164.000 I1.500 J-1460.814
M3
G2 X678.000 Y165.000 I1.500 J-0.500
M5 S20
G1 X679.000 Y165.000
M3
G3 X671.000 Y165.000 I1.000 J-1442.789
M3
G2 X675.000 Y166.000 I1.500 J-0.500
M5 S20
G3 X677.000 Y166.000 I1.000 J-1459.420
M3
G3 X669.000 Y166.000 I1.500 J-1425.022
M3
G2 X673.000 Y167.000 I1.500 J-0.500
M5 S20
G1 X674.000 Y167.000
M3
G3 X666.000 Y167.000 I1.000 J-1407.514
M3
G2 X670.000 Y168.000 I1.500 J-0.500
M5 S20
G3 X672.000 Y168.000 I1.000 J-1423.990
M3
G3 X664.000 Y168.000 I1.000 J-1392.228
M3
G2 X668.000 Y169.000 I1.500 J-0.500
M5 S20
G1 X669.000 Y169.000
M3
G3 X662.000 Y169.000 I1.500 J-1375.197
M3
G2 X666.000 Y170.000 I1.500 J-0.500
M5 S20
G1 X667.000 Y170.000
M3
G3 X659.000 Y170.000 I1.000 J-1358.411
M3
G2 X663.000 Y171.000 I1.500 J-0.500
M5 S20
G3 X665.000 Y171.000 I1.000 J-1374.657
M3
G3 X657.000 Y171.000 I1.000 J-1343.780
M3
G2 X661.000 Y172.000 I1.500 J-0.500
M5 S20
G1 X662.000 Y172.000
M3
G3 X655.000 Y172.000 I1.500 J-1327.447
M3
G2 X659.000 Y173.000 I1.500 J-0.500
M5 S20
G1 X660.000 Y173.000
M3
G3 X652.000 Y173.000 I1.000 J-1311.347
M3
G2 X656.000 Y174.000 I1.500 J-0.500
M5 S20
G3 X658.000 Y174.000 I1.000 J-1327.359
M3
G3 X650.000 Y174.000 I1.500 J-1295.471
M3
G2 X654.000 Y175.000 I1.500 J-0.500
M5 S20
G1 X655.000 Y175.000
M3
G3 X647.000 Y175.000 I1.000 J-1279.821
M3
G2 X651.000 Y176.000 I1.500 J-0.500
M5 S20
G3 X653.000 Y176.000 I1.000 J-1295.671
M3
G3 X645.000 Y176.000 I1.000 J-1266.217
M3
G2 X649.000 Y177.000 I1.500 J-0.500
M5 S20
G1 X650.000 Y177.000
M3
G3 X643.000 Y177.000 I1.500 J-1250.980
M3
G2 X647.000 Y178.000 I1.500 J-0.500
M5 S20
G1 X648.000 Y178.000
M3
G3 X640.000 Y178.000 I1.000 J-1235.959
M3
G2 X644.000 Y179.000 I1.500 J-0.500
M5 S20
G3 X646.000 Y179.000 I1.000 J-1251.571
M3
G3 X638.000 Y179.000 I1.000 J-1222.923
M3
G2 X642.000 Y180.000 I1.500 J-0.500
M5 S20
G1 X643.000 Y180.000
M3
G3 X636.000 Y180.000 I1.500 J-1208.295
M3
G2 X639.000 Y181.000 I1.500 J-0.500
M5 S20
G3 X641.000 Y181.000 I1.000 J-1221.982
M3
G3 X633.000 Y181.000 I1.000 J-1193.872
M3
G2 X637.000 Y182.000 I1.500 J-0.500
M5 S20
G1 X638.000 Y182.000
M3
G3 X631.000 Y182.000 I1.500 J-1179.644
M3
G2 X635.000 Y183.000 I1.500 J-0.500
M5 S20
G1 X636.000 Y183.000
M3
G3 X628.000 Y183.000 I1.000 J-1165.614
M3
G2 X632.000 Y184.000 I1.500 J-0.500
M5 S20
G3 X634.000 Y184.000 I1.000 J-1180.820
M3
G3 X626.000 Y184.000 I1.000 J-1153.472
M3
G2 X630.000 Y185.000 I1.500 J-0.500
M5 S20
G1 X631.000 Y185.000
M3
G3 X624.000 Y185.000 I1.500 J-1139.804
M3
G2 X627.000 Y186.000 I1.500 J-0.500
M5 S20
G3 X629.000 Y186.000 I1.000 J-1153.163
M3
G3 X621.000 Y186.000 I1.000 J-1126.325
M3
G2 X625.000 Y187.000 I1.500 J-0.500
M5 S20
G1 X626.000 Y187.000
M3
G3 X619.000 Y187.000 I1.000 J-1114.679
M3
G2 X623.000 Y188.000 I1.500 J-0.500
M5 S20
G1 X624.000 Y188.000
M3
G3 X617.000 Y188.000 I1.500 J-1101.544
M3
G2 X620.000 Y189.000 I1.500 J-0.500
M5 S20
G3 X622.000 Y189.000 I1.000 J-1114.706
M3
G3 X614.000 Y189.000 I1.000 J-1088.590
M3
G2 X618.000 Y190.000 I1.500 J-0.500
M5 S20
G1 X619.000 Y190.000
M3
G3 X612.000 Y190.000 I1.500 J-1075.807
M3
G2 X615.000 Y191.000 I1.500 J-0.500
M5 S20
G3 X617.000 Y191.000 I1.000 J-1088.832
M3
G3 X609.000 Y191.000 I1.000 J-1063.199
M3
G2 X613.000 Y192.000 I1.500 J-0.500
M5 S20
G1 X614.000 Y192.000
M3
G3 X607.000 Y192.000 I1.000 J-1052.336
M3
G2 X611.000 Y193.000 I1.500 J-0.500
M5 S20
G1 X612.000 Y193.000
M3
G3 X605.000 Y193.000 I1.500 J-1040.046
M3
G2 X608.000 Y194.000 I1.500 J-0.500
M5 S20
G3 X610.000 Y194.000 I1.000 J-1052.871
M3
G3 X602.000 Y194.000 I1.000 J-1027.923
M3
G2 X606.000 Y195.000 I1.500 J-0.500
M5 S20
G1 X607.000 Y195.000
M3
G3 X600.000 Y195.000 I1.500 J-1015.959
M3
G2 X603.000 Y196.000 I1.500 J-0.500
M5 S20
G3 X605.000 Y196.000 I1.000 J-1028.646
M3
G3 X597.000 Y196.000 I1.000 J-1004.156
M3
G2 X601.000 Y197.000 I1.500 J-0.500
M5 S20
G1 X602.000 Y197.000
M3
G3 X595.000 Y197.000 I1.000 J-994.016
M3
G2 X599.000 Y198.000 I1.500 J-0.500
M5 S20
G1 X600.000 Y198.000
M3
G3 X593.000 Y198.000 I1.500 J-982.508
M3
G2 X596.000 Y199.000 I1.500 J-0.500
M5 S20
G3 X598.000 Y199.000 I1.000 J-994.993
M3
G3 X590.000 Y199.000 I1.000 J-971.154
M3
G2 X594.000 Y200.000 I1.500 J-0.500
M5 S20
G1 X595.000 Y200.000
M3
G3 X588.000 Y200.000 I1.000 J-961.416
M3
G2 X591.000 Y201.000 I1.500 J-0.500
M5 S20
G3 X593.000 Y201.000 I1.000 J-972.295
M3
G3 X586.000 Y201.000 I1.500 J-950.344
M3
G2 X589.000 Y202.000 I1.500 J-0.500
M5 S20
G1 X590.000 Y202.000
M3
G3 X583.000 Y202.000 I1.000 J-939.420
M3
G2 X587.000 Y203.000 I1.500 J-0.500
M5 S20
G1 X588.000 Y203.000
M3
G3 X581.000 Y203.000 I1.500 J-928.636
M3
G2 X584.000 Y204.000 I1.500 J-0.500
M5 S20
G3 X586.000 Y204.000 I1.000 J-940.781
M3
G3 X720.000 Y203.000 I4.500 J-1362.409
M5 S20
G3 X729.000 Y203.000 I4.500 J-1394.330
G3 X738.000 Y203.000 I4.500 J-1426.650
G3 X747.000 Y203.000 I4.500 J-1459.369
G3 X756.000 Y203.000 I4.500 J-1492.487
G3 X765.000 Y203.000 I4.500 J-1526.004
G3 X774.000 Y203.000 I4.500 J-1559.920
G3 X783.000 Y203.000 I4.500 J-1594.235
G3 X792.000 Y203.000 I4.500 J-1628.949
G3 X801.000 Y203.000 I4.500 J-1664.063
G3 X810.000 Y203.000 I4.500 J-1699.575
G3 X819.000 Y203.000 I4.500 J-1735.486
G3 X828.000 Y203.000 I4.500 J-1771.796
G3 X837.000 Y203.000 I4.500 J-1808.505
G3 X846.000 Y203.000 I4.500 J-1845.613
G3 X855.000 Y203.000 I4.500 J-1883.120
G3 X864.000 Y203.000 I4.500 J-1921.027
G3 X873.000 Y203.000 I4.500 J-1959.332
G3 X874.000 Y204.000 I0.500 J0.500
G3 X874.000 Y207.000 I-461.159 J1.500
G3 X865.000 Y207.000 I-4.500 J-1929.630
G3 X856.000 Y207.000 I-4.500 J-1892.022
G3 X847.000 Y207.000 I-4.500 J-1854.804
G3 X838.000 Y207.000 I-4.500 J-1817.979
G3 X829.000 Y207.000 I-4.500 J-1781.544
G3 X820.000 Y207.000 I-4.500 J-1745.501
G3 X811.000 Y207.000 I-4.500 J-1709.849
G3 X802.000 Y207.000 I-4.500 J-1674.588
G3 X793.000 Y207.000 I-4.500 J-1639.719
G3 X784.000 Y207.000 I-4.500 J-1605.241
G3 X775.000 Y207.000 I-4.500 J-1571.154
G3 X766.000 Y207.000 I-4.500 J-1537.458
G3 X757.000 Y207.000 I-4.500 J-1504.154
G3 X748.000 Y207.000 I-4.500 J-1471.241
G3 X739.000 Y207.000 I-4.500 J-1438.720
G3 X730.000 Y207.000 I-4.500 J-1406.590
G3 X721.000 Y207.000 I-4.500 J-1374.851
G3 X712.000 Y207.000 I-4.500 J-1343.503
G3 X711.000 Y206.000 I-0.500 J-0.500
G3 X711.000 Y204.000 I-385.053 J-1.000
M3
G3 X28.000 Y204.000 I4.500 J-103.334
M5 S20
G3 X37.000 Y204.000 I4.500 J-104.569
G3 X46.000 Y204.000 I4.500 J-106.202
G3 X55.000 Y204.000 I4.500 J-108.231
G3 X64.000 Y204.000 I4.500 J-110.657
G3 X73.000 Y204.000 I4.500 J-113.481
G3 X82.000 Y204.000 I4.500 J-116.702
G3 X91.000 Y204.000 I4.500 J-120.319
G3 X100.000 Y204.000 I4.500 J-124.334
G3 X109.000 Y204.000 I4.500 J-128.746
G3 X118.000 Y204.000 I4.500 J-133.554
G3 X127.000 Y204.000 I4.500 J-138.760
G3 X136.000 Y204.000 I4.500 J-144.363
G3 X145.000 Y204.000 I4.500 J-150.363
G3 X154.000 Y204.000 I4.500 J-156.760
G3 X163.000 Y204.000 I4.500 J-163.554
G3 X172.000 Y204.000 I4.500 J-170.745
G3 X181.000 Y204.000 I4.500 J-178.333
G3 X190.000 Y204.000 I4.500 J-186.319
G3 X199.000 Y204.000 I4.500 J-194.701
G3 X208.000 Y204.000 I4.500 J-203.480
G3 X217.000 Y204.000 I4.500 J-212.657
G3 X226.000 Y204.000 I4.500 J-222.230
G3 X235.000 Y204.000 I4.500 J-232.201
G3 X244.000 Y204.000 I4.500 J-242.568
G3 X253.000 Y204.000 I4.500 J-253.333
G3 X262.000 Y204.000 I4.500 J-264.495
G3 X271.000 Y204.000 I4.500 J-276.053
G3 X280.000 Y204.000 I4.500 J-288.009
G3 X289.000 Y204.000 I4.500 J-300.362
G3 X298.000 Y204.000 I4.500 J-313.112
G3 X307.000 Y204.000 I4.500 J-326.259
G3 X316.000 Y204.000 I4.500 J-339.803
G3 X325.000 Y204.000 I4.500 J-353.744
G3 X334.000 Y204.000 I4.500 J-368.082
G3 X343.000 Y204.000 I4.500 J-382.818
G3 X352.000 Y204.000 I4.500 J-397.950
G3 X361.000 Y204.000 I4.500 J-413.479
G3 X370.000 Y204.000 I4.500 J-429.406
G3 X379.000 Y204.000 I4.500 J-445.729
G3 X388.000 Y204.000 I4.500 J-462.449
G3 X397.000 Y204.000 I4.500 J-479.567
G3 X406.000 Y204.000 I4.500 J-497.082
G3 X415.000 Y204.000 I4.500 J-514.993
G3 X424.000 Y204.000 I4.500 J-533.302
G3 X433.000 Y204.000 I4.500 J-552.008
G3 X442.000 Y204.000 I4.500 J-571.111
G3 X451.000 Y204.000 I4.500 J-590.610
G3 X460.000 Y204.000 I4.500 J-610.507
G3 X469.000 Y204.000 I4.500 J-630.801
G3 X478.000 Y204.000 I4.500 J-651.492
G3 X487.000 Y204.000 I4.500 J-672.581
G3 X496.000 Y204.000 I4.500 J-694.066
G3 X505.000 Y204.000 I4.500 J-715.948
G3 X514.000 Y204.000 I4.500 J-738.227
G3 X523.000 Y204.000 I4.500 J-760.904
G3 X532.000 Y204.000 I4.500 J-783.977
G3 X541.000 Y204.000 I4.500 J-807.447
G3 X550.000 Y204.000 I4.500 J-831.315
G3 X559.000 Y204.000 I4.500 J-855.579
G3 X568.000 Y204.000 I4.500 J-880.241
G3 X577.000 Y204.000 I4.500 J-905.300
G1 X578.000 Y204.000
M3
G2 X582.000 Y205.000 I1.500 J-0.500
M5 S20
G1 X583.000 Y205.000
M3
G3 X19.000 Y207.000 I-1125.453 J1.000
M5 S20
G3 X28.000 Y207.000 I4.500 J-104.815
G3 X37.000 Y207.000 I4.500 J-106.032
G3 X46.000 Y207.000 I4.500 J-107.641
G3 X55.000 Y207.000 I4.500 J-109.641
G3 X64.000 Y207.000 I4.500 J-112.032
G3 X73.000 Y207.000 I4.500 J-114.815
G3 X82.000 Y207.000 I4.500 J-117.988
G3 X91.000 Y207.000 I4.500 J-121.554
G3 X100.000 Y207.000 I4.500 J-125.510
G3 X109.000 Y207.000 I4.500 J-129.858
G3 X118.000 Y207.000 I4.500 J-134.597
G3 X127.000 Y207.000 I4.500 J-139.727
G3 X136.000 Y207.000 I4.500 J-145.249
G3 X145.000 Y207.000 I4.500 J-151.162
G3 X154.000 Y207.000 I4.500 J-157.466
G3 X163.000 Y207.000 I4.500 J-164.162
G3 X172.000 Y207.000 I4.500 J-171.249
G3 X181.000 Y207.000 I4.500 J-178.727
G3 X190.000 Y207.000 I4.500 J-186.597
G3 X199.000 Y207.000 I4.500 J-194.858
G3 X208.000 Y207.000 I4.500 J-203.510
G3 X217.000 Y207.000 I4.500 J-212.553
G3 X226.000 Y207.000 I4.500 J-221.988
G3 X235.000 Y207.000 I4.500 J-231.814
G3 X244.000 Y207.000 I4.500 J-242.031
G3 X253.000 Y207.000 I4.500 J-252.640
G3 X262.000 Y207.000 I4.500 J-263.640
G3 X271.000 Y207.000 I4.500 J-275.031
G3 X280.000 Y207.000 I4.500 J-286.814
G3 X289.000 Y207.000 I4.500 J-298.987
G3 X298.000 Y207.000 I4.500 J-311.553
G3 X307.000 Y207.000 I4.500 J-324.509
G3 X316.000 Y207.000 I4.500 J-337.857
G3 X325.000 Y207.000 I4.500 J-351.596
G3 X334.000 Y207.000 I4.500 J-365.726
G3 X343.000 Y207.000 I4.500 J-380.248
G3 X352.000 Y207.000 I4.500 J-395.161
G3 X361.000 Y207.000 I4.500 J-410.465
G3 X370.000 Y207.000 I4.500 J-426.161
G3 X379.000 Y207.000 I4.500 J-442.247
G3 X388.000 Y207.000 I4.500 J-458.726
G3 X397.000 Y207.000 I4.500 J-475.595
G3 X406.000 Y207.000 I4.500 J-492.856
G3 X415.000 Y207.000 I4.500 J-510.508
G3 X424.000 Y207.000 I4.500 J-528.551
G3 X433.000 Y207.000 I4.500 J-546.986
G3 X442.000 Y207.000 I4.500 J-565.812
G3 X451.000 Y207.000 I4.500 J-585.029
G3 X460.000 Y207.000 I4.500 J-604.638
G3 X469.000 Y207.000 I4.500 J-624.638
G3 X478.000 Y207.000 I4.500 J-645.029
G3 X487.000 Y207.000 I4.500 J-665.811
G3 X496.000 Y207.000 I4.500 J-686.985
G3 X505.000 Y207.000 I4.500 J-708.550
G3 X514.000 Y207.000 I4.500 J-730.507
G3 X523.000 Y207.000 I4.500 J-752.854
G3 X532.000 Y207.000 I4.500 J-775.593
G3 X541.000 Y207.000 I4.500 J-798.724
G3 X550.000 Y207.000 I4.500 J-822.245
G3 X559.000 Y207.000 I4.500 J-846.158
G3 X568.000 Y207.000 I4.500 J-870.462
G3 X577.000 Y207.000 I4.500 J-895.158
G2 X578.000 Y206.000 I0.500 J-0.500
G3 X581.000 Y206.000 I1.500 J-918.090
M3
G3 X288.000 Y238.000 I4.500 J-287.832
M5 S20
G3 X293.000 Y238.000 I2.500 J-296.284
G2 X294.000 Y239.000 I0.500 J0.500
G3 X299.000 Y239.000 I2.500 J-303.410
G2 X300.000 Y240.000 I0.500 J0.500
G3 X303.000 Y240.000 I1.500 J-309.377
G2 X304.000 Y241.000 I0.500 J0.500
G3 X307.000 Y241.000 I1.500 J-314.128
G2 X308.000 Y242.000 I0.500 J0.500
G3 X309.000 Y243.000 I0.500 J0.500
G2 X310.000 Y243.000 I0.500 J0.500
M3
G3 X648.000 Y238.000 I4.500 J-988.921
M5 S20
G3 X653.000 Y238.000 I2.500 J-1007.962
G2 X654.000 Y239.000 I0.500 J0.500
G3 X657.000 Y239.000 I1.500 J-1018.407
G2 X658.000 Y240.000 I0.500 J0.500
G3 X661.000 Y240.000 I1.500 J-1026.120
G2 X662.000 Y241.000 I0.500 J0.500
G3 X663.000 Y242.000 I0.500 J0.500
G3 X666.000 Y242.000 I1.500 J-1033.309
G3 X666.000 Y251.000 I-378.611 J4.500
G3 X666.000 Y260.000 I-382.003 J4.500
G3 X666.000 Y263.000 I-384.337 J1.500
G3 X663.000 Y263.000 I-1.500 J-970.963
G3 X663.000 Y261.000 I-383.267 J-1.000
G3 X662.000 Y260.000 I-0.500 J-0.500
G3 X662.000 Y257.000 I-381.469 J-1.500
G3 X661.000 Y256.000 I-0.500 J-0.500
G3 X661.000 Y254.000 I-379.686 J-1.000
G3 X660.000 Y253.000 I-0.500 J-0.500
G2 X659.000 Y252.000 I-0.500 J-0.500
G3 X659.000 Y250.000 I-377.300 J-1.000
G3 X658.000 Y249.000 I-0.500 J-0.500
G2 X657.000 Y248.000 I-0.500 J-0.500
G3 X651.000 Y242.000 I-599.249 J593.249
G3 X648.000 Y242.000 I-1.500 J-992.586
G2 X646.000 Y241.000 I-1.500 J0.500
G3 X637.000 Y241.000 I-4.500 J-974.260
G2 X635.000 Y242.000 I-0.500 J1.500
G3 X634.000 Y242.000 I-0.500 J0.500
G3 X627.000 Y249.000 I-264.796 J-257.796
G3 X627.000 Y252.000 I-363.539 J1.500
G2 X626.000 Y253.000 I-0.500 J0.500
G3 X626.000 Y259.000 I-365.342 J3.000
G2 X627.000 Y259.000 I0.500 J0.500
M3
G3 X771.000 Y238.000 I4.500 J-1353.268
M5 S20
G3 X780.000 Y238.000 I4.500 J-1382.424
G3 X782.000 Y238.000 I1.000 J-1400.424
G2 X783.000 Y239.000 I0.500 J0.500
G3 X788.000 Y239.000 I2.500 J-1410.305
G2 X789.000 Y240.000 I0.500 J0.500
G3 X793.000 Y240.000 I2.000 J-1423.493
G2 X794.000 Y241.000 I0.500 J0.500
G3 X796.000 Y241.000 I1.000 J-1431.749
G2 X797.000 Y242.000 I0.500 J0.500
G3 X799.000 Y242.000 I1.000 J-1436.704
G3 X799.000 Y251.000 I-437.519 J4.500
G3 X799.000 Y260.000 I-440.346 J4.500
G3 X799.000 Y264.000 I-442.455 J2.000
G3 X796.000 Y264.000 I-1.500 J-1336.551
G3 X796.000 Y261.000 I-441.282 J-1.500
G3 X795.000 Y260.000 I-0.500 J-0.500
G3 X795.000 Y258.000 I-439.689 J-1.000
G3 X794.000 Y257.000 I-0.500 J-0.500
G2 X793.000 Y256.000 I-0.500 J-0.500
G3 X793.000 Y254.000 I-437.499 J-1.000
G3 X791.000 Y252.000 I-0.500 J-1.500
G2 X790.000 Y251.000 I-0.500 J-0.500
G3 X783.000 Y244.000 I-634.138 J627.138
G3 X780.000 Y244.000 I-1.500 J-1373.514
G3 X778.000 Y242.000 I-622.164 J620.164
G3 X773.000 Y242.000 I-2.500 J-1363.552
G2 X771.000 Y241.000 I-1.500 J0.500
G3 X765.000 Y241.000 I-3.000 J-1344.188
G3 X763.000 Y242.000 I-1.500 J-0.500
G3 X760.000 Y242.000 I-1.500 J-1319.097
G3 X758.000 Y243.000 I-1.500 J-0.500
G2 X756.000 Y244.000 I-0.500 J1.500
G3 X755.000 Y244.000 I-0.500 J0.500
G3 X752.000 Y247.000 I-315.829 J-312.829
G3 X753.000 Y245.000 I1.500 J-0.500
M3
G3 X28.000 Y239.000 I4.500 J-120.639
M5 S20
G3 X37.000 Y239.000 I4.500 J-121.693
G3 X46.000 Y239.000 I4.500 J-123.086
G3 X55.000 Y239.000 I4.500 J-124.818
G3 X64.000 Y239.000 I4.500 J-126.890
G2 X65.000 Y240.000 I0.500 J0.500
G3 X73.000 Y240.000 I4.000 J-129.905
G2 X74.000 Y241.000 I0.500 J0.500
G3 X78.000 Y241.000 I2.000 J-132.480
G2 X79.000 Y242.000 I0.500 J0.500
G3 X82.000 Y242.000 I1.500 J-134.387
G2 X83.000 Y243.000 I0.500 J0.500
G3 X85.000 Y243.000 I1.000 J-136.018
G2 X86.000 Y244.000 I0.500 J0.500
G3 X87.000 Y245.000 I0.500 J0.500
G3 X89.000 Y245.000 I1.000 J-138.303
G2 X90.000 Y246.000 I0.500 J0.500
G3 X91.000 Y247.000 I0.500 J0.500
G2 X92.000 Y247.000 I0.500 J0.500
G3 X101.000 Y256.000 I238.523 J-229.523
G3 X104.000 Y259.000 I249.271 J-246.271
G2 X104.000 Y260.000 I-0.500 J0.500
G3 X104.000 Y261.000 I0.500 J0.500
G3 X106.000 Y263.000 I254.715 J-252.715
G2 X106.000 Y264.000 I-0.500 J0.500
G3 X106.000 Y265.000 I0.500 J0.500
G3 X108.000 Y267.000 I259.499 J-257.499
G2 X108.000 Y268.000 I-0.500 J0.500
G3 X108.000 Y270.000 I-388.996 J1.000
G2 X109.000 Y270.000 I0.500 J0.500
M3
G3 X149.000 Y239.000 I4.500 J-163.166
M5 S20
G3 X158.000 Y239.000 I4.500 J-168.776
G3 X167.000 Y239.000 I4.500 J-174.726
G3 X176.000 Y239.000 I4.500 J-181.015
G3 X185.000 Y239.000 I4.500 J-187.642
G3 X194.000 Y239.000 I4.500 J-194.609
G3 X203.000 Y239.000 I4.500 J-201.914
G3 X212.000 Y239.000 I4.500 J-209.559
G3 X212.000 Y248.000 I-245.821 J4.500
G3 X212.000 Y257.000 I-256.349 J4.500
G3 X212.000 Y264.000 I-266.035 J3.500
G3 X209.000 Y264.000 I-1.500 J-215.919
G3 X209.000 Y261.000 I-269.344 J-1.500
G3 X208.000 Y260.000 I-0.500 J-0.500
G3 X208.000 Y257.000 I-264.627 J-1.500
G3 X207.000 Y256.000 I-0.500 J-0.500
G3 X207.000 Y254.000 I-260.563 J-1.000
G3 X206.000 Y253.000 I-0.500 J-0.500
G2 X205.000 Y252.000 I-0.500 J-0.500
G3 X205.000 Y250.000 I-256.159 J-1.000
G3 X204.000 Y249.000 I-0.500 J-0.500
G2 X203.000 Y248.000 I-0.500 J-0.500
G3 X199.000 Y244.000 I1118.984 J-1122.984
G3 X196.000 Y244.000 I-1.500 J-201.928
G2 X194.000 Y243.000 I-1.500 J0.500
G3 X185.000 Y243.000 I-4.500 J-195.373
G3 X176.000 Y243.000 I-4.500 J-188.521
G3 X167.000 Y243.000 I-4.500 J-182.002
G3 X167.000 Y252.000 I-266.876 J4.500
G3 X167.000 Y261.000 I-280.457 J4.500
G3 X167.000 Y270.000 I-294.523 J4.500
G3 X167.000 Y279.000 I-309.074 J4.500
G3 X167.000 Y285.000 I-321.582 J3.000
G3 X176.000 Y285.000 I4.500 J-194.086
G3 X178.000 Y285.000 I1.000 J-197.462
G3 X179.000 Y284.000 I0.500 J-0.500
G3 X184.000 Y284.000 I2.500 J-199.992
G3 X185.000 Y283.000 I0.500 J-0.500
G3 X187.000 Y283.000 I1.000 J-202.623
G3 X188.000 Y282.000 I0.500 J-0.500
G2 X189.000 Y281.000 I0.500 J-0.500
G3 X191.000 Y281.000 I1.000 J-204.734
G3 X192.000 Y279.000 I1.500 J-0.500
G2 X192.000 Y278.000 I0.500 J-0.500
G3 X194.000 Y276.000 I-120.252 J-122.252
G3 X194.000 Y275.000 I-0.500 J-0.500
G3 X194.000 Y270.000 I-288.374 J-2.500
G3 X196.000 Y269.000 I1.500 J0.500
G3 X198.000 Y269.000 I1.000 J-206.635
G3 X198.000 Y278.000 I-287.873 J4.500
G3 X198.000 Y287.000 I-300.509 J4.500
G3 X198.000 Y296.000 I-313.555 J4.500
G3 X198.000 Y304.000 I-326.255 J4.000
G3 X194.000 Y304.000 I-2.000 J-215.181
G3 X194.000 Y298.000 I-330.497 J-3.000
G3 X193.000 Y297.000 I-0.500 J-0.500
G3 X193.000 Y295.000 I-323.482 J-1.000
G3 X191.000 Y294.000 I-0.500 J-1.500
G3 X187.000 Y290.000 I585.261 J-589.261
G3 X184.000 Y290.000 I-1.500 J-204.326
G2 X182.000 Y289.000 I-1.500 J0.500
G3 X175.000 Y289.000 I-3.500 J-199.616
G2 X173.000 Y288.000 I-1.500 J0.500
G3 X167.000 Y288.000 I-3.000 J-194.167
G3 X167.000 Y297.000 I-339.630 J4.500
G3 X167.000 Y306.000 I-355.636 J4.500
G3 X167.000 Y315.000 I-372.127 J4.500
G3 X167.000 Y324.000 I-389.103 J4.500
G3 X167.000 Y333.000 I-406.564 J4.500
G3 X167.000 Y337.000 I-419.495 J2.000
G3 X176.000 Y337.000 I4.500 J-212.126
G3 X182.000 Y337.000 I3.000 J-216.033
G3 X183.000 Y336.000 I0.500 J-0.500
G3 X191.000 Y336.000 I4.000 J-220.028
G3 X192.000 Y335.000 I0.500 J-0.500
G3 X195.000 Y335.000 I1.500 J-223.382
G3 X196.000 Y334.000 I0.500 J-0.500
G3 X198.000 Y334.000 I1.000 J-225.097
G3 X199.000 Y333.000 I0.500 J-0.500
G2 X200.000 Y332.000 I0.500 J-0.500
G3 X202.000 Y332.000 I1.000 J-226.844
G3 X204.000 Y330.000 I1.500 J-0.500
G2 X205.000 Y329.000 I0.500 J-0.500
G3 X208.000 Y326.000 I-138.852 J-141.852
G2 X206.000 Y327.000 I-0.500 J1.500
M3
G3 X279.000 Y239.000 I3.000 J-278.855
M3
G3 X333.000 Y239.000 I4.500 J-345.240
M5 S20
G3 X342.000 Y239.000 I4.500 J-357.780
G3 X347.000 Y239.000 I2.500 J-367.778
G3 X347.000 Y248.000 I-258.924 J4.500
G3 X347.000 Y257.000 I-265.356 J4.500
G3 X347.000 Y266.000 I-272.022 J4.500
G3 X347.000 Y275.000 I-278.921 J4.500
G3 X347.000 Y279.000 I-284.058 J2.000
G3 X349.000 Y279.000 I1.000 J-356.531
G2 X351.000 Y279.000 I1.000 J0.000
G3 X357.000 Y273.000 I-156.908 J-162.908
G3 X359.000 Y273.000 I1.000 J-371.231
G3 X360.000 Y272.000 I0.500 J-0.500
G3 X363.000 Y272.000 I1.500 J-376.222
G3 X364.000 Y271.000 I0.500 J-0.500
G3 X371.000 Y271.000 I3.500 J-384.671
G2 X372.000 Y272.000 I0.500 J0.500
G3 X373.000 Y273.000 I0.500 J0.500
G3 X375.000 Y273.000 I1.000 J-392.682
G2 X376.000 Y275.000 I1.500 J0.500
G3 X378.000 Y277.000 I-1079.661 J1081.661
G2 X378.000 Y278.000 I-0.500 J0.500
G3 X378.000 Y280.000 I-291.964 J1.000
G2 X379.000 Y280.000 I0.500 J0.500
M3
G3 X639.000 Y239.000 I3.000 J-965.714
M3
G3 X762.000 Y239.000 I3.000 J-1324.677
M3
G3 X19.000 Y242.000 I-1536.879 J1.000
M5 S20
G3 X28.000 Y242.000 I4.500 J-122.124
G3 X32.000 Y242.000 I2.000 J-122.856
G3 X32.000 Y251.000 I-965.053 J4.500
G3 X32.000 Y260.000 I-1035.630 J4.500
G3 X32.000 Y269.000 I-1108.737 J4.500
G3 X32.000 Y278.000 I-1184.375 J4.500
G3 X32.000 Y287.000 I-1262.543 J4.500
G3 X32.000 Y296.000 I-1343.242 J4.500
G3 X32.000 Y305.000 I-1426.472 J4.500
G3 X32.000 Y314.000 I-1512.232 J4.500
G3 X32.000 Y323.000 I-1600.523 J4.500
G3 X32.000 Y332.000 I-1691.345 J4.500
G3 X32.000 Y337.000 I-1763.817 J2.500
G3 X23.000 Y337.000 I-4.500 J-169.610
G3 X19.000 Y337.000 I-2.000 J-169.152
G3 X19.000 Y340.000 I-3022.709 J1.500
G3 X28.000 Y340.000 I4.500 J-170.800
G3 X37.000 Y340.000 I4.500 J-171.542
G3 X46.000 Y340.000 I4.500 J-172.521
G3 X55.000 Y340.000 I4.500 J-173.739
G3 X64.000 Y340.000 I4.500 J-175.194
G3 X67.000 Y340.000 I1.500 J-176.308
G3 X68.000 Y339.000 I0.500 J-0.500
G3 X74.000 Y339.000 I3.000 J-176.930
G3 X75.000 Y338.000 I0.500 J-0.500
G3 X79.000 Y338.000 I2.000 J-177.768
G3 X80.000 Y337.000 I0.500 J-0.500
G3 X83.000 Y337.000 I1.500 J-178.353
G3 X84.000 Y336.000 I0.500 J-0.500
G3 X86.000 Y336.000 I1.000 J-178.751
G3 X87.000 Y335.000 I0.500 J-0.500
G2 X88.000 Y334.000 I0.500 J-0.500
G3 X90.000 Y334.000 I1.000 J-178.857
G3 X92.000 Y332.000 I1.500 J-0.500
G2 X93.000 Y331.000 I0.500 J-0.500
G3 X95.000 Y330.000 I1.500 J0.500
G2 X96.000 Y329.000 I0.500 J-0.500
G3 X104.000 Y321.000 I-132.014 J-140.014
G2 X102.000 Y322.000 I-0.500 J1.500
M3
G3 X140.000 Y242.000 I-277.428 J1.000
M5 S20
G3 X149.000 Y242.000 I4.500 J-164.124
G3 X153.000 Y242.000 I2.000 J-168.106
G3 X153.000 Y251.000 I-275.041 J4.500
G3 X153.000 Y260.000 I-289.806 J4.500
G3 X153.000 Y269.000 I-305.100 J4.500
G3 X153.000 Y278.000 I-320.923 J4.500
G3 X153.000 Y287.000 I-337.276 J4.500
G3 X153.000 Y296.000 I-354.158 J4.500
G3 X153.000 Y305.000 I-371.570 J4.500
G3 X153.000 Y314.000 I-389.511 J4.500
G3 X153.000 Y323.000 I-407.981 J4.500
G3 X153.000 Y332.000 I-426.981 J4.500
G3 X153.000 Y337.000 I-442.142 J2.500
G3 X144.000 Y337.000 I-4.500 J-201.207
G3 X140.000 Y337.000 I-2.000 J-198.414
G3 X140.000 Y340.000 I-479.214 J1.500
G3 X149.000 Y340.000 I4.500 J-200.694
G3 X158.000 Y340.000 I4.500 J-204.639
G3 X167.000 Y340.000 I4.500 J-208.821
G3 X176.000 Y340.000 I4.500 J-213.241
G3 X185.000 Y340.000 I4.500 J-217.900
G3 X194.000 Y340.000 I4.500 J-222.797
G3 X203.000 Y340.000 I4.500 J-227.933
G3 X212.000 Y340.000 I4.500 J-233.306
G3 X212.000 Y336.000 I-375.438 J-2.000
G3 X213.000 Y336.000 I0.500 J-0.500
M3
G3 X273.000 Y240.000 I1.500 J-273.564
M3
G3 X324.000 Y242.000 I-251.630 J1.000
M5 S20
G3 X333.000 Y242.000 I4.500 J-343.942
G3 X334.000 Y243.000 I0.500 J0.500
G3 X334.000 Y252.000 I-258.689 J4.500
G3 X334.000 Y261.000 I-265.479 J4.500
G3 X334.000 Y270.000 I-272.512 J4.500
G3 X334.000 Y279.000 I-279.788 J4.500
G3 X334.000 Y288.000 I-287.305 J4.500
G3 X334.000 Y297.000 I-295.066 J4.500
G3 X334.000 Y306.000 I-303.069 J4.500
G3 X334.000 Y315.000 I-311.314 J4.500
G3 X334.000 Y324.000 I-319.802 J4.500
G3 X334.000 Y333.000 I-328.533 J4.500
G3 X334.000 Y337.000 I-334.999 J2.000
G3 X325.000 Y337.000 I-4.500 J-329.571
G2 X324.000 Y338.000 I-0.500 J0.500
G3 X324.000 Y340.000 I-339.346 J1.000
G3 X333.000 Y340.000 I4.500 J-328.682
G3 X342.000 Y340.000 I4.500 J-337.497
G3 X351.000 Y340.000 I4.500 J-346.550
G3 X357.000 Y340.000 I3.000 J-354.282
G3 X357.000 Y337.000 I-338.978 J-1.500
G3 X348.000 Y337.000 I-4.500 J-352.844
G3 X347.000 Y336.000 I-0.500 J-0.500
G3 X347.000 Y327.000 I-331.834 J-4.500
G3 X347.000 Y318.000 I-323.353 J-4.500
G3 X347.000 Y309.000 I-315.105 J-4.500
G3 X347.000 Y300.000 I-307.091 J-4.500
G3 X347.000 Y291.000 I-299.310 J-4.500
G3 X347.000 Y288.000 I-294.262 J-1.500
G3 X348.000 Y288.000 I0.500 J-0.500
M3
G3 X633.000 Y240.000 I1.500 J-950.811
M3
G3 X756.000 Y240.000 I2.000 J-1304.400
M3
G2 X47.000 Y242.000 I1.500 J-0.500
M5 S20
G3 X56.000 Y242.000 I4.500 J-126.463
G3 X62.000 Y242.000 I3.000 J-128.184
G2 X63.000 Y243.000 I0.500 J0.500
G3 X69.000 Y243.000 I3.000 J-130.455
G2 X70.000 Y244.000 I0.500 J0.500
G3 X74.000 Y244.000 I2.000 J-132.619
G2 X75.000 Y245.000 I0.500 J0.500
G3 X77.000 Y245.000 I1.000 J-134.287
G2 X78.000 Y246.000 I0.500 J0.500
G3 X79.000 Y247.000 I0.500 J0.500
G3 X81.000 Y247.000 I1.000 J-136.455
G2 X82.000 Y248.000 I0.500 J0.500
G3 X83.000 Y249.000 I0.500 J0.500
G3 X91.000 Y257.000 I219.554 J-211.554
G2 X91.000 Y258.000 I-0.500 J0.500
G3 X91.000 Y260.000 I-414.064 J1.000
G3 X93.000 Y262.000 I227.576 J-225.576
G2 X93.000 Y263.000 I-0.500 J0.500
G3 X93.000 Y266.000 I-422.614 J1.500
G2 X94.000 Y266.000 I0.500 J0.500
M3
G3 X270.000 Y241.000 I1.500 J-270.066
M3
G2 X277.000 Y242.000 I1.500 J-0.500
M5 S20
G3 X286.000 Y242.000 I4.500 J-284.706
G3 X290.000 Y242.000 I2.000 J-292.368
G2 X291.000 Y243.000 I0.500 J0.500
G3 X293.000 Y243.000 I1.000 J-296.939
G2 X294.000 Y244.000 I0.500 J0.500
G3 X295.000 Y245.000 I0.500 J0.500
G3 X297.000 Y245.000 I1.000 J-301.307
G2 X298.000 Y247.000 I1.500 J0.500
G3 X302.000 Y251.000 I-1487.885 J1491.885
G2 X302.000 Y252.000 I-0.500 J0.500
G3 X302.000 Y253.000 I0.500 J0.500
G3 X304.000 Y255.000 I-1593.812 J1595.812
G2 X304.000 Y256.000 I-0.500 J0.500
G3 X304.000 Y257.000 I0.500 J0.500
G3 X305.000 Y259.000 I-0.500 J1.500
G2 X306.000 Y261.000 I1.500 J0.500
G1 X306.000 Y260.000
M3
G3 X630.000 Y241.000 I1.000 J-941.328
M3
G3 X752.000 Y241.000 I1.500 J-1289.062
M3
G3 X46.000 Y244.000 I-0.500 J1.500
M5 S20
G3 X46.000 Y253.000 I-694.054 J4.500
G3 X46.000 Y262.000 I-743.548 J4.500
G3 X46.000 Y271.000 I-794.803 J4.500
G3 X46.000 Y280.000 I-847.818 J4.500
G3 X46.000 Y289.000 I-902.594 J4.500
G3 X46.000 Y298.000 I-959.131 J4.500
G3 X46.000 Y307.000 I-1017.429 J4.500
G3 X46.000 Y316.000 I-1077.487 J4.500
G3 X46.000 Y325.000 I-1139.306 J4.500
G3 X46.000 Y334.000 I-1202.885 J4.500
G3 X46.000 Y337.000 I-1246.326 J1.500
G3 X55.000 Y337.000 I4.500 J-172.272
G3 X64.000 Y337.000 I4.500 J-173.741
G3 X65.000 Y336.000 I0.500 J-0.500
G3 X71.000 Y336.000 I3.000 J-174.875
G3 X72.000 Y335.000 I0.500 J-0.500
G3 X75.000 Y335.000 I1.500 J-175.562
G3 X76.000 Y334.000 I0.500 J-0.500
G3 X78.000 Y334.000 I1.000 J-175.875
G3 X79.000 Y333.000 I0.500 J-0.500
G2 X80.000 Y332.000 I0.500 J-0.500
G3 X82.000 Y332.000 I1.000 J-175.880
G3 X84.000 Y330.000 I1.500 J-0.500
G2 X85.000 Y329.000 I0.500 J-0.500
G3 X90.000 Y324.000 I-135.487 J-140.487
G2 X88.000 Y325.000 I-0.500 J1.500
G1 X87.000 Y326.000
M3
G3 X267.000 Y242.000 I1.000 J-267.189
M3
G2 X274.000 Y243.000 I1.500 J-0.500
M5 S20
G3 X276.000 Y243.000 I1.000 J-277.105
M3
G3 X628.000 Y242.000 I1.000 J-933.246
M3
G3 X631.000 Y244.000 I-0.000 J1.000
M5 S20
G3 X628.000 Y247.000 I-262.379 J-259.379
M3
G2 X652.000 Y244.000 I0.000 J1.000
M3
G3 X749.000 Y242.000 I1.500 J-1275.448
M3
G3 X265.000 Y243.000 I1.000 J-264.906
M3
G2 X273.000 Y244.000 I1.500 J-0.500
M5 S20
G3 X271.000 Y245.000 I-1.500 J-0.500
G2 X269.000 Y246.000 I-0.500 J1.500
G3 X267.000 Y248.000 I-129.963 J-127.963
G3 X267.000 Y250.000 I-249.606 J1.000
G2 X266.000 Y251.000 I-0.500 J0.500
G3 X265.000 Y252.000 I-0.500 J0.500
G3 X265.000 Y261.000 I-256.621 J4.500
G3 X265.000 Y267.000 I-263.994 J3.000
G3 X267.000 Y269.000 I31685.259 J-31683.259
G2 X267.000 Y270.000 I-0.500 J0.500
G3 X274.000 Y277.000 I23366.000 J-23359.000
G3 X275.000 Y277.000 I0.500 J-0.500
G2 X276.000 Y277.000 I0.500 J0.500
G3 X278.000 Y279.000 I51338.389 J-51336.389
G3 X279.000 Y279.000 I0.500 J-0.500
G2 X280.000 Y279.000 I0.500 J0.500
G2 X282.000 Y280.000 I1.500 J-0.500
G3 X283.000 Y281.000 I0.500 J0.500
G3 X285.000 Y281.000 I1.000 J-284.015
G2 X286.000 Y282.000 I0.500 J0.500
G3 X288.000 Y282.000 I1.000 J-287.043
G2 X289.000 Y283.000 I0.500 J0.500
G3 X290.000 Y284.000 I0.500 J0.500
G3 X293.000 Y284.000 I1.500 J-291.597
G2 X294.000 Y285.000 I0.500 J0.500
G3 X295.000 Y286.000 I0.500 J0.500
G3 X297.000 Y286.000 I1.000 J-296.174
G2 X298.000 Y287.000 I0.500 J0.500
G3 X299.000 Y288.000 I0.500 J0.500
G3 X301.000 Y288.000 I1.000 J-300.249
G2 X302.000 Y290.000 I1.500 J0.500
G3 X303.000 Y290.000 I0.500 J-0.500
G3 X312.000 Y299.000 I-6946.876 J6955.876
G2 X312.000 Y300.000 I-0.500 J0.500
G3 X312.000 Y302.000 I-301.193 J1.000
G2 X313.000 Y302.000 I0.500 J0.500
M3
G3 X625.000 Y244.000 I0.500 J0.500
M5 S20
G3 X623.000 Y244.000 I-1.000 J-919.897
G3 X619.000 Y248.000 I-259.297 J-255.297
G3 X619.000 Y250.000 I-359.581 J1.000
G2 X618.000 Y251.000 I-0.500 J0.500
G3 X617.000 Y252.000 I-0.500 J0.500
G3 X617.000 Y255.000 I-360.576 J1.500
G2 X616.000 Y256.000 I-0.500 J0.500
G3 X616.000 Y265.000 I-363.075 J4.500
G3 X616.000 Y269.000 I-365.863 J2.000
G2 X617.000 Y269.000 I0.500 J0.500
M3
G3 X657.000 Y247.000 I-594.396 J598.396
M3
G3 X746.000 Y243.000 I1.000 J-1263.521
M3
G2 X202.000 Y246.000 I1.500 J0.500
M5 S20
G1 X203.000 Y247.000
M3
G3 X262.000 Y245.000 I0.500 J0.500
M5 S20
G3 X260.000 Y245.000 I-1.000 J-261.521
G3 X257.000 Y248.000 I-127.819 J-124.819
G3 X257.000 Y250.000 I-249.123 J1.000
G2 X255.000 Y252.000 I-0.500 J1.500
G3 X254.000 Y253.000 I-0.500 J0.500
G3 X254.000 Y255.000 I-253.999 J1.000
G2 X253.000 Y256.000 I-0.500 J0.500
G3 X253.000 Y259.000 I-257.538 J1.500
G2 X252.000 Y260.000 I-0.500 J0.500
G3 X252.000 Y269.000 I-264.794 J4.500
G2 X253.000 Y269.000 I0.500 J0.500
M3
G3 X310.000 Y246.000 I-0.500 J1.500
M5 S20
G3 X310.000 Y255.000 I-256.197 J4.500
G3 X310.000 Y264.000 I-263.600 J4.500
G3 X306.000 Y264.000 I-2.000 J-311.663
G3 X306.000 Y262.000 I-266.020 J-1.000
M3
G3 X744.000 Y244.000 I1.000 J-1253.242
M3
G2 X784.000 Y246.000 I0.000 J1.000
M3
G3 X269.000 Y247.000 I-0.000 J1.000
M5 S20
G1 X268.000 Y248.000
M3
G2 X299.000 Y247.000 I1.500 J0.500
M5 S20
G3 X301.000 Y249.000 I-1455.492 J1457.492
M3
G3 X620.000 Y248.000 I-259.001 J-256.001
M3
G3 X741.000 Y246.000 I0.500 J0.500
M5 S20
G3 X739.000 Y246.000 I-1.000 J-1236.003
G3 X730.000 Y255.000 I-310.198 J-301.198
G3 X728.000 Y257.000 I-304.033 J-302.033
G3 X728.000 Y259.000 I-409.717 J1.000
G2 X727.000 Y260.000 I-0.500 J0.500
G3 X726.000 Y261.000 I-0.500 J0.500
G3 X726.000 Y263.000 I-410.275 J1.000
G2 X725.000 Y264.000 I-0.500 J0.500
G3 X724.000 Y265.000 I-0.500 J0.500
G3 X724.000 Y268.000 I-411.048 J1.500
G2 X723.000 Y269.000 I-0.500 J0.500
G3 X723.000 Y271.000 I-411.915 J1.000
G2 X722.000 Y272.000 I-0.500 J0.500
G3 X722.000 Y276.000 I-412.990 J2.000
G2 X721.000 Y277.000 I-0.500 J0.500
G3 X721.000 Y286.000 I-415.447 J4.500
G3 X720.000 Y287.000 I-0.500 J0.500
G3 X720.000 Y291.000 I-417.999 J2.000
G2 X721.000 Y291.000 I0.500 J0.500
M3
G3 X790.000 Y250.000 I-628.431 J633.431
M3
G3 X258.000 Y248.000 I-127.570 J-125.570
M3
G2 X751.000 Y247.000 I1.500 J-0.500
M5 S20
G3 X744.000 Y254.000 I-314.871 J-307.871
G3 X744.000 Y256.000 I-415.699 J1.000
G2 X743.000 Y257.000 I-0.500 J0.500
G3 X742.000 Y258.000 I-0.500 J0.500
G3 X742.000 Y261.000 I-416.377 J1.500
G2 X741.000 Y262.000 I-0.500 J0.500
G3 X740.000 Y263.000 I-0.500 J0.500
G3 X740.000 Y267.000 I-417.448 J2.000
G2 X739.000 Y268.000 I-0.500 J0.500
G3 X739.000 Y272.000 I-418.822 J2.000
G2 X738.000 Y273.000 I-0.500 J0.500
G3 X738.000 Y279.000 I-420.607 J3.000
G2 X737.000 Y280.000 I-0.500 J0.500
G3 X737.000 Y289.000 I-423.407 J4.500
G3 X737.000 Y298.000 I-426.936 J4.500
G3 X737.000 Y300.000 I-429.152 J1.000
G2 X738.000 Y300.000 I0.500 J0.500
M3
G3 X748.000 Y249.000 I-0.000 J1.000
M5 S20
G3 X746.000 Y251.000 I-312.187 J-310.187
M3
G2 X85.000 Y250.000 I1.500 J0.500
M5 S20
G3 X89.000 Y254.000 I217.358 J-213.358
M3
G3 X103.000 Y257.000 I242.945 J-233.945
M3
G3 X731.000 Y253.000 I-307.768 J-302.768
M3
G3 X745.000 Y254.000 I0.000 J1.000
M3
G3 X729.000 Y257.000 I-305.206 J-302.206
M3
G3 X627.000 Y262.000 I-0.500 J1.500
M5 S20
G3 X627.000 Y264.000 I-368.658 J1.000
G2 X628.000 Y264.000 I0.500 J0.500
M3
G3 X629.000 Y267.000 I-641.455 J643.455
M5 S20
G2 X629.000 Y268.000 I-0.500 J0.500
G3 X629.000 Y270.000 I-372.020 J1.000
G3 X632.000 Y273.000 I-654.821 J657.821
G2 X632.000 Y274.000 I-0.500 J0.500
G3 X632.000 Y275.000 I0.500 J0.500
G3 X634.000 Y277.000 I-666.874 J668.874
G2 X634.000 Y278.000 I-0.500 J0.500
G3 X636.000 Y280.000 I-674.651 J676.651
G2 X636.000 Y281.000 I-0.500 J0.500
G3 X638.000 Y283.000 I-682.507 J684.507
G2 X638.000 Y284.000 I-0.500 J0.500
G3 X640.000 Y286.000 I-690.445 J692.445
G2 X640.000 Y287.000 I-0.500 J0.500
G3 X642.000 Y289.000 I-698.465 J700.465
G2 X642.000 Y290.000 I-0.500 J0.500
G3 X644.000 Y292.000 I-706.567 J708.567
G2 X644.000 Y293.000 I-0.500 J0.500
G3 X648.000 Y297.000 I-716.427 J720.427
G2 X648.000 Y298.000 I-0.500 J0.500
G3 X651.000 Y301.000 I-729.281 J732.281
G2 X651.000 Y302.000 I-0.500 J0.500
G3 X656.000 Y307.000 I-742.163 J747.163
G2 X656.000 Y308.000 I-0.500 J0.500
G3 X662.000 Y314.000 I-759.920 J765.920
G2 X662.000 Y315.000 I-0.500 J0.500
G3 X671.000 Y324.000 I-782.653 J791.653
G3 X671.000 Y325.000 I0.500 J0.500
G3 X662.000 Y316.000 I-794.853 J785.853
M3
G3 X376.000 Y266.000 I4.000 J-393.107
M5 S20
G2 X377.000 Y267.000 I0.500 J0.500
G3 X379.000 Y267.000 I1.000 J-401.071
G2 X380.000 Y268.000 I0.500 J0.500
G3 X382.000 Y268.000 I1.000 J-404.821
G2 X383.000 Y270.000 I1.500 J0.500
G3 X384.000 Y270.000 I0.500 J-0.500
G3 X389.000 Y275.000 I-978.309 J983.309
G2 X389.000 Y276.000 I-0.500 J0.500
G3 X389.000 Y277.000 I0.500 J0.500
G3 X390.000 Y279.000 I-0.500 J1.500
G2 X391.000 Y281.000 I1.500 J0.500
G1 X391.000 Y280.000
M3
G3 X443.000 Y266.000 I3.000 J-496.901
M5 S20
G2 X444.000 Y267.000 I0.500 J0.500
G3 X451.000 Y267.000 I3.500 J-508.501
G2 X452.000 Y268.000 I0.500 J0.500
G3 X454.000 Y268.000 I1.000 J-516.851
G2 X455.000 Y269.000 I0.500 J0.500
G3 X456.000 Y270.000 I0.500 J0.500
G3 X458.000 Y270.000 I1.000 J-521.755
G2 X459.000 Y271.000 I0.500 J0.500
G3 X460.000 Y272.000 I0.500 J0.500
G3 X465.000 Y277.000 I-766.774 J771.774
G2 X465.000 Y278.000 I-0.500 J0.500
G3 X465.000 Y280.000 I-316.199 J1.000
G2 X466.000 Y280.000 I0.500 J0.500
M3
G2 X94.000 Y269.000 I0.500 J1.500
M5 S20
G3 X94.000 Y271.000 I-434.753 J1.000
G2 X95.000 Y271.000 I0.500 J0.500
M3
G3 X368.000 Y267.000 I2.000 J-384.350
M3
G3 X437.000 Y267.000 I4.000 J-484.590
M3
G3 X846.000 Y267.000 I4.500 J-1459.552
M5 S20
G3 X854.000 Y267.000 I4.000 J-1486.479
G2 X855.000 Y268.000 I0.500 J0.500
G3 X858.000 Y268.000 I1.500 J-1502.636
G2 X859.000 Y269.000 I0.500 J0.500
G3 X861.000 Y269.000 I1.000 J-1509.216
G2 X862.000 Y270.000 I0.500 J0.500
G3 X864.000 Y270.000 I1.000 J-1514.196
G2 X865.000 Y272.000 I1.500 J0.500
G3 X866.000 Y272.000 I0.500 J-0.500
G3 X875.000 Y281.000 I-697.693 J706.693
G2 X875.000 Y282.000 I-0.500 J0.500
G3 X875.000 Y283.000 I0.500 J0.500
G3 X876.000 Y285.000 I-0.500 J1.500
G2 X877.000 Y287.000 I1.500 J0.500
G1 X877.000 Y286.000
M3
G3 X364.000 Y268.000 I1.500 J-379.158
M3
G3 X429.000 Y268.000 I1.500 J-474.960
M3
G2 X438.000 Y269.000 I1.500 J-0.500
M5 S20
G3 X445.000 Y269.000 I3.500 J-496.798
G2 X446.000 Y270.000 I0.500 J0.500
G3 X447.000 Y271.000 I0.500 J0.500
G3 X449.000 Y271.000 I1.000 J-505.801
G2 X450.000 Y273.000 I1.500 J0.500
G3 X453.000 Y276.000 I-787.189 J790.189
G2 X453.000 Y277.000 I-0.500 J0.500
G3 X453.000 Y279.000 I-311.802 J1.000
G2 X454.000 Y279.000 I0.500 J0.500
M3
G3 X486.000 Y268.000 I4.500 J-566.525
M5 S20
G3 X495.000 Y268.000 I4.500 J-582.846
G3 X504.000 Y268.000 I4.500 J-599.469
G3 X509.000 Y268.000 I2.500 J-612.617
G3 X509.000 Y271.000 I-325.845 J1.500
G3 X500.000 Y271.000 I-4.500 J-605.078
G3 X498.000 Y271.000 I-1.000 J-594.909
G3 X498.000 Y274.000 I-323.553 J1.500
G2 X499.000 Y274.000 I0.500 J0.500
M3
G3 X561.000 Y268.000 I4.500 J-711.767
M5 S20
G3 X570.000 Y268.000 I4.500 J-730.607
G3 X578.000 Y268.000 I4.000 J-748.680
G3 X578.000 Y271.000 I-351.828 J1.500
G3 X569.000 Y271.000 I-4.500 J-742.314
G2 X568.000 Y272.000 I-0.500 J0.500
G3 X568.000 Y275.000 I-349.846 J1.500
G2 X567.000 Y276.000 I-0.500 J0.500
G3 X567.000 Y279.000 I-351.406 J1.500
G2 X566.000 Y280.000 I-0.500 J0.500
G3 X566.000 Y284.000 I-353.249 J2.000
G2 X565.000 Y285.000 I-0.500 J0.500
G3 X565.000 Y288.000 I-355.138 J1.500
G2 X564.000 Y289.000 I-0.500 J0.500
G3 X564.000 Y292.000 I-356.813 J1.500
G2 X563.000 Y293.000 I-0.500 J0.500
G3 X563.000 Y297.000 I-358.785 J2.000
G2 X562.000 Y298.000 I-0.500 J0.500
G3 X562.000 Y301.000 I-360.804 J1.500
G2 X561.000 Y302.000 I-0.500 J0.500
G3 X561.000 Y305.000 I-362.596 J1.500
G2 X560.000 Y306.000 I-0.500 J0.500
G3 X560.000 Y309.000 I-364.424 J1.500
G2 X559.000 Y310.000 I-0.500 J0.500
G3 X559.000 Y314.000 I-366.568 J2.000
G2 X558.000 Y315.000 I-0.500 J0.500
G3 X558.000 Y318.000 I-368.759 J1.500
G2 X557.000 Y319.000 I-0.500 J0.500
G3 X557.000 Y322.000 I-370.708 J1.500
G2 X556.000 Y323.000 I-0.500 J0.500
G3 X556.000 Y327.000 I-372.985 J2.000
G2 X555.000 Y328.000 I-0.500 J0.500
G3 X555.000 Y331.000 I-375.310 J1.500
G2 X554.000 Y332.000 I-0.500 J0.500
G3 X554.000 Y335.000 I-377.380 J1.500
G2 X553.000 Y336.000 I-0.500 J0.500
G3 X553.000 Y339.000 I-379.488 J1.500
G2 X551.000 Y340.000 I-0.500 J1.500
G3 X543.000 Y340.000 I-4.000 J-610.003
G3 X543.000 Y336.000 I-376.695 J-2.000
G3 X542.000 Y335.000 I-0.500 J-0.500
G3 X542.000 Y333.000 I-373.911 J-1.000
G3 X541.000 Y332.000 I-0.500 J-0.500
G3 X541.000 Y329.000 I-371.451 J-1.500
G3 X540.000 Y328.000 I-0.500 J-0.500
G3 X540.000 Y326.000 I-369.008 J-1.000
G3 X539.000 Y325.000 I-0.500 J-0.500
G3 X539.000 Y323.000 I-366.880 J-1.000
G3 X538.000 Y322.000 I-0.500 J-0.500
G3 X538.000 Y319.000 I-364.464 J-1.500
G3 X537.000 Y318.000 I-0.500 J-0.500
G3 X537.000 Y316.000 I-362.065 J-1.000
G3 X536.000 Y315.000 I-0.500 J-0.500
G3 X536.000 Y312.000 I-359.680 J-1.500
G3 X535.000 Y311.000 I-0.500 J-0.500
G3 X535.000 Y309.000 I-357.313 J-1.000
G3 X534.000 Y308.000 I-0.500 J-0.500
G3 X534.000 Y306.000 I-355.248 J-1.000
G3 X533.000 Y305.000 I-0.500 J-0.500
G3 X533.000 Y302.000 I-352.908 J-1.500
G3 X532.000 Y301.000 I-0.500 J-0.500
G3 X532.000 Y299.000 I-350.586 J-1.000
G3 X531.000 Y298.000 I-0.500 J-0.500
G3 X531.000 Y295.000 I-348.279 J-1.500
G3 X530.000 Y294.000 I-0.500 J-0.500
G3 X530.000 Y291.000 I-345.712 J-1.500
G3 X529.000 Y290.000 I-0.500 J-0.500
G3 X529.000 Y287.000 I-343.168 J-1.500
G3 X527.000 Y287.000 I-1.000 J-629.184
G2 X526.000 Y289.000 I0.500 J1.500
G3 X526.000 Y292.000 I-343.218 J1.500
G2 X525.000 Y293.000 I-0.500 J0.500
G3 X525.000 Y295.000 I-344.820 J1.000
G2 X524.000 Y296.000 I-0.500 J0.500
G3 X524.000 Y299.000 I-346.451 J1.500
G2 X523.000 Y300.000 I-0.500 J0.500
G3 X523.000 Y302.000 I-348.116 J1.000
G2 X522.000 Y303.000 I-0.500 J0.500
G3 X522.000 Y306.000 I-349.811 J1.500
G2 X521.000 Y307.000 I-0.500 J0.500
G3 X521.000 Y309.000 I-351.540 J1.000
G2 X520.000 Y310.000 I-0.500 J0.500
G3 X520.000 Y313.000 I-353.299 J1.500
G2 X519.000 Y314.000 I-0.500 J0.500
G3 X519.000 Y316.000 I-355.092 J1.000
G2 X518.000 Y317.000 I-0.500 J0.500
G3 X518.000 Y320.000 I-356.916 J1.500
G2 X517.000 Y321.000 I-0.500 J0.500
G3 X517.000 Y323.000 I-358.774 J1.000
G2 X516.000 Y324.000 I-0.500 J0.500
G3 X516.000 Y327.000 I-360.664 J1.500
G2 X515.000 Y328.000 I-0.500 J0.500
G3 X515.000 Y330.000 I-362.588 J1.000
G2 X514.000 Y331.000 I-0.500 J0.500
G3 X514.000 Y334.000 I-364.544 J1.500
G2 X513.000 Y335.000 I-0.500 J0.500
G3 X513.000 Y337.000 I-366.535 J1.000
G2 X512.000 Y338.000 I-0.500 J0.500
G3 X512.000 Y340.000 I-368.227 J1.000
G3 X503.000 Y340.000 I-4.500 J-548.747
G3 X503.000 Y337.000 I-365.398 J-1.500
G3 X502.000 Y336.000 I-0.500 J-0.500
G3 X502.000 Y333.000 I-362.443 J-1.500
G3 X501.000 Y332.000 I-0.500 J-0.500
G3 X501.000 Y329.000 I-359.511 J-1.500
G3 X500.000 Y328.000 I-0.500 J-0.500
G3 X500.000 Y325.000 I-356.601 J-1.500
G3 X499.000 Y324.000 I-0.500 J-0.500
G3 X499.000 Y321.000 I-353.714 J-1.500
G3 X498.000 Y320.000 I-0.500 J-0.500
G3 X498.000 Y317.000 I-350.849 J-1.500
G3 X497.000 Y316.000 I-0.500 J-0.500
G3 X497.000 Y312.000 I-347.689 J-2.000
G3 X496.000 Y311.000 I-0.500 J-0.500
G3 X496.000 Y308.000 I-344.562 J-1.500
G3 X495.000 Y307.000 I-0.500 J-0.500
G3 X495.000 Y304.000 I-341.772 J-1.500
G3 X494.000 Y303.000 I-0.500 J-0.500
G3 X494.000 Y300.000 I-339.005 J-1.500
G3 X493.000 Y299.000 I-0.500 J-0.500
G3 X493.000 Y296.000 I-336.262 J-1.500
G3 X492.000 Y295.000 I-0.500 J-0.500
G3 X492.000 Y292.000 I-333.542 J-1.500
G3 X491.000 Y291.000 I-0.500 J-0.500
G3 X491.000 Y287.000 I-330.550 J-2.000
G3 X490.000 Y286.000 I-0.500 J-0.500
G3 X490.000 Y283.000 I-327.591 J-1.500
G3 X489.000 Y282.000 I-0.500 J-0.500
G3 X489.000 Y279.000 I-324.949 J-1.500
G3 X488.000 Y278.000 I-0.500 J-0.500
G3 X488.000 Y275.000 I-322.331 J-1.500
G3 X487.000 Y274.000 I-0.500 J-0.500
G3 X487.000 Y271.000 I-319.737 J-1.500
G3 X478.000 Y271.000 I-4.500 J-565.016
G3 X477.000 Y270.000 I-0.500 J-0.500
G1 X477.000 Y269.000
M3
G3 X837.000 Y268.000 I2.000 J-1434.785
M3
G2 X846.000 Y269.000 I1.500 J-0.500
M5 S20
G3 X849.000 Y269.000 I1.500 J-1469.542
G2 X850.000 Y270.000 I0.500 J0.500
G3 X853.000 Y270.000 I1.500 J-1477.683
G2 X854.000 Y271.000 I0.500 J0.500
G3 X855.000 Y272.000 I0.500 J0.500
G3 X857.000 Y272.000 I1.000 J-1482.936
G2 X858.000 Y274.000 I1.500 J0.500
G3 X861.000 Y277.000 I-695.963 J698.963
G2 X861.000 Y278.000 I-0.500 J0.500
G3 X861.000 Y279.000 I0.500 J0.500
G3 X863.000 Y281.000 I-704.706 J706.706
G2 X863.000 Y282.000 I-0.500 J0.500
G3 X863.000 Y284.000 I-477.901 J1.000
G2 X864.000 Y284.000 I0.500 J0.500
M3
G3 X361.000 Y269.000 I1.000 J-375.391
M3
G3 X426.000 Y269.000 I1.500 J-469.442
M3
G2 X434.000 Y270.000 I1.500 J-0.500
M5 S20
G3 X437.000 Y270.000 I1.500 J-486.220
M3
G3 X552.000 Y271.000 I-342.032 J1.000
M5 S20
G3 X561.000 Y271.000 I4.500 J-706.871
G3 X565.000 Y271.000 I2.000 J-720.308
G3 X565.000 Y273.000 I-347.972 J1.000
G2 X564.000 Y274.000 I-0.500 J0.500
G3 X564.000 Y278.000 I-349.530 J2.000
G2 X563.000 Y279.000 I-0.500 J0.500
G3 X563.000 Y282.000 I-351.375 J1.500
G2 X562.000 Y283.000 I-0.500 J0.500
G3 X562.000 Y286.000 I-353.010 J1.500
G2 X561.000 Y287.000 I-0.500 J0.500
G3 X561.000 Y290.000 I-354.681 J1.500
G2 X560.000 Y291.000 I-0.500 J0.500
G3 X560.000 Y294.000 I-356.389 J1.500
G2 X559.000 Y295.000 I-0.500 J0.500
G3 X559.000 Y299.000 I-358.397 J2.000
G2 X558.000 Y300.000 I-0.500 J0.500
G3 X558.000 Y303.000 I-360.453 J1.500
G2 X557.000 Y304.000 I-0.500 J0.500
G3 X557.000 Y307.000 I-362.278 J1.500
G2 X556.000 Y308.000 I-0.500 J0.500
G3 X556.000 Y311.000 I-364.141 J1.500
G2 X555.000 Y312.000 I-0.500 J0.500
G3 X555.000 Y316.000 I-366.324 J2.000
G2 X554.000 Y317.000 I-0.500 J0.500
G3 X554.000 Y320.000 I-368.553 J1.500
G2 X553.000 Y321.000 I-0.500 J0.500
G3 X553.000 Y324.000 I-370.537 J1.500
G2 X552.000 Y325.000 I-0.500 J0.500
G3 X551.000 Y326.000 I-0.500 J0.500
G3 X550.000 Y325.000 I-0.500 J-0.500
G2 X549.000 Y324.000 I-0.500 J-0.500
G3 X549.000 Y320.000 I-368.928 J-2.000
G3 X548.000 Y319.000 I-0.500 J-0.500
G3 X548.000 Y316.000 I-365.976 J-1.500
G3 X547.000 Y315.000 I-0.500 J-0.500
G3 X547.000 Y312.000 I-363.337 J-1.500
G3 X546.000 Y311.000 I-0.500 J-0.500
G3 X546.000 Y308.000 I-360.719 J-1.500
G3 X545.000 Y307.000 I-0.500 J-0.500
G3 X545.000 Y305.000 I-358.404 J-1.000
G3 X544.000 Y304.000 I-0.500 J-0.500
G3 X544.000 Y302.000 I-356.383 J-1.000
G3 X543.000 Y301.000 I-0.500 J-0.500
G3 X543.000 Y298.000 I-354.096 J-1.500
G3 X542.000 Y297.000 I-0.500 J-0.500
G3 X542.000 Y295.000 I-351.826 J-1.000
G3 X541.000 Y294.000 I-0.500 J-0.500
G3 X541.000 Y291.000 I-349.571 J-1.500
G3 X540.000 Y290.000 I-0.500 J-0.500
G3 X540.000 Y288.000 I-347.334 J-1.000
G3 X539.000 Y287.000 I-0.500 J-0.500
G3 X539.000 Y285.000 I-345.377 J-1.000
G3 X538.000 Y284.000 I-0.500 J-0.500
G3 X538.000 Y281.000 I-343.168 J-1.500
G3 X537.000 Y280.000 I-0.500 J-0.500
G3 X537.000 Y278.000 I-340.977 J-1.000
G3 X536.000 Y277.000 I-0.500 J-0.500
G3 X536.000 Y275.000 I-339.059 J-1.000
G3 X527.000 Y275.000 I-4.500 J-651.106
G2 X526.000 Y277.000 I0.500 J1.500
G3 X526.000 Y280.000 I-336.727 J1.500
G2 X525.000 Y281.000 I-0.500 J0.500
G3 X525.000 Y283.000 I-338.237 J1.000
G2 X524.000 Y284.000 I-0.500 J0.500
G3 X524.000 Y287.000 I-339.776 J1.500
G2 X523.000 Y288.000 I-0.500 J0.500
G3 X523.000 Y290.000 I-341.348 J1.000
G2 X522.000 Y291.000 I-0.500 J0.500
G3 X522.000 Y294.000 I-342.949 J1.500
G2 X521.000 Y295.000 I-0.500 J0.500
G3 X521.000 Y297.000 I-344.584 J1.000
G2 X520.000 Y298.000 I-0.500 J0.500
G3 X520.000 Y301.000 I-346.249 J1.500
G2 X519.000 Y302.000 I-0.500 J0.500
G3 X519.000 Y304.000 I-347.947 J1.000
G2 X518.000 Y305.000 I-0.500 J0.500
G3 X518.000 Y308.000 I-349.677 J1.500
G2 X517.000 Y309.000 I-0.500 J0.500
G3 X517.000 Y311.000 I-351.440 J1.000
G2 X516.000 Y312.000 I-0.500 J0.500
G3 X516.000 Y315.000 I-353.234 J1.500
G2 X515.000 Y316.000 I-0.500 J0.500
G3 X515.000 Y318.000 I-355.062 J1.000
G2 X514.000 Y319.000 I-0.500 J0.500
G3 X514.000 Y322.000 I-356.921 J1.500
G2 X513.000 Y323.000 I-0.500 J0.500
G3 X513.000 Y325.000 I-358.815 J1.000
G2 X511.000 Y326.000 I-0.500 J1.500
G3 X510.000 Y324.000 I0.500 J-1.500
G3 X510.000 Y322.000 I-357.283 J-1.000
G3 X509.000 Y321.000 I-0.500 J-0.500
G3 X509.000 Y317.000 I-354.460 J-2.000
G3 X508.000 Y316.000 I-0.500 J-0.500
G3 X508.000 Y312.000 I-351.041 J-2.000
G3 X507.000 Y311.000 I-0.500 J-0.500
G3 X507.000 Y308.000 I-347.967 J-1.500
G3 X506.000 Y307.000 I-0.500 J-0.500
G3 X506.000 Y304.000 I-345.222 J-1.500
G3 X505.000 Y303.000 I-0.500 J-0.500
G3 X505.000 Y300.000 I-342.501 J-1.500
G3 X504.000 Y299.000 I-0.500 J-0.500
G3 X504.000 Y295.000 I-339.507 J-2.000
G3 X503.000 Y294.000 I-0.500 J-0.500
G3 X503.000 Y291.000 I-336.545 J-1.500
G3 X502.000 Y290.000 I-0.500 J-0.500
G3 X502.000 Y287.000 I-333.900 J-1.500
G3 X501.000 Y286.000 I-0.500 J-0.500
G3 X501.000 Y283.000 I-331.278 J-1.500
G3 X500.000 Y282.000 I-0.500 J-0.500
G3 X500.000 Y279.000 I-328.679 J-1.500
G3 X499.000 Y278.000 I-0.500 J-0.500
G3 X499.000 Y276.000 I-326.382 J-1.000
M3
G3 X833.000 Y269.000 I1.500 J-1419.609
M3
G2 X841.000 Y270.000 I1.500 J-0.500
M5 S20
G3 X845.000 Y270.000 I2.000 J-1451.009
M3
G2 X253.000 Y272.000 I0.500 J1.500
M5 S20
G2 X254.000 Y274.000 I1.500 J0.500
G1 X254.000 Y273.000
M3
G3 X272.000 Y276.000 I17806.939 J-17800.939
M3
G3 X359.000 Y270.000 I1.000 J-372.339
M3
G3 X387.000 Y272.000 I-966.077 J968.077
M3
G3 X423.000 Y270.000 I1.000 J-464.783
M3
G2 X432.000 Y271.000 I1.500 J-0.500
M5 S20
G1 X433.000 Y271.000
M3
G2 X618.000 Y273.000 I0.500 J1.500
M5 S20
G1 X618.000 Y272.000
M3
G3 X830.000 Y270.000 I1.000 J-1407.663
M3
G2 X838.000 Y271.000 I1.500 J-0.500
M5 S20
G3 X840.000 Y271.000 I1.000 J-1434.242
M3
G3 X109.000 Y273.000 I-0.500 J1.500
M5 S20
G2 X110.000 Y275.000 I1.500 J0.500
G1 X110.000 Y274.000
M3
G3 X356.000 Y272.000 I0.500 J0.500
M5 S20
G3 X355.000 Y272.000 I-0.500 J0.500
G3 X349.000 Y278.000 I-162.108 J-156.108
G3 X351.000 Y278.000 I1.000 J-359.322
G3 X352.000 Y277.000 I0.500 J-0.500
G3 X354.000 Y275.000 I-158.606 J-160.606
M3
G3 X421.000 Y271.000 I1.000 J-460.959
M3
G2 X431.000 Y272.000 I1.500 J-0.500
M5 S20
G3 X427.000 Y276.000 I-186.291 J-182.291
G3 X427.000 Y280.000 I-303.994 J2.000
G2 X426.000 Y281.000 I-0.500 J0.500
G3 X426.000 Y287.000 I-307.662 J3.000
G2 X424.000 Y288.000 I-0.500 J1.500
G3 X422.000 Y288.000 I-1.000 J-454.639
G3 X420.000 Y289.000 I-1.500 J-0.500
G3 X418.000 Y289.000 I-1.000 J-448.237
G3 X413.000 Y284.000 I-989.746 J984.746
G3 X413.000 Y278.000 I-302.090 J-3.000
G3 X419.000 Y272.000 I-176.937 J-182.937
G2 X417.000 Y273.000 I-0.500 J1.500
G3 X414.000 Y276.000 I-181.202 J-178.202
M3
G2 X451.000 Y273.000 I1.500 J0.500
M5 S20
G1 X452.000 Y274.000
M3
G3 X828.000 Y271.000 I1.000 J-1397.357
M3
G2 X837.000 Y272.000 I1.500 J-0.500
M5 S20
G3 X835.000 Y273.000 I-1.500 J-0.500
G2 X833.000 Y275.000 I-0.500 J1.500
G3 X832.000 Y276.000 I-0.500 J0.500
G2 X831.000 Y278.000 I0.500 J1.500
G3 X830.000 Y279.000 I-0.500 J0.500
G3 X830.000 Y281.000 I-462.229 J1.000
G2 X829.000 Y282.000 I-0.500 J0.500
G3 X829.000 Y284.000 I-462.804 J1.000
G2 X828.000 Y285.000 I-0.500 J0.500
G3 X828.000 Y288.000 I-463.566 J1.500
G2 X827.000 Y289.000 I-0.500 J0.500
G3 X827.000 Y294.000 I-464.872 J2.500
G2 X826.000 Y295.000 I-0.500 J0.500
G3 X826.000 Y304.000 I-467.293 J4.500
G3 X826.000 Y313.000 I-470.605 J4.500
G2 X827.000 Y313.000 I0.500 J0.500
M3
G2 X95.000 Y274.000 I0.500 J1.500
M5 S20
G3 X95.000 Y280.000 I-451.306 J3.000
G2 X96.000 Y280.000 I0.500 J0.500
M3
G3 X428.000 Y274.000 I-0.000 J1.000
M3
G3 X463.000 Y274.000 I-760.820 J762.820
M3
G3 X825.000 Y273.000 I0.500 J0.500
M5 S20
G3 X823.000 Y273.000 I-1.000 J-1380.041
G3 X820.000 Y276.000 I-343.749 J-340.749
G3 X820.000 Y278.000 I-456.786 J1.000
G2 X818.000 Y280.000 I-0.500 J1.500
G3 X817.000 Y281.000 I-0.500 J0.500
G3 X817.000 Y283.000 I-457.168 J1.000
G2 X816.000 Y284.000 I-0.500 J0.500
G3 X815.000 Y285.000 I-0.500 J0.500
G3 X815.000 Y288.000 I-457.857 J1.500
G2 X814.000 Y289.000 I-0.500 J0.500
G3 X814.000 Y293.000 I-459.014 J2.000
G2 X813.000 Y294.000 I-0.500 J0.500
G3 X813.000 Y303.000 I-461.293 J4.500
G3 X813.000 Y312.000 I-464.648 J4.500
G3 X813.000 Y315.000 I-466.944 J1.500
G2 X814.000 Y315.000 I0.500 J0.500
M3
G2 X859.000 Y274.000 I1.500 J0.500
M5 S20
G1 X860.000 Y275.000
M3
G3 X873.000 Y278.000 I-696.594 J702.594
M3
G3 X351.000 Y275.000 I-159.929 J-157.929
M3
G3 X356.000 Y275.000 I-0.000 J1.000
M3
G2 X619.000 Y276.000 I0.500 J1.500
M5 S20
G1 X619.000 Y275.000
M3
G2 X255.000 Y277.000 I0.500 J1.500
M5 S20
G3 X264.000 Y286.000 I3332.119 J-3323.119
G2 X265.000 Y286.000 I0.500 J0.500
G3 X268.000 Y289.000 I3656.320 J-3653.320
G3 X269.000 Y289.000 I0.500 J-0.500
G2 X270.000 Y289.000 I0.500 J0.500
G2 X272.000 Y290.000 I1.500 J-0.500
G3 X273.000 Y291.000 I0.500 J0.500
G3 X275.000 Y291.000 I1.000 J-274.495
G2 X276.000 Y292.000 I0.500 J0.500
G3 X277.000 Y293.000 I0.500 J0.500
G3 X279.000 Y293.000 I1.000 J-278.383
G2 X280.000 Y294.000 I0.500 J0.500
G3 X282.000 Y294.000 I1.000 J-281.286
G2 X283.000 Y295.000 I0.500 J0.500
G3 X284.000 Y296.000 I0.500 J0.500
G3 X286.000 Y296.000 I1.000 J-285.203
G2 X287.000 Y297.000 I0.500 J0.500
G3 X288.000 Y298.000 I0.500 J0.500
G3 X297.000 Y307.000 I8812.784 J-8803.784
G3 X299.000 Y309.000 I9138.670 J-9136.670
G2 X299.000 Y310.000 I-0.500 J0.500
G3 X299.000 Y311.000 I0.500 J0.500
G3 X301.000 Y313.000 I7779.955 J-7777.955
G2 X301.000 Y314.000 I-0.500 J0.500
G3 X301.000 Y316.000 I-315.324 J1.000
G2 X302.000 Y316.000 I0.500 J0.500
M3
G3 X821.000 Y276.000 I-343.437 J-341.437
M3
G3 X110.000 Y277.000 I-0.500 J1.500
M5 S20
G3 X110.000 Y280.000 I-407.544 J1.500
G2 X111.000 Y280.000 I0.500 J0.500
M3
G3 X672.000 Y275.000 I4.500 J-947.585
M5 S20
G3 X681.000 Y275.000 I4.500 J-969.578
G3 X685.000 Y275.000 I2.000 J-985.656
G2 X686.000 Y277.000 I1.500 J0.500
G1 X686.000 Y276.000
M3
G2 X619.000 Y278.000 I0.500 J1.500
M5 S20
G3 X619.000 Y280.000 I-372.376 J1.000
G2 X616.000 Y280.000 I-1.500 J0.500
G2 X617.000 Y281.000 I-0.000 J1.000
G2 X618.000 Y281.000 I0.500 J-0.500
G3 X614.000 Y285.000 I-257.585 J-253.585
G3 X614.000 Y287.000 I-373.609 J1.000
G2 X613.000 Y288.000 I-0.500 J0.500
G3 X613.000 Y290.000 I-374.624 J1.000
G2 X612.000 Y291.000 I-0.500 J0.500
G3 X612.000 Y293.000 I-375.660 J1.000
G2 X611.000 Y294.000 I-0.500 J0.500
G3 X611.000 Y303.000 I-378.409 J4.500
G3 X611.000 Y308.000 I-381.873 J2.500
G2 X612.000 Y308.000 I0.500 J0.500
M3
G3 X663.000 Y278.000 I-389.365 J1.000
M5 S20
G3 X669.000 Y278.000 I3.000 J-936.753
G2 X670.000 Y279.000 I0.500 J0.500
G3 X672.000 Y279.000 I1.000 J-946.380
G2 X673.000 Y280.000 I0.500 J0.500
G3 X674.000 Y281.000 I0.500 J0.500
G3 X676.000 Y281.000 I1.000 J-951.217
G2 X677.000 Y283.000 I1.500 J0.500
G3 X682.000 Y288.000 I-686.870 J691.870
G2 X682.000 Y289.000 I-0.500 J0.500
G3 X682.000 Y291.000 I-402.657 J1.000
G2 X683.000 Y291.000 I0.500 J0.500
M3
G2 X256.000 Y279.000 I-0.000 J1.000
M5 S20
G3 X263.000 Y286.000 I3199.099 J-3192.099
M3
G3 X687.000 Y279.000 I-670.419 J672.419
M5 S20
G2 X687.000 Y280.000 I-0.500 J0.500
G3 X687.000 Y284.000 I-401.376 J2.000
G2 X688.000 Y284.000 I0.500 J0.500
M3
G3 X350.000 Y281.000 I-0.000 J1.000
M5 S20
G2 X349.000 Y283.000 I0.500 J1.500
G3 X349.000 Y285.000 I-290.052 J1.000
G2 X348.000 Y286.000 I-0.500 J0.500
M3
G2 X621.000 Y281.000 I1.500 J0.500
M5 S20
G3 X623.000 Y283.000 I-684.890 J686.890
G2 X623.000 Y284.000 I-0.500 J0.500
G3 X623.000 Y285.000 I0.500 J0.500
G3 X626.000 Y288.000 I-696.841 J699.841
G2 X626.000 Y289.000 I-0.500 J0.500
G3 X626.000 Y290.000 I0.500 J0.500
G3 X629.000 Y293.000 I-710.887 J713.887
G2 X629.000 Y294.000 I-0.500 J0.500
G3 X631.000 Y296.000 I-721.272 J723.272
G2 X631.000 Y297.000 I-0.500 J0.500
G3 X634.000 Y300.000 I-730.767 J733.767
G2 X634.000 Y301.000 I-0.500 J0.500
G3 X636.000 Y303.000 I-741.381 J743.381
G2 X636.000 Y304.000 I-0.500 J0.500
G3 X640.000 Y308.000 I-752.027 J756.027
G2 X640.000 Y309.000 I-0.500 J0.500
G3 X645.000 Y314.000 I-767.637 J772.637
G2 X645.000 Y315.000 I-0.500 J0.500
G3 X654.000 Y324.000 I-789.306 J798.306
G3 X662.000 Y332.000 I-814.989 J822.989
G2 X662.000 Y333.000 I-0.500 J0.500
G3 X662.000 Y335.000 I-415.256 J1.000
G2 X664.000 Y336.000 I1.500 J-0.500
G3 X669.000 Y336.000 I2.500 J-829.040
G2 X670.000 Y337.000 I0.500 J0.500
G3 X671.000 Y338.000 I0.500 J0.500
G3 X674.000 Y338.000 I1.500 J-838.015
G2 X675.000 Y339.000 I0.500 J0.500
G3 X677.000 Y339.000 I1.000 J-843.504
G2 X678.000 Y340.000 I0.500 J0.500
G3 X680.000 Y340.000 I1.000 J-847.999
G2 X681.000 Y341.000 I0.500 J0.500
G3 X687.000 Y341.000 I3.000 J-856.499
G2 X688.000 Y342.000 I0.500 J0.500
G2 X689.000 Y341.000 I0.500 J-0.500
G3 X690.000 Y341.000 I0.500 J-0.500
M3
G2 X622.000 Y281.000 I1.500 J0.500
M3
G2 X454.000 Y282.000 I0.500 J1.500
M5 S20
G3 X454.000 Y291.000 I-317.390 J4.500
G3 X454.000 Y295.000 I-321.545 J2.000
G3 X452.000 Y295.000 I-1.000 J-495.310
G3 X450.000 Y296.000 I-1.500 J-0.500
G2 X448.000 Y297.000 I-0.500 J1.500
G3 X446.000 Y297.000 I-1.000 J-484.877
G3 X444.000 Y298.000 I-1.500 J-0.500
G3 X442.000 Y298.000 I-1.000 J-478.275
G3 X440.000 Y299.000 I-1.500 J-0.500
G2 X438.000 Y300.000 I-0.500 J1.500
G3 X436.000 Y300.000 I-1.000 J-468.280
G3 X434.000 Y301.000 I-1.500 J-0.500
G2 X432.000 Y302.000 I-0.500 J1.500
G3 X430.000 Y302.000 I-1.000 J-458.550
G3 X428.000 Y303.000 I-1.500 J-0.500
G2 X426.000 Y304.000 I-0.500 J1.500
G3 X424.000 Y304.000 I-1.000 J-449.079
G3 X422.000 Y306.000 I-187.781 J-185.781
G2 X421.000 Y306.000 I-0.500 J-0.500
G3 X419.000 Y308.000 I-187.140 J-185.140
G3 X420.000 Y306.000 I1.500 J-0.500
M3
G3 X612.000 Y283.000 I-256.038 J-253.038
M5 S20
G3 X613.000 Y281.000 I1.500 J-0.500
M3
G2 X96.000 Y283.000 I0.500 J1.500
M5 S20
G3 X96.000 Y292.000 I-478.448 J4.500
G3 X96.000 Y301.000 I-505.822 J4.500
G2 X95.000 Y302.000 I-0.500 J0.500
G3 X95.000 Y309.000 I-538.672 J3.500
G2 X94.000 Y310.000 I-0.500 J0.500
G3 X94.000 Y314.000 I-564.763 J2.000
G2 X93.000 Y315.000 I-0.500 J0.500
G3 X93.000 Y317.000 I-583.342 J1.000
G2 X92.000 Y318.000 I-0.500 J0.500
G3 X91.000 Y319.000 I-0.500 J0.500
G3 X91.000 Y322.000 I-609.874 J1.500
G2 X90.000 Y323.000 I-0.500 J0.500
M3
G3 X111.000 Y283.000 I-0.500 J1.500
M5 S20
G3 X111.000 Y292.000 I-427.782 J4.500
G3 X111.000 Y300.000 I-450.130 J4.000
G2 X110.000 Y301.000 I-0.500 J0.500
G3 X110.000 Y306.000 I-473.671 J2.500
G2 X109.000 Y307.000 I-0.500 J0.500
G3 X109.000 Y310.000 I-491.056 J1.500
G2 X108.000 Y311.000 I-0.500 J0.500
G3 X108.000 Y313.000 I-504.655 J1.000
G2 X107.000 Y314.000 I-0.500 J0.500
G3 X106.000 Y315.000 I-0.500 J0.500
G3 X106.000 Y317.000 I-524.006 J1.000
G2 X105.000 Y318.000 I-0.500 J0.500
G3 X104.000 Y319.000 I-0.500 J0.500
G1 X104.000 Y320.000
M3
G2 X379.000 Y283.000 I0.500 J1.500
M5 S20
G3 X379.000 Y292.000 I-298.534 J4.500
G3 X379.000 Y301.000 I-305.468 J4.500
G3 X379.000 Y310.000 I-312.616 J4.500
G3 X379.000 Y319.000 I-319.978 J4.500
G3 X379.000 Y328.000 I-327.553 J4.500
G3 X379.000 Y337.000 I-335.342 J4.500
G3 X370.000 Y337.000 I-4.500 J-376.574
G2 X369.000 Y338.000 I-0.500 J0.500
G3 X369.000 Y340.000 I-340.219 J1.000
G3 X378.000 Y340.000 I4.500 J-375.138
G3 X387.000 Y340.000 I4.500 J-385.144
G3 X396.000 Y340.000 I4.500 J-395.388
G3 X402.000 Y340.000 I3.000 J-404.113
G3 X402.000 Y337.000 I-343.514 J-1.500
G3 X393.000 Y337.000 I-4.500 J-402.918
G3 X391.000 Y337.000 I-1.000 J-396.487
G3 X391.000 Y328.000 I-336.866 J-4.500
G3 X391.000 Y319.000 I-329.316 J-4.500
G3 X391.000 Y310.000 I-321.973 J-4.500
G3 X391.000 Y301.000 I-314.838 J-4.500
G3 X391.000 Y292.000 I-307.909 J-4.500
G3 X391.000 Y283.000 I-301.188 J-4.500
G1 X391.000 Y282.000
M3
G3 X466.000 Y283.000 I-0.500 J1.500
M5 S20
G3 X466.000 Y292.000 I-321.678 J4.500
G3 X466.000 Y301.000 I-327.318 J4.500
G3 X466.000 Y310.000 I-333.131 J4.500
G3 X466.000 Y319.000 I-339.118 J4.500
G2 X467.000 Y321.000 I1.500 J0.500
G1 X467.000 Y320.000
M3
G2 X678.000 Y283.000 I1.500 J0.500
M5 S20
G3 X681.000 Y286.000 I-685.407 J688.407
M3
G3 X610.000 Y284.000 I0.500 J0.500
M5 S20
G3 X603.000 Y291.000 I-255.451 J-248.451
G3 X603.000 Y293.000 I-372.199 J1.000
G2 X602.000 Y294.000 I-0.500 J0.500
G3 X602.000 Y296.000 I-373.280 J1.000
G2 X601.000 Y297.000 I-0.500 J0.500
G3 X601.000 Y299.000 I-374.380 J1.000
G2 X600.000 Y300.000 I-0.500 J0.500
G3 X600.000 Y309.000 I-377.260 J4.500
G3 X600.000 Y313.000 I-380.599 J2.000
G2 X601.000 Y313.000 I0.500 J0.500
M3
G3 X615.000 Y285.000 I-0.000 J1.000
M3
G3 X605.000 Y288.000 I-254.095 J-250.095
M3
G2 X415.000 Y287.000 I-0.000 J1.000
M5 S20
G1 X416.000 Y288.000
M3
G3 X688.000 Y287.000 I-0.500 J1.500
M5 S20
G3 X688.000 Y296.000 I-405.747 J4.500
G3 X688.000 Y304.000 I-409.402 J4.000
G2 X687.000 Y305.000 I-0.500 J0.500
G3 X687.000 Y308.000 I-411.871 J1.500
G2 X686.000 Y309.000 I-0.500 J0.500
G3 X686.000 Y311.000 I-413.043 J1.000
G2 X685.000 Y312.000 I-0.500 J0.500
G3 X684.000 Y313.000 I-0.500 J0.500
G3 X684.000 Y315.000 I-414.073 J1.000
G2 X683.000 Y316.000 I-0.500 J0.500
G3 X682.000 Y317.000 I-0.500 J0.500
G3 X682.000 Y319.000 I-415.137 J1.000
G2 X681.000 Y320.000 I-0.500 J0.500
G3 X680.000 Y321.000 I-0.500 J0.500
G3 X678.000 Y323.000 I-283.080 J-281.080
G3 X678.000 Y325.000 I-416.416 J1.000
G2 X676.000 Y326.000 I-0.500 J1.500
G2 X675.000 Y328.000 I0.500 J1.500
G2 X676.000 Y330.000 I1.500 J0.500
G3 X679.000 Y333.000 I-820.601 J823.601
G3 X680.000 Y333.000 I0.500 J-0.500
G3 X682.000 Y335.000 I-827.982 J829.982
G3 X683.000 Y335.000 I0.500 J-0.500
G3 X685.000 Y337.000 I-833.409 J835.409
G3 X686.000 Y337.000 I0.500 J-0.500
G3 X688.000 Y339.000 I-838.842 J840.842
G3 X689.000 Y339.000 I0.500 J-0.500
G1 X690.000 Y339.000
M3
G2 X864.000 Y287.000 I0.500 J1.500
M5 S20
G2 X865.000 Y289.000 I1.500 J0.500
G1 X865.000 Y288.000
M3
G3 X878.000 Y289.000 I-722.320 J724.320
M5 S20
G2 X878.000 Y290.000 I-0.500 J0.500
G3 X878.000 Y294.000 I-487.555 J2.000
G2 X879.000 Y294.000 I0.500 J0.500
M3
G3 X604.000 Y291.000 I-252.466 J-250.466
M3
G2 X865.000 Y291.000 I0.500 J1.500
M5 S20
G3 X865.000 Y296.000 I-482.292 J2.500
G2 X866.000 Y296.000 I0.500 J0.500
M3
G2 X190.000 Y292.000 I1.500 J0.500
M5 S20
G3 X192.000 Y294.000 I600.624 J-598.624
M3
G3 X310.000 Y296.000 I-6412.438 J6418.438
M3
G2 X683.000 Y294.000 I0.500 J1.500
M5 S20
G2 X684.000 Y296.000 I1.500 J0.500
G1 X684.000 Y295.000
M3
G2 X721.000 Y294.000 I0.500 J1.500
M5 S20
G3 X721.000 Y303.000 I-422.285 J4.500
G2 X722.000 Y303.000 I0.500 J0.500
M3
G3 X646.000 Y296.000 I-715.795 J718.795
M3
G3 X879.000 Y297.000 I-0.500 J1.500
M5 S20
G3 X879.000 Y306.000 I-491.203 J4.500
G3 X879.000 Y315.000 I-494.336 J4.500
G2 X878.000 Y316.000 I-0.500 J0.500
G3 X878.000 Y320.000 I-496.587 J2.000
G2 X877.000 Y321.000 I-0.500 J0.500
G3 X877.000 Y323.000 I-497.613 J1.000
G2 X876.000 Y324.000 I-0.500 J0.500
G3 X875.000 Y325.000 I-0.500 J0.500
G3 X875.000 Y327.000 I-498.229 J1.000
G2 X874.000 Y328.000 I-0.500 J0.500
G3 X873.000 Y329.000 I-0.500 J0.500
G2 X872.000 Y331.000 I0.500 J1.500
G3 X871.000 Y332.000 I-0.500 J0.500
G3 X865.000 Y338.000 I-362.784 J-356.784
G3 X866.000 Y336.000 I1.500 J-0.500
M3
G2 X684.000 Y298.000 I0.500 J1.500
M5 S20
G3 X684.000 Y303.000 I-408.007 J2.500
G2 X683.000 Y304.000 I-0.500 J0.500
G3 X683.000 Y309.000 I-410.270 J2.500
G2 X682.000 Y310.000 I-0.500 J0.500
G3 X682.000 Y312.000 I-411.909 J1.000
G2 X681.000 Y313.000 I-0.500 J0.500
G3 X681.000 Y315.000 I-412.890 J1.000
G2 X680.000 Y316.000 I-0.500 J0.500
G3 X679.000 Y317.000 I-0.500 J0.500
G3 X679.000 Y319.000 I-413.965 J1.000
G2 X677.000 Y321.000 I-0.500 J1.500
G3 X676.000 Y322.000 I-0.500 J0.500
G3 X673.000 Y325.000 I-281.861 J-278.861
G2 X675.000 Y324.000 I0.500 J-1.500
G1 X676.000 Y323.000
M3
G2 X290.000 Y299.000 I1.500 J0.500
M5 S20
G3 X298.000 Y307.000 I9845.040 J-9837.040
M3
G2 X632.000 Y299.000 I-0.000 J1.000
M3
G2 X866.000 Y299.000 I0.500 J1.500
M5 S20
G3 X866.000 Y308.000 I-486.178 J4.500
G3 X866.000 Y313.000 I-488.663 J2.500
G2 X865.000 Y314.000 I-0.500 J0.500
G3 X865.000 Y320.000 I-490.584 J3.000
G2 X864.000 Y321.000 I-0.500 J0.500
G3 X864.000 Y324.000 I-492.188 J1.500
G2 X863.000 Y325.000 I-0.500 J0.500
G3 X863.000 Y327.000 I-493.073 J1.000
G2 X862.000 Y328.000 I-0.500 J0.500
G3 X861.000 Y329.000 I-0.500 J0.500
G3 X861.000 Y331.000 I-493.740 J1.000
G2 X859.000 Y332.000 I-0.500 J1.500
G3 X854.000 Y337.000 I-357.444 J-352.444
G2 X853.000 Y337.000 I-0.500 J-0.500
G3 X852.000 Y337.000 I-0.500 J0.500
G3 X850.000 Y338.000 I-1.500 J-0.500
G3 X841.000 Y338.000 I-4.500 J-1226.486
G3 X839.000 Y337.000 I-0.500 J-1.500
G3 X837.000 Y337.000 I-1.000 J-1210.402
G3 X831.000 Y331.000 I-810.103 J804.103
G3 X831.000 Y329.000 I-481.023 J-1.000
G3 X830.000 Y328.000 I-0.500 J-0.500
G2 X829.000 Y327.000 I-0.500 J-0.500
G3 X829.000 Y324.000 I-478.402 J-1.500
G3 X828.000 Y323.000 I-0.500 J-0.500
G3 X828.000 Y320.000 I-476.416 J-1.500
G3 X827.000 Y319.000 I-0.500 J-0.500
G3 X827.000 Y315.000 I-474.254 J-2.000
M3
G2 X451.000 Y299.000 I1.500 J-0.500
M5 S20
G3 X454.000 Y299.000 I1.500 J-491.899
G3 X454.000 Y308.000 I-328.436 J4.500
G3 X454.000 Y317.000 I-334.542 J4.500
G3 X454.000 Y326.000 I-340.826 J4.500
G3 X453.000 Y327.000 I-0.500 J0.500
G3 X453.000 Y329.000 I-345.246 J1.000
G2 X455.000 Y330.000 I1.500 J-0.500
G3 X457.000 Y330.000 I1.000 J-480.053
G3 X457.000 Y333.000 I-348.731 J1.500
G3 X464.000 Y340.000 I-1308.080 J1315.080
G3 X465.000 Y340.000 I0.500 J-0.500
G3 X467.000 Y340.000 I1.000 J-489.346
G2 X468.000 Y341.000 I0.500 J0.500
G3 X475.000 Y341.000 I3.500 J-496.463
G3 X476.000 Y339.000 I1.500 J-0.500
G1 X476.000 Y340.000
M3
G3 X649.000 Y300.000 I-728.659 J730.659
M3
G2 X448.000 Y300.000 I1.500 J-0.500
M5 S20
G3 X450.000 Y300.000 I1.000 J-486.000
M3
G2 X445.000 Y301.000 I1.500 J-0.500
M5 S20
G3 X447.000 Y301.000 I1.000 J-480.924
M3
G2 X442.000 Y302.000 I1.500 J-0.500
M5 S20
G3 X444.000 Y302.000 I1.000 J-475.914
M3
G3 X738.000 Y303.000 I-0.500 J1.500
M5 S20
G3 X738.000 Y308.000 I-432.230 J2.500
G2 X739.000 Y308.000 I0.500 J0.500
M3
G2 X439.000 Y303.000 I1.500 J-0.500
M5 S20
G3 X441.000 Y303.000 I1.000 J-470.970
M3
G3 X654.000 Y306.000 I-741.555 J745.555
M3
G3 X313.000 Y305.000 I-0.500 J1.500
M5 S20
G2 X314.000 Y307.000 I1.500 J0.500
G1 X314.000 Y306.000
M3
G2 X437.000 Y304.000 I1.500 J-0.500
M5 S20
G1 X438.000 Y304.000
M3
G2 X435.000 Y305.000 I1.500 J-0.500
M5 S20
G1 X436.000 Y305.000
M3
G2 X637.000 Y306.000 I0.000 J1.000
M5 S20
G1 X638.000 Y307.000
M3
G2 X722.000 Y306.000 I0.500 J1.500
M5 S20
G3 X722.000 Y308.000 I-426.269 J1.000
G2 X723.000 Y308.000 I0.500 J0.500
M3
G2 X433.000 Y306.000 I1.500 J-0.500
M5 S20
G1 X434.000 Y306.000
M3
G2 X432.000 Y307.000 I1.500 J-0.500
M5 S20
G3 X427.000 Y312.000 I-192.118 J-187.118
G3 X427.000 Y315.000 I-328.583 J1.500
G2 X426.000 Y316.000 I-0.500 J0.500
G3 X426.000 Y325.000 I-333.554 J4.500
G3 X426.000 Y327.000 I-337.736 J1.000
G2 X427.000 Y327.000 I0.500 J0.500
M3
G3 X314.000 Y309.000 I-0.500 J1.500
M5 S20
G3 X314.000 Y318.000 I-313.487 J4.500
G2 X313.000 Y319.000 I-0.500 J0.500
G3 X313.000 Y322.000 I-320.588 J1.500
G2 X312.000 Y323.000 I-0.500 J0.500
G3 X311.000 Y324.000 I-0.500 J0.500
G3 X311.000 Y326.000 I-325.314 J1.000
G2 X310.000 Y327.000 I-0.500 J0.500
G3 X309.000 Y328.000 I-0.500 J0.500
G3 X300.000 Y337.000 I-164.045 J-155.045
G2 X299.000 Y337.000 I-0.500 J-0.500
G3 X298.000 Y337.000 I-0.500 J0.500
G3 X296.000 Y339.000 I-160.411 J-158.411
G2 X295.000 Y339.000 I-0.500 J-0.500
G3 X293.000 Y339.000 I-1.000 J-296.986
G3 X291.000 Y340.000 I-1.500 J-0.500
G3 X289.000 Y340.000 I-1.000 J-293.676
G3 X287.000 Y341.000 I-1.500 J-0.500
G3 X282.000 Y341.000 I-2.500 J-289.177
G3 X280.000 Y342.000 I-1.500 J-0.500
G3 X277.000 Y342.000 I-1.500 J-284.393
G2 X275.000 Y341.000 I-1.500 J0.500
G3 X268.000 Y341.000 I-3.500 J-278.575
G2 X266.000 Y340.000 I-1.500 J0.500
G3 X262.000 Y340.000 I-2.000 J-272.491
G2 X260.000 Y339.000 I-1.500 J0.500
G3 X258.000 Y339.000 I-1.000 J-268.439
G3 X256.000 Y337.000 I1111.830 J-1113.830
G3 X253.000 Y337.000 I-1.500 J-264.597
G3 X252.000 Y335.000 I0.500 J-1.500
G3 X252.000 Y326.000 I-342.710 J-4.500
G3 X251.000 Y325.000 I-0.500 J-0.500
G3 X251.000 Y316.000 I-330.105 J-4.500
G3 X251.000 Y314.000 I-323.158 J-1.000
G3 X250.000 Y313.000 I-0.500 J-0.500
G3 X250.000 Y311.000 I-319.686 J-1.000
G3 X253.000 Y311.000 I1.500 J-257.190
G3 X253.000 Y314.000 I-319.494 J1.500
G2 X254.000 Y314.000 I0.500 J0.500
M3
G3 X429.000 Y309.000 I-0.000 J1.000
M5 S20
G1 X428.000 Y310.000
M3
G3 X417.000 Y309.000 I0.500 J0.500
M5 S20
G3 X413.000 Y313.000 I-187.222 J-183.222
G3 X413.000 Y315.000 I-325.865 J1.000
G2 X412.000 Y316.000 I-0.500 J0.500
G3 X412.000 Y318.000 I-327.952 J1.000
G2 X411.000 Y319.000 I-0.500 J0.500
G3 X411.000 Y325.000 I-331.632 J3.000
G2 X412.000 Y325.000 I0.500 J0.500
M3
G3 X660.000 Y313.000 I-759.328 J764.328
M3
G3 X414.000 Y311.000 I-186.051 J-184.051
M3
G3 X612.000 Y311.000 I-0.500 J1.500
M5 S20
G3 X612.000 Y313.000 I-385.529 J1.000
G2 X613.000 Y313.000 I0.500 J0.500
M3
G2 X641.000 Y311.000 I0.000 J1.000
M5 S20
G3 X643.000 Y313.000 I-770.977 J772.977
M3
G2 X724.000 Y312.000 I0.500 J1.500
M5 S20
G1 X724.000 Y311.000
M3
G3 X739.000 Y311.000 I-0.500 J1.500
M5 S20
G3 X739.000 Y313.000 I-435.362 J1.000
G2 X740.000 Y313.000 I0.500 J0.500
M3
G3 X215.000 Y311.000 I2.000 J-228.438
M5 S20
G2 X214.000 Y313.000 I0.500 J1.500
G3 X214.000 Y322.000 I-342.509 J4.500
G3 X214.000 Y324.000 I-350.757 J1.000
G2 X213.000 Y325.000 I-0.500 J0.500
G3 X213.000 Y334.000 I-361.340 J4.500
M3
G3 X801.000 Y311.000 I1.500 J-1183.149
M5 S20
G3 X801.000 Y318.000 I-462.239 J3.500
G2 X800.000 Y319.000 I-0.500 J0.500
G3 X800.000 Y328.000 I-465.403 J4.500
G3 X799.000 Y329.000 I-0.500 J0.500
G3 X799.000 Y336.000 I-468.681 J3.500
G2 X797.000 Y337.000 I-0.500 J1.500
G3 X795.000 Y337.000 I-1.000 J-1108.580
G3 X793.000 Y339.000 I-329.922 J-327.922
G2 X792.000 Y339.000 I-0.500 J-0.500
G3 X789.000 Y339.000 I-1.500 J-1091.164
G3 X787.000 Y340.000 I-1.500 J-0.500
G3 X784.000 Y340.000 I-1.500 J-1077.365
G3 X782.000 Y341.000 I-1.500 J-0.500
G3 X773.000 Y341.000 I-4.500 J-1056.859
G3 X771.000 Y341.000 I-1.000 J0.000
G3 X762.000 Y341.000 I-4.500 J-1031.956
G3 X758.000 Y341.000 I-2.000 J-1017.416
G2 X756.000 Y340.000 I-1.500 J0.500
G3 X754.000 Y340.000 I-1.000 J-1008.270
G2 X752.000 Y339.000 I-1.500 J0.500
G3 X750.000 Y339.000 I-1.000 J-1001.357
G2 X748.000 Y338.000 I-1.500 J0.500
G3 X746.000 Y337.000 I-0.500 J-1.500
G2 X744.000 Y336.000 I-1.500 J0.500
G3 X742.000 Y335.000 I-0.500 J-1.500
G3 X739.000 Y332.000 I-811.768 J808.768
G3 X737.000 Y332.000 I-1.000 J-986.245
G3 X730.000 Y325.000 I-800.935 J793.935
G3 X730.000 Y323.000 I-436.901 J-1.000
G3 X728.000 Y321.000 I-0.500 J-1.500
G2 X727.000 Y320.000 I-0.500 J-0.500
G3 X727.000 Y318.000 I-433.487 J-1.000
G3 X726.000 Y317.000 I-0.500 J-0.500
G2 X725.000 Y316.000 I-0.500 J-0.500
G3 X725.000 Y314.000 I-430.931 J-1.000
G3 X724.000 Y313.000 I-0.500 J-0.500
M3
G3 X211.000 Y317.000 I-339.877 J2.500
M5 S20
G2 X210.000 Y318.000 I-0.500 J0.500
G3 X210.000 Y321.000 I-348.044 J1.500
G2 X209.000 Y322.000 I-0.500 J0.500
G3 X209.000 Y324.000 I-354.088 J1.000
G2 X208.000 Y325.000 I-0.500 J0.500
M3
G3 X798.000 Y314.000 I-460.384 J1.000
M5 S20
G2 X797.000 Y315.000 I-0.500 J0.500
G3 X797.000 Y317.000 I-461.145 J1.000
G2 X796.000 Y318.000 I-0.500 J0.500
G3 X796.000 Y320.000 I-461.920 J1.000
G2 X795.000 Y321.000 I-0.500 J0.500
G3 X794.000 Y322.000 I-0.500 J0.500
G3 X794.000 Y324.000 I-462.698 J1.000
G2 X793.000 Y325.000 I-0.500 J0.500
G3 X792.000 Y326.000 I-0.500 J0.500
G3 X792.000 Y328.000 I-463.505 J1.000
G2 X790.000 Y329.000 I-0.500 J1.500
G3 X783.000 Y336.000 I-329.295 J-322.295
G3 X784.000 Y334.000 I1.500 J-0.500
M3
G2 X601.000 Y316.000 I0.500 J1.500
M5 S20
G2 X602.000 Y318.000 I1.500 J0.500
G1 X602.000 Y317.000
M3
G3 X614.000 Y316.000 I-795.964 J797.964
M5 S20
G2 X614.000 Y317.000 I-0.500 J0.500
G3 X614.000 Y318.000 I0.500 J0.500
G3 X616.000 Y320.000 I-809.781 J811.781
G2 X616.000 Y321.000 I-0.500 J0.500
G3 X618.000 Y323.000 I-819.965 J821.965
G2 X618.000 Y324.000 I-0.500 J0.500
G3 X627.000 Y333.000 I-838.016 J847.016
G3 X628.000 Y333.000 I0.500 J-0.500
G2 X629.000 Y333.000 I0.500 J0.500
G3 X631.000 Y335.000 I-857.872 J859.872
G3 X632.000 Y335.000 I0.500 J-0.500
G3 X634.000 Y335.000 I1.000 J-765.541
G2 X635.000 Y336.000 I0.500 J0.500
G3 X637.000 Y336.000 I1.000 J-769.927
G2 X638.000 Y337.000 I0.500 J0.500
G3 X643.000 Y337.000 I2.500 J-777.160
G2 X644.000 Y338.000 I0.500 J0.500
G3 X650.000 Y338.000 I3.000 J-788.237
G3 X651.000 Y337.000 I0.500 J-0.500
G3 X656.000 Y337.000 I2.500 J-802.118
G3 X657.000 Y336.000 I0.500 J-0.500
G3 X659.000 Y336.000 I1.000 J-812.290
G3 X660.000 Y335.000 I0.500 J-0.500
G1 X661.000 Y335.000
M3
G3 X740.000 Y316.000 I-0.500 J1.500
M5 S20
G2 X741.000 Y318.000 I1.500 J0.500
G3 X741.000 Y319.000 I0.500 J0.500
G3 X742.000 Y321.000 I-0.500 J1.500
G2 X743.000 Y323.000 I1.500 J0.500
G3 X743.000 Y324.000 I0.500 J0.500
G3 X746.000 Y327.000 I-786.360 J789.360
G2 X746.000 Y328.000 I-0.500 J0.500
G3 X753.000 Y335.000 I-799.886 J806.886
G3 X754.000 Y335.000 I0.500 J-0.500
G3 X756.000 Y335.000 I1.000 J-1018.281
G2 X757.000 Y336.000 I0.500 J0.500
G3 X758.000 Y337.000 I0.500 J0.500
G3 X761.000 Y337.000 I1.500 J-1024.343
G2 X762.000 Y338.000 I0.500 J0.500
G3 X771.000 Y338.000 I4.500 J-1038.102
G3 X777.000 Y338.000 I3.000 J-1055.200
G3 X778.000 Y337.000 I0.500 J-0.500
G3 X780.000 Y337.000 I1.000 J-1068.855
G3 X781.000 Y336.000 I0.500 J-0.500
G1 X782.000 Y336.000
M3
G3 X255.000 Y317.000 I1326.402 J-1324.402
M5 S20
G2 X255.000 Y318.000 I-0.500 J0.500
G3 X255.000 Y320.000 I-327.030 J1.000
G3 X257.000 Y322.000 I1297.586 J-1295.586
G2 X257.000 Y323.000 I-0.500 J0.500
G3 X259.000 Y325.000 I1300.390 J-1298.390
G2 X259.000 Y326.000 I-0.500 J0.500
G3 X262.000 Y329.000 I1308.179 J-1305.179
G2 X262.000 Y330.000 I-0.500 J0.500
G3 X267.000 Y335.000 I1329.644 J-1324.644
G3 X268.000 Y335.000 I0.500 J-0.500
G2 X269.000 Y335.000 I0.500 J0.500
G3 X271.000 Y337.000 I1408.378 J-1406.378
G3 X272.000 Y337.000 I0.500 J-0.500
G3 X275.000 Y337.000 I1.500 J-279.481
G2 X276.000 Y338.000 I0.500 J0.500
G3 X285.000 Y338.000 I4.500 J-285.379
G3 X288.000 Y338.000 I1.500 J-290.422
G3 X289.000 Y337.000 I0.500 J-0.500
G3 X291.000 Y337.000 I1.000 J-293.277
G3 X292.000 Y336.000 I0.500 J-0.500
G2 X293.000 Y335.000 I0.500 J-0.500
G3 X295.000 Y335.000 I1.000 J-296.508
G3 X296.000 Y333.000 I1.500 J-0.500
G3 X300.000 Y329.000 I-155.680 J-159.680
G3 X300.000 Y328.000 I-0.500 J-0.500
G2 X300.000 Y327.000 I0.500 J-0.500
G2 X301.000 Y325.000 I-0.500 J-1.500
G3 X301.000 Y323.000 I-324.878 J-1.000
G3 X302.000 Y323.000 I0.500 J-0.500
M3
G2 X646.000 Y317.000 I-0.000 J1.000
M5 S20
G3 X655.000 Y326.000 I-795.643 J804.643
G3 X660.000 Y331.000 I-818.489 J823.489
M3
G2 X814.000 Y318.000 I0.500 J1.500
M5 S20
G3 X814.000 Y320.000 I-469.506 J1.000
G2 X815.000 Y320.000 I0.500 J0.500
M3
G2 X302.000 Y319.000 I0.500 J1.500
M5 S20
G3 X302.000 Y321.000 I-320.535 J1.000
M3
G2 X603.000 Y321.000 I0.500 J1.500
M5 S20
G3 X603.000 Y322.000 I0.500 J0.500
G3 X606.000 Y325.000 I-834.919 J837.919
G2 X606.000 Y326.000 I-0.500 J0.500
G3 X615.000 Y335.000 I-856.074 J865.074
G2 X616.000 Y335.000 I0.500 J0.500
G3 X619.000 Y338.000 I-878.453 J881.453
G3 X620.000 Y338.000 I0.500 J-0.500
G3 X622.000 Y338.000 I1.000 J-739.473
G2 X623.000 Y339.000 I0.500 J0.500
G3 X624.000 Y340.000 I0.500 J0.500
G3 X627.000 Y340.000 I1.500 J-745.365
G2 X628.000 Y341.000 I0.500 J0.500
G3 X632.000 Y341.000 I2.000 J-752.461
G2 X633.000 Y342.000 I0.500 J0.500
G3 X642.000 Y342.000 I4.500 J-765.148
G3 X648.000 Y342.000 I3.000 J-779.217
G3 X649.000 Y341.000 I0.500 J-0.500
G3 X653.000 Y341.000 I2.000 J-791.905
G3 X654.000 Y340.000 I0.500 J-0.500
G3 X656.000 Y340.000 I1.000 J-800.917
G3 X657.000 Y339.000 I0.500 J-0.500
G3 X659.000 Y339.000 I1.000 J-808.088
G3 X660.000 Y338.000 I0.500 J-0.500
G2 X661.000 Y337.000 I0.500 J-0.500
G3 X663.000 Y337.000 I1.000 J-818.712
M3
G3 X467.000 Y323.000 I-0.500 J1.500
M5 S20
G3 X467.000 Y327.000 I-346.587 J2.000
G2 X468.000 Y327.000 I0.500 J0.500
M3
G3 X679.000 Y323.000 I0.000 J1.000
M3
G2 X816.000 Y324.000 I0.500 J1.500
M5 S20
G3 X816.000 Y325.000 I0.500 J0.500
G3 X817.000 Y327.000 I-0.500 J1.500
G2 X818.000 Y329.000 I1.500 J0.500
G3 X827.000 Y338.000 I-800.930 J809.930
G3 X828.000 Y338.000 I0.500 J-0.500
G2 X829.000 Y338.000 I0.500 J0.500
G3 X831.000 Y340.000 I-817.552 J819.552
G3 X832.000 Y340.000 I0.500 J-0.500
G3 X834.000 Y340.000 I1.000 J-1190.422
G2 X835.000 Y341.000 I0.500 J0.500
G3 X841.000 Y341.000 I3.000 J-1200.176
G2 X842.000 Y342.000 I0.500 J0.500
G3 X850.000 Y342.000 I4.000 J-1217.357
G3 X851.000 Y341.000 I0.500 J-0.500
G3 X856.000 Y341.000 I2.500 J-1238.620
G3 X857.000 Y340.000 I0.500 J-0.500
G3 X860.000 Y340.000 I1.500 J-1253.852
G3 X861.000 Y339.000 I0.500 J-0.500
G2 X862.000 Y338.000 I0.500 J-0.500
G3 X864.000 Y338.000 I1.000 J-1270.726
M3
G3 X101.000 Y325.000 I0.000 J1.000
M5 S20
G3 X97.000 Y329.000 I-139.003 J-135.003
M3
G3 X624.000 Y331.000 I-836.540 J843.540
M3
G2 X732.000 Y326.000 I1.500 J0.500
M5 S20
G3 X737.000 Y331.000 I-794.785 J799.785
M3
G3 X676.000 Y327.000 I0.000 J1.000
M3
G3 X260.000 Y328.000 I1280.341 J-1278.341
M3
G2 X412.000 Y328.000 I0.500 J1.500
M5 S20
G2 X413.000 Y330.000 I1.500 J0.500
G3 X413.000 Y331.000 I0.500 J0.500
G3 X416.000 Y334.000 I-1720.107 J1723.107
G2 X416.000 Y335.000 I-0.500 J0.500
G3 X419.000 Y338.000 I-1773.281 J1776.281
G3 X420.000 Y338.000 I0.500 J-0.500
G3 X422.000 Y340.000 I-1780.338 J1782.338
G3 X423.000 Y340.000 I0.500 J-0.500
G3 X425.000 Y340.000 I1.000 J-434.375
G2 X426.000 Y341.000 I0.500 J0.500
G3 X431.000 Y341.000 I2.500 J-439.722
G2 X432.000 Y342.000 I0.500 J0.500
G3 X437.000 Y342.000 I2.500 J-447.005
G3 X438.000 Y341.000 I0.500 J-0.500
G3 X442.000 Y341.000 I2.000 J-454.368
G3 X443.000 Y340.000 I0.500 J-0.500
G3 X445.000 Y340.000 I1.000 J-459.905
G3 X446.000 Y339.000 I0.500 J-0.500
G2 X447.000 Y338.000 I0.500 J-0.500
G3 X449.000 Y338.000 I1.000 J-465.898
G3 X450.000 Y336.000 I1.500 J-0.500
G3 X454.000 Y332.000 I-198.926 J-202.926
G2 X452.000 Y333.000 I-0.500 J1.500
G3 X452.000 Y330.000 I0.500 J-1.500
G1 X452.000 Y331.000
M3
G2 X607.000 Y328.000 I0.000 J1.000
M5 S20
G3 X613.000 Y334.000 I-860.173 J866.173
M3
G3 X86.000 Y329.000 I-139.737 J-137.737
M3
G2 X819.000 Y329.000 I1.500 J0.500
M3
G3 X308.000 Y330.000 I-0.000 J1.000
M5 S20
G3 X302.000 Y336.000 I-162.801 J-156.801
M3
G3 X428.000 Y330.000 I-1481.419 J1483.419
M5 S20
G2 X428.000 Y331.000 I-0.500 J0.500
G3 X433.000 Y336.000 I-1526.012 J1531.012
G3 X434.000 Y336.000 I0.500 J-0.500
G3 X437.000 Y336.000 I1.500 J-450.230
G2 X438.000 Y337.000 I0.500 J0.500
G3 X443.000 Y337.000 I2.500 J-456.389
G3 X444.000 Y336.000 I0.500 J-0.500
G3 X447.000 Y336.000 I1.500 J-463.340
G3 X449.000 Y334.000 I1.500 J-0.500
G2 X450.000 Y333.000 I0.500 J-0.500
G1 X451.000 Y333.000
M3
G3 X469.000 Y330.000 I-1176.179 J1178.179
M5 S20
G2 X469.000 Y331.000 I-0.500 J0.500
G3 X469.000 Y332.000 I0.500 J0.500
G3 X475.000 Y338.000 I-1219.601 J1225.601
G3 X476.000 Y338.000 I0.500 J-0.500
M3
G3 X749.000 Y332.000 I-797.645 J801.645
M3
G3 X678.000 Y331.000 I-816.328 J818.328
M3
G3 X786.000 Y334.000 I-329.116 J-324.116
M3
G3 X263.000 Y332.000 I1292.199 J-1290.199
M3
G3 X296.000 Y334.000 I-159.956 J-155.956
M3
G2 X820.000 Y332.000 I-0.000 J1.000
M5 S20
G3 X824.000 Y336.000 I-804.593 J808.593
M3
G3 X431.000 Y335.000 I-1533.992 J1537.992
M3
G2 X740.000 Y334.000 I-0.000 J1.000
M3
G3 X834.000 Y335.000 I-804.387 J807.387
M3
G3 X856.000 Y336.000 I-357.586 J-353.586
M3
G3 X870.000 Y334.000 I0.000 J1.000
M5 S20
G3 X868.000 Y336.000 I-361.210 J-359.210
M3
G3 X473.000 Y337.000 I-1226.138 J1230.138
M3
G3 X743.000 Y335.000 I-810.418 J812.418
M3
G3 X451.000 Y336.000 I-0.000 J1.000
M5 S20
G1 X450.000 Y337.000
M3
G2 X459.000 Y336.000 I-0.000 J1.000
M5 S20
G3 X462.000 Y339.000 I-1323.515 J1326.515
M3
G1 X0.000 Y0.000
M2 ; End the program.