; GCode generated from image by Saad Ata.
G21 ; Set units to millimeters.
G90 ; Use absolute positioning.
M3
G1 X0.000 Y0.000
M3
G1 X692.000 Y155.000
M5 S20
G1 X691.000 Y156.000
G1 X690.000 Y156.000
G1 X689.000 Y156.000
G1 X688.000 Y157.000
G1 X687.000 Y158.000
G1 X687.000 Y157.000
G1 X686.000 Y158.000
G1 X685.000 Y158.000
G1 X684.000 Y158.000
G1 X683.000 Y159.000
G1 X682.000 Y160.000
G1 X682.000 Y159.000
G1 X681.000 Y160.000
G1 X680.000 Y160.000
G1 X679.000 Y160.000
G1 X678.000 Y161.000
G1 X677.000 Y162.000
G1 X677.000 Y161.000
G1 X676.000 Y162.000
G1 X675.000 Y163.000
G1 X675.000 Y162.000
G1 X674.000 Y163.000
G1 X673.000 Y163.000
G1 X672.000 Y163.000
G1 X671.000 Y164.000
G1 X670.000 Y165.000
G1 X670.000 Y164.000
G1 X669.000 Y165.000
G1 X668.000 Y166.000
G1 X668.000 Y165.000
G1 X667.000 Y166.000
G1 X666.000 Y166.000
G1 X665.000 Y166.000
G1 X664.000 Y167.000
G1 X663.000 Y168.000
G1 X663.000 Y167.000
G1 X662.000 Y168.000
G1 X661.000 Y168.000
G1 X660.000 Y168.000
G1 X659.000 Y169.000
G1 X658.000 Y170.000
G1 X658.000 Y169.000
G1 X657.000 Y170.000
G1 X656.000 Y171.000
G1 X656.000 Y170.000
G1 X655.000 Y171.000
G1 X654.000 Y171.000
G1 X653.000 Y171.000
G1 X652.000 Y172.000
G1 X651.000 Y173.000
G1 X651.000 Y172.000
G1 X650.000 Y173.000
G1 X649.000 Y174.000
G1 X649.000 Y173.000
G1 X648.000 Y174.000
G1 X647.000 Y174.000
G1 X646.000 Y174.000
G1 X645.000 Y175.000
G1 X644.000 Y176.000
G1 X644.000 Y175.000
G1 X643.000 Y176.000
G1 X642.000 Y176.000
G1 X641.000 Y176.000
G1 X640.000 Y177.000
G1 X639.000 Y178.000
G1 X639.000 Y177.000
G1 X638.000 Y178.000
G1 X637.000 Y179.000
G1 X637.000 Y178.000
G1 X636.000 Y179.000
G1 X635.000 Y179.000
G1 X634.000 Y179.000
G1 X633.000 Y180.000
G1 X632.000 Y181.000
G1 X632.000 Y180.000
G1 X631.000 Y181.000
G1 X630.000 Y182.000
G1 X630.000 Y181.000
G1 X629.000 Y182.000
G1 X628.000 Y182.000
G1 X627.000 Y182.000
G1 X626.000 Y183.000
G1 X625.000 Y184.000
G1 X625.000 Y183.000
G1 X624.000 Y184.000
G1 X623.000 Y184.000
G1 X622.000 Y184.000
G1 X621.000 Y185.000
G1 X620.000 Y186.000
G1 X620.000 Y185.000
G1 X619.000 Y186.000
G1 X618.000 Y187.000
G1 X618.000 Y186.000
G1 X617.000 Y187.000
G1 X616.000 Y187.000
G1 X615.000 Y187.000
G1 X614.000 Y188.000
G1 X613.000 Y189.000
G1 X613.000 Y188.000
G1 X612.000 Y189.000
G1 X611.000 Y190.000
G1 X611.000 Y189.000
G1 X610.000 Y190.000
G1 X609.000 Y190.000
G1 X608.000 Y190.000
G1 X607.000 Y191.000
G1 X606.000 Y192.000
G1 X606.000 Y191.000
G1 X605.000 Y192.000
G1 X604.000 Y192.000
G1 X603.000 Y192.000
G1 X602.000 Y193.000
G1 X601.000 Y194.000
G1 X601.000 Y193.000
G1 X600.000 Y194.000
G1 X599.000 Y195.000
G1 X599.000 Y194.000
G1 X598.000 Y195.000
G1 X597.000 Y195.000
G1 X596.000 Y195.000
G1 X595.000 Y196.000
G1 X594.000 Y197.000
G1 X594.000 Y196.000
G1 X593.000 Y197.000
G1 X592.000 Y198.000
G1 X592.000 Y197.000
G1 X591.000 Y198.000
G1 X590.000 Y198.000
G1 X589.000 Y198.000
G1 X588.000 Y199.000
G1 X587.000 Y200.000
G1 X587.000 Y199.000
G1 X586.000 Y200.000
G1 X585.000 Y200.000
G1 X584.000 Y200.000
G1 X583.000 Y201.000
G1 X582.000 Y202.000
G1 X582.000 Y201.000
G1 X581.000 Y202.000
G1 X580.000 Y203.000
G1 X580.000 Y202.000
G1 X579.000 Y203.000
G1 X578.000 Y203.000
G1 X577.000 Y203.000
G1 X576.000 Y203.000
G1 X575.000 Y203.000
G1 X574.000 Y203.000
G1 X573.000 Y203.000
G1 X572.000 Y203.000
G1 X571.000 Y203.000
G1 X570.000 Y203.000
G1 X569.000 Y203.000
G1 X568.000 Y203.000
G1 X567.000 Y203.000
G1 X566.000 Y203.000
G1 X565.000 Y203.000
G1 X564.000 Y203.000
G1 X563.000 Y203.000
G1 X562.000 Y203.000
G1 X561.000 Y203.000
G1 X560.000 Y203.000
G1 X559.000 Y203.000
G1 X558.000 Y203.000
G1 X557.000 Y203.000
G1 X556.000 Y203.000
G1 X555.000 Y203.000
G1 X554.000 Y203.000
G1 X553.000 Y203.000
G1 X552.000 Y203.000
G1 X551.000 Y203.000
G1 X550.000 Y203.000
G1 X549.000 Y203.000
G1 X548.000 Y203.000
G1 X547.000 Y203.000
G1 X546.000 Y203.000
G1 X545.000 Y203.000
G1 X544.000 Y203.000
G1 X543.000 Y203.000
G1 X542.000 Y203.000
G1 X541.000 Y203.000
G1 X540.000 Y203.000
G1 X539.000 Y203.000
G1 X538.000 Y203.000
G1 X537.000 Y203.000
G1 X536.000 Y203.000
G1 X535.000 Y203.000
G1 X534.000 Y203.000
G1 X533.000 Y203.000
G1 X532.000 Y203.000
G1 X531.000 Y203.000
G1 X530.000 Y203.000
G1 X529.000 Y203.000
G1 X528.000 Y203.000
G1 X527.000 Y203.000
G1 X526.000 Y203.000
G1 X525.000 Y203.000
G1 X524.000 Y203.000
G1 X523.000 Y203.000
G1 X522.000 Y203.000
G1 X521.000 Y203.000
G1 X520.000 Y203.000
G1 X519.000 Y203.000
G1 X518.000 Y203.000
G1 X517.000 Y203.000
G1 X516.000 Y203.000
G1 X515.000 Y203.000
G1 X514.000 Y203.000
G1 X513.000 Y203.000
G1 X512.000 Y203.000
G1 X511.000 Y203.000
G1 X510.000 Y203.000
G1 X509.000 Y203.000
G1 X508.000 Y203.000
G1 X507.000 Y203.000
G1 X506.000 Y203.000
G1 X505.000 Y203.000
G1 X504.000 Y203.000
G1 X503.000 Y203.000
G1 X502.000 Y203.000
G1 X501.000 Y203.000
G1 X500.000 Y203.000
G1 X499.000 Y203.000
G1 X498.000 Y203.000
G1 X497.000 Y203.000
G1 X496.000 Y203.000
G1 X495.000 Y203.000
G1 X494.000 Y203.000
G1 X493.000 Y203.000
G1 X492.000 Y203.000
G1 X491.000 Y203.000
G1 X490.000 Y203.000
G1 X489.000 Y203.000
G1 X488.000 Y203.000
G1 X487.000 Y203.000
G1 X486.000 Y203.000
G1 X485.000 Y203.000
G1 X484.000 Y203.000
G1 X483.000 Y203.000
G1 X482.000 Y203.000
G1 X481.000 Y203.000
G1 X480.000 Y203.000
G1 X479.000 Y203.000
G1 X478.000 Y203.000
G1 X477.000 Y203.000
G1 X476.000 Y203.000
G1 X475.000 Y203.000
G1 X474.000 Y203.000
G1 X473.000 Y203.000
G1 X472.000 Y203.000
G1 X471.000 Y203.000
G1 X470.000 Y203.000
G1 X469.000 Y203.000
G1 X468.000 Y203.000
G1 X467.000 Y203.000
G1 X466.000 Y203.000
G1 X465.000 Y203.000
G1 X464.000 Y203.000
G1 X463.000 Y203.000
G1 X462.000 Y203.000
G1 X461.000 Y203.000
G1 X460.000 Y203.000
G1 X459.000 Y203.000
G1 X458.000 Y203.000
G1 X457.000 Y203.000
G1 X456.000 Y203.000
G1 X455.000 Y203.000
G1 X454.000 Y203.000
G1 X453.000 Y203.000
G1 X452.000 Y203.000
G1 X451.000 Y203.000
G1 X450.000 Y203.000
G1 X449.000 Y203.000
G1 X448.000 Y203.000
G1 X447.000 Y203.000
G1 X446.000 Y203.000
G1 X445.000 Y203.000
G1 X444.000 Y203.000
G1 X443.000 Y203.000
G1 X442.000 Y203.000
G1 X441.000 Y203.000
G1 X440.000 Y203.000
G1 X439.000 Y203.000
G1 X438.000 Y203.000
G1 X437.000 Y203.000
G1 X436.000 Y203.000
G1 X435.000 Y203.000
G1 X434.000 Y203.000
G1 X433.000 Y203.000
G1 X432.000 Y203.000
G1 X431.000 Y203.000
G1 X430.000 Y203.000
G1 X429.000 Y203.000
G1 X428.000 Y203.000
G1 X427.000 Y203.000
G1 X426.000 Y203.000
G1 X425.000 Y203.000
G1 X424.000 Y203.000
G1 X423.000 Y203.000
G1 X422.000 Y203.000
G1 X421.000 Y203.000
G1 X420.000 Y203.000
G1 X419.000 Y203.000
G1 X418.000 Y203.000
G1 X417.000 Y203.000
G1 X416.000 Y203.000
G1 X415.000 Y203.000
G1 X414.000 Y203.000
G1 X413.000 Y203.000
G1 X412.000 Y203.000
G1 X411.000 Y203.000
G1 X410.000 Y203.000
G1 X409.000 Y203.000
G1 X408.000 Y203.000
G1 X407.000 Y203.000
G1 X406.000 Y203.000
G1 X405.000 Y203.000
G1 X404.000 Y203.000
G1 X403.000 Y203.000
G1 X402.000 Y203.000
G1 X401.000 Y203.000
G1 X400.000 Y203.000
G1 X399.000 Y203.000
G1 X398.000 Y203.000
G1 X397.000 Y203.000
G1 X396.000 Y203.000
G1 X395.000 Y203.000
G1 X394.000 Y203.000
G1 X393.000 Y203.000
G1 X392.000 Y203.000
G1 X391.000 Y203.000
G1 X390.000 Y203.000
G1 X389.000 Y203.000
G1 X388.000 Y203.000
G1 X387.000 Y203.000
G1 X386.000 Y203.000
G1 X385.000 Y203.000
G1 X384.000 Y203.000
G1 X383.000 Y203.000
G1 X382.000 Y203.000
G1 X381.000 Y203.000
G1 X380.000 Y203.000
G1 X379.000 Y203.000
G1 X378.000 Y203.000
G1 X377.000 Y203.000
G1 X376.000 Y203.000
G1 X375.000 Y203.000
G1 X374.000 Y203.000
G1 X373.000 Y203.000
G1 X372.000 Y203.000
G1 X371.000 Y203.000
G1 X370.000 Y203.000
G1 X369.000 Y203.000
G1 X368.000 Y203.000
G1 X367.000 Y203.000
G1 X366.000 Y203.000
G1 X365.000 Y203.000
G1 X364.000 Y203.000
G1 X363.000 Y203.000
G1 X362.000 Y203.000
G1 X361.000 Y203.000
G1 X360.000 Y203.000
G1 X359.000 Y203.000
G1 X358.000 Y203.000
G1 X357.000 Y203.000
G1 X356.000 Y203.000
G1 X355.000 Y203.000
G1 X354.000 Y203.000
G1 X353.000 Y203.000
G1 X352.000 Y203.000
G1 X351.000 Y203.000
G1 X350.000 Y203.000
G1 X349.000 Y203.000
G1 X348.000 Y203.000
G1 X347.000 Y203.000
G1 X346.000 Y203.000
G1 X345.000 Y203.000
G1 X344.000 Y203.000
G1 X343.000 Y203.000
G1 X342.000 Y203.000
G1 X341.000 Y203.000
G1 X340.000 Y203.000
G1 X339.000 Y203.000
G1 X338.000 Y203.000
G1 X337.000 Y203.000
G1 X336.000 Y203.000
G1 X335.000 Y203.000
G1 X334.000 Y203.000
G1 X333.000 Y203.000
G1 X332.000 Y203.000
G1 X331.000 Y203.000
G1 X330.000 Y203.000
G1 X329.000 Y203.000
G1 X328.000 Y203.000
G1 X327.000 Y203.000
G1 X326.000 Y203.000
G1 X325.000 Y203.000
G1 X324.000 Y203.000
G1 X323.000 Y203.000
G1 X322.000 Y203.000
G1 X321.000 Y203.000
G1 X320.000 Y203.000
G1 X319.000 Y203.000
G1 X318.000 Y203.000
G1 X317.000 Y203.000
G1 X316.000 Y203.000
G1 X315.000 Y203.000
G1 X314.000 Y203.000
G1 X313.000 Y203.000
G1 X312.000 Y203.000
G1 X311.000 Y203.000
G1 X310.000 Y203.000
G1 X309.000 Y203.000
G1 X308.000 Y203.000
G1 X307.000 Y203.000
G1 X306.000 Y203.000
G1 X305.000 Y203.000
G1 X304.000 Y203.000
G1 X303.000 Y203.000
G1 X302.000 Y203.000
G1 X301.000 Y203.000
G1 X300.000 Y203.000
G1 X299.000 Y203.000
G1 X298.000 Y203.000
G1 X297.000 Y203.000
G1 X296.000 Y203.000
G1 X295.000 Y203.000
G1 X294.000 Y203.000
G1 X293.000 Y203.000
G1 X292.000 Y203.000
G1 X291.000 Y203.000
G1 X290.000 Y203.000
G1 X289.000 Y203.000
G1 X288.000 Y203.000
G1 X287.000 Y203.000
G1 X286.000 Y203.000
G1 X285.000 Y203.000
G1 X284.000 Y203.000
G1 X283.000 Y203.000
G1 X282.000 Y203.000
G1 X281.000 Y203.000
G1 X280.000 Y203.000
G1 X279.000 Y203.000
G1 X278.000 Y203.000
G1 X277.000 Y203.000
G1 X276.000 Y203.000
G1 X275.000 Y203.000
G1 X274.000 Y203.000
G1 X273.000 Y203.000
G1 X272.000 Y203.000
G1 X271.000 Y203.000
G1 X270.000 Y203.000
G1 X269.000 Y203.000
G1 X268.000 Y203.000
G1 X267.000 Y203.000
G1 X266.000 Y203.000
G1 X265.000 Y203.000
G1 X264.000 Y203.000
G1 X263.000 Y203.000
G1 X262.000 Y203.000
G1 X261.000 Y203.000
G1 X260.000 Y203.000
G1 X259.000 Y203.000
G1 X258.000 Y203.000
G1 X257.000 Y203.000
G1 X256.000 Y203.000
G1 X255.000 Y203.000
G1 X254.000 Y203.000
G1 X253.000 Y203.000
G1 X252.000 Y203.000
G1 X251.000 Y203.000
G1 X250.000 Y203.000
G1 X249.000 Y203.000
G1 X248.000 Y203.000
G1 X247.000 Y203.000
G1 X246.000 Y203.000
G1 X245.000 Y203.000
G1 X244.000 Y203.000
G1 X243.000 Y203.000
G1 X242.000 Y203.000
G1 X241.000 Y203.000
G1 X240.000 Y203.000
G1 X239.000 Y203.000
G1 X238.000 Y203.000
G1 X237.000 Y203.000
G1 X236.000 Y203.000
G1 X235.000 Y203.000
G1 X234.000 Y203.000
G1 X233.000 Y203.000
G1 X232.000 Y203.000
G1 X231.000 Y203.000
G1 X230.000 Y203.000
G1 X229.000 Y203.000
G1 X228.000 Y203.000
G1 X227.000 Y203.000
G1 X226.000 Y203.000
G1 X225.000 Y203.000
G1 X224.000 Y203.000
G1 X223.000 Y203.000
G1 X222.000 Y203.000
G1 X221.000 Y203.000
G1 X220.000 Y203.000
G1 X219.000 Y203.000
G1 X218.000 Y203.000
G1 X217.000 Y203.000
G1 X216.000 Y203.000
G1 X215.000 Y203.000
G1 X214.000 Y203.000
G1 X213.000 Y203.000
G1 X212.000 Y203.000
G1 X211.000 Y203.000
G1 X210.000 Y203.000
G1 X209.000 Y203.000
G1 X208.000 Y203.000
G1 X207.000 Y203.000
G1 X206.000 Y203.000
G1 X205.000 Y203.000
G1 X204.000 Y203.000
G1 X203.000 Y203.000
G1 X202.000 Y203.000
G1 X201.000 Y203.000
G1 X200.000 Y203.000
G1 X199.000 Y203.000
G1 X198.000 Y203.000
G1 X197.000 Y203.000
G1 X196.000 Y203.000
G1 X195.000 Y203.000
G1 X194.000 Y203.000
G1 X193.000 Y203.000
G1 X192.000 Y203.000
G1 X191.000 Y203.000
G1 X190.000 Y203.000
G1 X189.000 Y203.000
G1 X188.000 Y203.000
G1 X187.000 Y203.000
G1 X186.000 Y203.000
G1 X185.000 Y203.000
G1 X184.000 Y203.000
G1 X183.000 Y203.000
G1 X182.000 Y203.000
G1 X181.000 Y203.000
G1 X180.000 Y203.000
G1 X179.000 Y203.000
G1 X178.000 Y203.000
G1 X177.000 Y203.000
G1 X176.000 Y203.000
G1 X175.000 Y203.000
G1 X174.000 Y203.000
G1 X173.000 Y203.000
G1 X172.000 Y203.000
G1 X171.000 Y203.000
G1 X170.000 Y203.000
G1 X169.000 Y203.000
G1 X168.000 Y203.000
G1 X167.000 Y203.000
G1 X166.000 Y203.000
G1 X165.000 Y203.000
G1 X164.000 Y203.000
G1 X163.000 Y203.000
G1 X162.000 Y203.000
G1 X161.000 Y203.000
G1 X160.000 Y203.000
G1 X159.000 Y203.000
G1 X158.000 Y203.000
G1 X157.000 Y203.000
G1 X156.000 Y203.000
G1 X155.000 Y203.000
G1 X154.000 Y203.000
G1 X153.000 Y203.000
G1 X152.000 Y203.000
G1 X151.000 Y203.000
G1 X150.000 Y203.000
G1 X149.000 Y203.000
G1 X148.000 Y203.000
G1 X147.000 Y203.000
G1 X146.000 Y203.000
G1 X145.000 Y203.000
G1 X144.000 Y203.000
G1 X143.000 Y203.000
G1 X142.000 Y203.000
G1 X141.000 Y203.000
G1 X140.000 Y203.000
G1 X139.000 Y203.000
G1 X138.000 Y203.000
G1 X137.000 Y203.000
G1 X136.000 Y203.000
G1 X135.000 Y203.000
G1 X134.000 Y203.000
G1 X133.000 Y203.000
G1 X132.000 Y203.000
G1 X131.000 Y203.000
G1 X130.000 Y203.000
G1 X129.000 Y203.000
G1 X128.000 Y203.000
G1 X127.000 Y203.000
G1 X126.000 Y203.000
G1 X125.000 Y203.000
G1 X124.000 Y203.000
G1 X123.000 Y203.000
G1 X122.000 Y203.000
G1 X121.000 Y203.000
G1 X120.000 Y203.000
G1 X119.000 Y203.000
G1 X118.000 Y203.000
G1 X117.000 Y203.000
G1 X116.000 Y203.000
G1 X115.000 Y203.000
G1 X114.000 Y203.000
G1 X113.000 Y203.000
G1 X112.000 Y203.000
G1 X111.000 Y203.000
G1 X110.000 Y203.000
G1 X109.000 Y203.000
G1 X108.000 Y203.000
G1 X107.000 Y203.000
G1 X106.000 Y203.000
G1 X105.000 Y203.000
G1 X104.000 Y203.000
G1 X103.000 Y203.000
G1 X102.000 Y203.000
G1 X101.000 Y203.000
G1 X100.000 Y203.000
G1 X99.000 Y203.000
G1 X98.000 Y203.000
G1 X97.000 Y203.000
G1 X96.000 Y203.000
G1 X95.000 Y203.000
G1 X94.000 Y203.000
G1 X93.000 Y203.000
G1 X92.000 Y203.000
G1 X91.000 Y203.000
G1 X90.000 Y203.000
G1 X89.000 Y203.000
G1 X88.000 Y203.000
G1 X87.000 Y203.000
G1 X86.000 Y203.000
G1 X85.000 Y203.000
G1 X84.000 Y203.000
G1 X83.000 Y203.000
G1 X82.000 Y203.000
G1 X81.000 Y203.000
G1 X80.000 Y203.000
G1 X79.000 Y203.000
G1 X78.000 Y203.000
G1 X77.000 Y203.000
G1 X76.000 Y203.000
G1 X75.000 Y203.000
G1 X74.000 Y203.000
G1 X73.000 Y203.000
G1 X72.000 Y203.000
G1 X71.000 Y203.000
G1 X70.000 Y203.000
G1 X69.000 Y203.000
G1 X68.000 Y203.000
G1 X67.000 Y203.000
G1 X66.000 Y203.000
G1 X65.000 Y203.000
G1 X64.000 Y203.000
G1 X63.000 Y203.000
G1 X62.000 Y203.000
G1 X61.000 Y203.000
G1 X60.000 Y203.000
G1 X59.000 Y203.000
G1 X58.000 Y203.000
G1 X57.000 Y203.000
G1 X56.000 Y203.000
G1 X55.000 Y203.000
G1 X54.000 Y203.000
G1 X53.000 Y203.000
G1 X52.000 Y203.000
G1 X51.000 Y203.000
G1 X50.000 Y203.000
G1 X49.000 Y203.000
G1 X48.000 Y203.000
G1 X47.000 Y203.000
G1 X46.000 Y203.000
G1 X45.000 Y203.000
G1 X44.000 Y203.000
G1 X43.000 Y203.000
G1 X42.000 Y203.000
G1 X41.000 Y203.000
G1 X40.000 Y203.000
G1 X39.000 Y203.000
G1 X38.000 Y203.000
G1 X37.000 Y203.000
G1 X36.000 Y203.000
G1 X35.000 Y203.000
G1 X34.000 Y203.000
G1 X33.000 Y203.000
G1 X32.000 Y203.000
G1 X31.000 Y203.000
G1 X30.000 Y203.000
G1 X29.000 Y203.000
G1 X28.000 Y203.000
G1 X27.000 Y203.000
G1 X26.000 Y203.000
G1 X25.000 Y203.000
G1 X24.000 Y203.000
G1 X23.000 Y203.000
G1 X22.000 Y203.000
G1 X21.000 Y203.000
G1 X20.000 Y203.000
G1 X19.000 Y203.000
G1 X19.000 Y204.000
G1 X19.000 Y205.000
G1 X19.000 Y206.000
G1 X19.000 Y207.000
G1 X20.000 Y207.000
G1 X21.000 Y207.000
G1 X22.000 Y207.000
G1 X23.000 Y207.000
G1 X24.000 Y207.000
G1 X25.000 Y207.000
G1 X26.000 Y207.000
G1 X27.000 Y207.000
G1 X28.000 Y207.000
G1 X29.000 Y207.000
G1 X30.000 Y207.000
G1 X31.000 Y207.000
G1 X32.000 Y207.000
G1 X33.000 Y207.000
G1 X34.000 Y207.000
G1 X35.000 Y207.000
G1 X36.000 Y207.000
G1 X37.000 Y207.000
G1 X38.000 Y207.000
G1 X39.000 Y207.000
G1 X40.000 Y207.000
G1 X41.000 Y207.000
G1 X42.000 Y207.000
G1 X43.000 Y207.000
G1 X44.000 Y207.000
G1 X45.000 Y207.000
G1 X46.000 Y207.000
G1 X47.000 Y207.000
G1 X48.000 Y207.000
G1 X49.000 Y207.000
G1 X50.000 Y207.000
G1 X51.000 Y207.000
G1 X52.000 Y207.000
G1 X53.000 Y207.000
G1 X54.000 Y207.000
G1 X55.000 Y207.000
G1 X56.000 Y207.000
G1 X57.000 Y207.000
G1 X58.000 Y207.000
G1 X59.000 Y207.000
G1 X60.000 Y207.000
G1 X61.000 Y207.000
G1 X62.000 Y207.000
G1 X63.000 Y207.000
G1 X64.000 Y207.000
G1 X65.000 Y207.000
G1 X66.000 Y207.000
G1 X67.000 Y207.000
G1 X68.000 Y207.000
G1 X69.000 Y207.000
G1 X70.000 Y207.000
G1 X71.000 Y207.000
G1 X72.000 Y207.000
G1 X73.000 Y207.000
G1 X74.000 Y207.000
G1 X75.000 Y207.000
G1 X76.000 Y207.000
G1 X77.000 Y207.000
G1 X78.000 Y207.000
G1 X79.000 Y207.000
G1 X80.000 Y207.000
G1 X81.000 Y207.000
G1 X82.000 Y207.000
G1 X83.000 Y207.000
G1 X84.000 Y207.000
G1 X85.000 Y207.000
G1 X86.000 Y207.000
G1 X87.000 Y207.000
G1 X88.000 Y207.000
G1 X89.000 Y207.000
G1 X90.000 Y207.000
G1 X91.000 Y207.000
G1 X92.000 Y207.000
G1 X93.000 Y207.000
G1 X94.000 Y207.000
G1 X95.000 Y207.000
G1 X96.000 Y207.000
G1 X97.000 Y207.000
G1 X98.000 Y207.000
G1 X99.000 Y207.000
G1 X100.000 Y207.000
G1 X101.000 Y207.000
G1 X102.000 Y207.000
G1 X103.000 Y207.000
G1 X104.000 Y207.000
G1 X105.000 Y207.000
G1 X106.000 Y207.000
G1 X107.000 Y207.000
G1 X108.000 Y207.000
G1 X109.000 Y207.000
G1 X110.000 Y207.000
G1 X111.000 Y207.000
G1 X112.000 Y207.000
G1 X113.000 Y207.000
G1 X114.000 Y207.000
G1 X115.000 Y207.000
G1 X116.000 Y207.000
G1 X117.000 Y207.000
G1 X118.000 Y207.000
G1 X119.000 Y207.000
G1 X120.000 Y207.000
G1 X121.000 Y207.000
G1 X122.000 Y207.000
G1 X123.000 Y207.000
G1 X124.000 Y207.000
G1 X125.000 Y207.000
G1 X126.000 Y207.000
G1 X127.000 Y207.000
G1 X128.000 Y207.000
G1 X129.000 Y207.000
G1 X130.000 Y207.000
G1 X131.000 Y207.000
G1 X132.000 Y207.000
G1 X133.000 Y207.000
G1 X134.000 Y207.000
G1 X135.000 Y207.000
G1 X136.000 Y207.000
G1 X137.000 Y207.000
G1 X138.000 Y207.000
G1 X139.000 Y207.000
G1 X140.000 Y207.000
G1 X141.000 Y207.000
G1 X142.000 Y207.000
G1 X143.000 Y207.000
G1 X144.000 Y207.000
G1 X145.000 Y207.000
G1 X146.000 Y207.000
G1 X147.000 Y207.000
G1 X148.000 Y207.000
G1 X149.000 Y207.000
G1 X150.000 Y207.000
G1 X151.000 Y207.000
G1 X152.000 Y207.000
G1 X153.000 Y207.000
G1 X154.000 Y207.000
G1 X155.000 Y207.000
G1 X156.000 Y207.000
G1 X157.000 Y207.000
G1 X158.000 Y207.000
G1 X159.000 Y207.000
G1 X160.000 Y207.000
G1 X161.000 Y207.000
G1 X162.000 Y207.000
G1 X163.000 Y207.000
G1 X164.000 Y207.000
G1 X165.000 Y207.000
G1 X166.000 Y207.000
G1 X167.000 Y207.000
G1 X168.000 Y207.000
G1 X169.000 Y207.000
G1 X170.000 Y207.000
G1 X171.000 Y207.000
G1 X172.000 Y207.000
G1 X173.000 Y207.000
G1 X174.000 Y207.000
G1 X175.000 Y207.000
G1 X176.000 Y207.000
G1 X177.000 Y207.000
G1 X178.000 Y207.000
G1 X179.000 Y207.000
G1 X180.000 Y207.000
G1 X181.000 Y207.000
G1 X182.000 Y207.000
G1 X183.000 Y207.000
G1 X184.000 Y207.000
G1 X185.000 Y207.000
G1 X186.000 Y207.000
G1 X187.000 Y207.000
G1 X188.000 Y207.000
G1 X189.000 Y207.000
G1 X190.000 Y207.000
G1 X191.000 Y207.000
G1 X192.000 Y207.000
G1 X193.000 Y207.000
G1 X194.000 Y207.000
G1 X195.000 Y207.000
G1 X196.000 Y207.000
G1 X197.000 Y207.000
G1 X198.000 Y207.000
G1 X199.000 Y207.000
G1 X200.000 Y207.000
G1 X201.000 Y207.000
G1 X202.000 Y207.000
G1 X203.000 Y207.000
G1 X204.000 Y207.000
G1 X205.000 Y207.000
G1 X206.000 Y207.000
G1 X207.000 Y207.000
G1 X208.000 Y207.000
G1 X209.000 Y207.000
G1 X210.000 Y207.000
G1 X211.000 Y207.000
G1 X212.000 Y207.000
G1 X213.000 Y207.000
G1 X214.000 Y207.000
G1 X215.000 Y207.000
G1 X216.000 Y207.000
G1 X217.000 Y207.000
G1 X218.000 Y207.000
G1 X219.000 Y207.000
G1 X220.000 Y207.000
G1 X221.000 Y207.000
G1 X222.000 Y207.000
G1 X223.000 Y207.000
G1 X224.000 Y207.000
G1 X225.000 Y207.000
G1 X226.000 Y207.000
G1 X227.000 Y207.000
G1 X228.000 Y207.000
G1 X229.000 Y207.000
G1 X230.000 Y207.000
G1 X231.000 Y207.000
G1 X232.000 Y207.000
G1 X233.000 Y207.000
G1 X234.000 Y207.000
G1 X235.000 Y207.000
G1 X236.000 Y207.000
G1 X237.000 Y207.000
G1 X238.000 Y207.000
G1 X239.000 Y207.000
G1 X240.000 Y207.000
G1 X241.000 Y207.000
G1 X242.000 Y207.000
G1 X243.000 Y207.000
G1 X244.000 Y207.000
G1 X245.000 Y207.000
G1 X246.000 Y207.000
G1 X247.000 Y207.000
G1 X248.000 Y207.000
G1 X249.000 Y207.000
G1 X250.000 Y207.000
G1 X251.000 Y207.000
G1 X252.000 Y207.000
G1 X253.000 Y207.000
G1 X254.000 Y207.000
G1 X255.000 Y207.000
G1 X256.000 Y207.000
G1 X257.000 Y207.000
G1 X258.000 Y207.000
G1 X259.000 Y207.000
G1 X260.000 Y207.000
G1 X261.000 Y207.000
G1 X262.000 Y207.000
G1 X263.000 Y207.000
G1 X264.000 Y207.000
G1 X265.000 Y207.000
G1 X266.000 Y207.000
G1 X267.000 Y207.000
G1 X268.000 Y207.000
G1 X269.000 Y207.000
G1 X270.000 Y207.000
G1 X271.000 Y207.000
G1 X272.000 Y207.000
G1 X273.000 Y207.000
G1 X274.000 Y207.000
G1 X275.000 Y207.000
G1 X276.000 Y207.000
G1 X277.000 Y207.000
G1 X278.000 Y207.000
G1 X279.000 Y207.000
G1 X280.000 Y207.000
G1 X281.000 Y207.000
G1 X282.000 Y207.000
G1 X283.000 Y207.000
G1 X284.000 Y207.000
G1 X285.000 Y207.000
G1 X286.000 Y207.000
G1 X287.000 Y207.000
G1 X288.000 Y207.000
G1 X289.000 Y207.000
G1 X290.000 Y207.000
G1 X291.000 Y207.000
G1 X292.000 Y207.000
G1 X293.000 Y207.000
G1 X294.000 Y207.000
G1 X295.000 Y207.000
G1 X296.000 Y207.000
G1 X297.000 Y207.000
G1 X298.000 Y207.000
G1 X299.000 Y207.000
G1 X300.000 Y207.000
G1 X301.000 Y207.000
G1 X302.000 Y207.000
G1 X303.000 Y207.000
G1 X304.000 Y207.000
G1 X305.000 Y207.000
G1 X306.000 Y207.000
G1 X307.000 Y207.000
G1 X308.000 Y207.000
G1 X309.000 Y207.000
G1 X310.000 Y207.000
G1 X311.000 Y207.000
G1 X312.000 Y207.000
G1 X313.000 Y207.000
G1 X314.000 Y207.000
G1 X315.000 Y207.000
G1 X316.000 Y207.000
G1 X317.000 Y207.000
G1 X318.000 Y207.000
G1 X319.000 Y207.000
G1 X320.000 Y207.000
G1 X321.000 Y207.000
G1 X322.000 Y207.000
G1 X323.000 Y207.000
G1 X324.000 Y207.000
G1 X325.000 Y207.000
G1 X326.000 Y207.000
G1 X327.000 Y207.000
G1 X328.000 Y207.000
G1 X329.000 Y207.000
G1 X330.000 Y207.000
G1 X331.000 Y207.000
G1 X332.000 Y207.000
G1 X333.000 Y207.000
G1 X334.000 Y207.000
G1 X335.000 Y207.000
G1 X336.000 Y207.000
G1 X337.000 Y207.000
G1 X338.000 Y207.000
G1 X339.000 Y207.000
G1 X340.000 Y207.000
G1 X341.000 Y207.000
G1 X342.000 Y207.000
G1 X343.000 Y207.000
G1 X344.000 Y207.000
G1 X345.000 Y207.000
G1 X346.000 Y207.000
G1 X347.000 Y207.000
G1 X348.000 Y207.000
G1 X349.000 Y207.000
G1 X350.000 Y207.000
G1 X351.000 Y207.000
G1 X352.000 Y207.000
G1 X353.000 Y207.000
G1 X354.000 Y207.000
G1 X355.000 Y207.000
G1 X356.000 Y207.000
G1 X357.000 Y207.000
G1 X358.000 Y207.000
G1 X359.000 Y207.000
G1 X360.000 Y207.000
G1 X361.000 Y207.000
G1 X362.000 Y207.000
G1 X363.000 Y207.000
G1 X364.000 Y207.000
G1 X365.000 Y207.000
G1 X366.000 Y207.000
G1 X367.000 Y207.000
G1 X368.000 Y207.000
G1 X369.000 Y207.000
G1 X370.000 Y207.000
G1 X371.000 Y207.000
G1 X372.000 Y207.000
G1 X373.000 Y207.000
G1 X374.000 Y207.000
G1 X375.000 Y207.000
G1 X376.000 Y207.000
G1 X377.000 Y207.000
G1 X378.000 Y207.000
G1 X379.000 Y207.000
G1 X380.000 Y207.000
G1 X381.000 Y207.000
G1 X382.000 Y207.000
G1 X383.000 Y207.000
G1 X384.000 Y207.000
G1 X385.000 Y207.000
G1 X386.000 Y207.000
G1 X387.000 Y207.000
G1 X388.000 Y207.000
G1 X389.000 Y207.000
G1 X390.000 Y207.000
G1 X391.000 Y207.000
G1 X392.000 Y207.000
G1 X393.000 Y207.000
G1 X394.000 Y207.000
G1 X395.000 Y207.000
G1 X396.000 Y207.000
G1 X397.000 Y207.000
G1 X398.000 Y207.000
G1 X399.000 Y207.000
G1 X400.000 Y207.000
G1 X401.000 Y207.000
G1 X402.000 Y207.000
G1 X403.000 Y207.000
G1 X404.000 Y207.000
G1 X405.000 Y207.000
G1 X406.000 Y207.000
G1 X407.000 Y207.000
G1 X408.000 Y207.000
G1 X409.000 Y207.000
G1 X410.000 Y207.000
G1 X411.000 Y207.000
G1 X412.000 Y207.000
G1 X413.000 Y207.000
G1 X414.000 Y207.000
G1 X415.000 Y207.000
G1 X416.000 Y207.000
G1 X417.000 Y207.000
G1 X418.000 Y207.000
G1 X419.000 Y207.000
G1 X420.000 Y207.000
G1 X421.000 Y207.000
G1 X422.000 Y207.000
G1 X423.000 Y207.000
G1 X424.000 Y207.000
G1 X425.000 Y207.000
G1 X426.000 Y207.000
G1 X427.000 Y207.000
G1 X428.000 Y207.000
G1 X429.000 Y207.000
G1 X430.000 Y207.000
G1 X431.000 Y207.000
G1 X432.000 Y207.000
G1 X433.000 Y207.000
G1 X434.000 Y207.000
G1 X435.000 Y207.000
G1 X436.000 Y207.000
G1 X437.000 Y207.000
G1 X438.000 Y207.000
G1 X439.000 Y207.000
G1 X440.000 Y207.000
G1 X441.000 Y207.000
G1 X442.000 Y207.000
G1 X443.000 Y207.000
G1 X444.000 Y207.000
G1 X445.000 Y207.000
G1 X446.000 Y207.000
G1 X447.000 Y207.000
G1 X448.000 Y207.000
G1 X449.000 Y207.000
G1 X450.000 Y207.000
G1 X451.000 Y207.000
G1 X452.000 Y207.000
G1 X453.000 Y207.000
G1 X454.000 Y207.000
G1 X455.000 Y207.000
G1 X456.000 Y207.000
G1 X457.000 Y207.000
G1 X458.000 Y207.000
G1 X459.000 Y207.000
G1 X460.000 Y207.000
G1 X461.000 Y207.000
G1 X462.000 Y207.000
G1 X463.000 Y207.000
G1 X464.000 Y207.000
G1 X465.000 Y207.000
G1 X466.000 Y207.000
G1 X467.000 Y207.000
G1 X468.000 Y207.000
G1 X469.000 Y207.000
G1 X470.000 Y207.000
G1 X471.000 Y207.000
G1 X472.000 Y207.000
G1 X473.000 Y207.000
G1 X474.000 Y207.000
G1 X475.000 Y207.000
G1 X476.000 Y207.000
G1 X477.000 Y207.000
G1 X478.000 Y207.000
G1 X479.000 Y207.000
G1 X480.000 Y207.000
G1 X481.000 Y207.000
G1 X482.000 Y207.000
G1 X483.000 Y207.000
G1 X484.000 Y207.000
G1 X485.000 Y207.000
G1 X486.000 Y207.000
G1 X487.000 Y207.000
G1 X488.000 Y207.000
G1 X489.000 Y207.000
G1 X490.000 Y207.000
G1 X491.000 Y207.000
G1 X492.000 Y207.000
G1 X493.000 Y207.000
G1 X494.000 Y207.000
G1 X495.000 Y207.000
G1 X496.000 Y207.000
G1 X497.000 Y207.000
G1 X498.000 Y207.000
G1 X499.000 Y207.000
G1 X500.000 Y207.000
G1 X501.000 Y207.000
G1 X502.000 Y207.000
G1 X503.000 Y207.000
G1 X504.000 Y207.000
G1 X505.000 Y207.000
G1 X506.000 Y207.000
G1 X507.000 Y207.000
G1 X508.000 Y207.000
G1 X509.000 Y207.000
G1 X510.000 Y207.000
G1 X511.000 Y207.000
G1 X512.000 Y207.000
G1 X513.000 Y207.000
G1 X514.000 Y207.000
G1 X515.000 Y207.000
G1 X516.000 Y207.000
G1 X517.000 Y207.000
G1 X518.000 Y207.000
G1 X519.000 Y207.000
G1 X520.000 Y207.000
G1 X521.000 Y207.000
G1 X522.000 Y207.000
G1 X523.000 Y207.000
G1 X524.000 Y207.000
G1 X525.000 Y207.000
G1 X526.000 Y207.000
G1 X527.000 Y207.000
G1 X528.000 Y207.000
G1 X529.000 Y207.000
G1 X530.000 Y207.000
G1 X531.000 Y207.000
G1 X532.000 Y207.000
G1 X533.000 Y207.000
G1 X534.000 Y207.000
G1 X535.000 Y207.000
G1 X536.000 Y207.000
G1 X537.000 Y207.000
G1 X538.000 Y207.000
G1 X539.000 Y207.000
G1 X540.000 Y207.000
G1 X541.000 Y207.000
G1 X542.000 Y207.000
G1 X543.000 Y207.000
G1 X544.000 Y207.000
G1 X545.000 Y207.000
G1 X546.000 Y207.000
G1 X547.000 Y207.000
G1 X548.000 Y207.000
G1 X549.000 Y207.000
G1 X550.000 Y207.000
G1 X551.000 Y207.000
G1 X552.000 Y207.000
G1 X553.000 Y207.000
G1 X554.000 Y207.000
G1 X555.000 Y207.000
G1 X556.000 Y207.000
G1 X557.000 Y207.000
G1 X558.000 Y207.000
G1 X559.000 Y207.000
G1 X560.000 Y207.000
G1 X561.000 Y207.000
G1 X562.000 Y207.000
G1 X563.000 Y207.000
G1 X564.000 Y207.000
G1 X565.000 Y207.000
G1 X566.000 Y207.000
G1 X567.000 Y207.000
G1 X568.000 Y207.000
G1 X569.000 Y207.000
G1 X570.000 Y207.000
G1 X571.000 Y207.000
G1 X572.000 Y207.000
G1 X573.000 Y207.000
G1 X574.000 Y207.000
G1 X575.000 Y207.000
G1 X576.000 Y207.000
G1 X577.000 Y207.000
G1 X578.000 Y207.000
G1 X579.000 Y207.000
G1 X580.000 Y207.000
G1 X580.000 Y206.000
G1 X581.000 Y206.000
G1 X582.000 Y206.000
G1 X582.000 Y205.000
G1 X583.000 Y205.000
G1 X584.000 Y205.000
G1 X584.000 Y204.000
G1 X585.000 Y204.000
G1 X586.000 Y204.000
G1 X587.000 Y204.000
G1 X587.000 Y203.000
G1 X588.000 Y203.000
G1 X589.000 Y203.000
G1 X589.000 Y202.000
G1 X590.000 Y202.000
G1 X591.000 Y202.000
G1 X592.000 Y202.000
G1 X592.000 Y201.000
G1 X593.000 Y201.000
G1 X594.000 Y201.000
G1 X594.000 Y200.000
G1 X595.000 Y200.000
G1 X596.000 Y200.000
G1 X596.000 Y199.000
G1 X597.000 Y199.000
G1 X598.000 Y199.000
G1 X599.000 Y199.000
G1 X599.000 Y198.000
G1 X600.000 Y198.000
G1 X601.000 Y198.000
G1 X601.000 Y197.000
G1 X602.000 Y197.000
G1 X603.000 Y197.000
G1 X604.000 Y197.000
G1 X604.000 Y196.000
G1 X605.000 Y196.000
G1 X606.000 Y196.000
G1 X606.000 Y195.000
G1 X607.000 Y195.000
G1 X608.000 Y195.000
G1 X608.000 Y194.000
G1 X609.000 Y194.000
G1 X610.000 Y194.000
G1 X611.000 Y194.000
G1 X611.000 Y193.000
G1 X612.000 Y193.000
G1 X613.000 Y193.000
G1 X613.000 Y192.000
G1 X614.000 Y192.000
G1 X615.000 Y192.000
G1 X616.000 Y192.000
G1 X616.000 Y191.000
G1 X617.000 Y191.000
G1 X618.000 Y191.000
G1 X618.000 Y190.000
G1 X619.000 Y190.000
G1 X620.000 Y190.000
G1 X620.000 Y189.000
G1 X621.000 Y189.000
G1 X622.000 Y189.000
G1 X623.000 Y189.000
G1 X623.000 Y188.000
G1 X624.000 Y188.000
G1 X625.000 Y188.000
G1 X625.000 Y187.000
G1 X626.000 Y187.000
G1 X627.000 Y187.000
G1 X628.000 Y187.000
G1 X628.000 Y186.000
G1 X629.000 Y186.000
G1 X630.000 Y186.000
G1 X630.000 Y185.000
G1 X631.000 Y185.000
G1 X632.000 Y185.000
G1 X632.000 Y184.000
G1 X633.000 Y184.000
G1 X634.000 Y184.000
G1 X635.000 Y184.000
G1 X635.000 Y183.000
G1 X636.000 Y183.000
G1 X637.000 Y183.000
G1 X637.000 Y182.000
G1 X638.000 Y182.000
G1 X639.000 Y182.000
G1 X640.000 Y182.000
G1 X640.000 Y181.000
G1 X641.000 Y181.000
G1 X642.000 Y181.000
G1 X642.000 Y180.000
G1 X643.000 Y180.000
G1 X644.000 Y180.000
G1 X644.000 Y179.000
G1 X645.000 Y179.000
G1 X646.000 Y179.000
G1 X647.000 Y179.000
G1 X647.000 Y178.000
G1 X648.000 Y178.000
G1 X649.000 Y178.000
G1 X649.000 Y177.000
G1 X650.000 Y177.000
G1 X651.000 Y177.000
G1 X652.000 Y177.000
G1 X652.000 Y176.000
G1 X653.000 Y176.000
G1 X654.000 Y176.000
G1 X654.000 Y175.000
G1 X655.000 Y175.000
G1 X656.000 Y175.000
G1 X656.000 Y174.000
G1 X657.000 Y174.000
G1 X658.000 Y174.000
G1 X659.000 Y174.000
G1 X659.000 Y173.000
G1 X660.000 Y173.000
G1 X661.000 Y173.000
G1 X661.000 Y172.000
G1 X662.000 Y172.000
G1 X663.000 Y172.000
G1 X664.000 Y172.000
G1 X664.000 Y171.000
G1 X665.000 Y171.000
G1 X666.000 Y171.000
G1 X666.000 Y170.000
G1 X667.000 Y170.000
G1 X668.000 Y170.000
G1 X668.000 Y169.000
G1 X669.000 Y169.000
G1 X670.000 Y169.000
G1 X671.000 Y169.000
G1 X671.000 Y168.000
G1 X672.000 Y168.000
G1 X673.000 Y168.000
G1 X673.000 Y167.000
G1 X674.000 Y167.000
G1 X675.000 Y167.000
G1 X676.000 Y167.000
G1 X676.000 Y166.000
G1 X677.000 Y166.000
G1 X678.000 Y166.000
G1 X678.000 Y165.000
G1 X679.000 Y165.000
G1 X680.000 Y165.000
G1 X680.000 Y164.000
G1 X681.000 Y164.000
G1 X682.000 Y164.000
G1 X683.000 Y164.000
G1 X683.000 Y163.000
G1 X684.000 Y163.000
G1 X685.000 Y163.000
G1 X685.000 Y162.000
G1 X686.000 Y162.000
G1 X687.000 Y162.000
G1 X688.000 Y162.000
G1 X688.000 Y161.000
G1 X689.000 Y161.000
G1 X690.000 Y161.000
G1 X690.000 Y160.000
G1 X691.000 Y160.000
G1 X692.000 Y160.000
G1 X692.000 Y159.000
G1 X693.000 Y158.000
G1 X694.000 Y158.000
G1 X693.000 Y159.000
G1 X694.000 Y159.000
M3
G1 X693.000 Y156.000
M5 S20
G1 X693.000 Y157.000
M3
G1 X711.000 Y203.000
M5 S20
G1 X712.000 Y203.000
G1 X713.000 Y203.000
G1 X714.000 Y203.000
G1 X715.000 Y203.000
G1 X716.000 Y203.000
G1 X717.000 Y203.000
G1 X718.000 Y203.000
G1 X719.000 Y203.000
G1 X720.000 Y203.000
G1 X721.000 Y203.000
G1 X722.000 Y203.000
G1 X723.000 Y203.000
G1 X724.000 Y203.000
G1 X725.000 Y203.000
G1 X726.000 Y203.000
G1 X727.000 Y203.000
G1 X728.000 Y203.000
G1 X729.000 Y203.000
G1 X730.000 Y203.000
G1 X731.000 Y203.000
G1 X732.000 Y203.000
G1 X733.000 Y203.000
G1 X734.000 Y203.000
G1 X735.000 Y203.000
G1 X736.000 Y203.000
G1 X737.000 Y203.000
G1 X738.000 Y203.000
G1 X739.000 Y203.000
G1 X740.000 Y203.000
G1 X741.000 Y203.000
G1 X742.000 Y203.000
G1 X743.000 Y203.000
G1 X744.000 Y203.000
G1 X745.000 Y203.000
G1 X746.000 Y203.000
G1 X747.000 Y203.000
G1 X748.000 Y203.000
G1 X749.000 Y203.000
G1 X750.000 Y203.000
G1 X751.000 Y203.000
G1 X752.000 Y203.000
G1 X753.000 Y203.000
G1 X754.000 Y203.000
G1 X755.000 Y203.000
G1 X756.000 Y203.000
G1 X757.000 Y203.000
G1 X758.000 Y203.000
G1 X759.000 Y203.000
G1 X760.000 Y203.000
G1 X761.000 Y203.000
G1 X762.000 Y203.000
G1 X763.000 Y203.000
G1 X764.000 Y203.000
G1 X765.000 Y203.000
G1 X766.000 Y203.000
G1 X767.000 Y203.000
G1 X768.000 Y203.000
G1 X769.000 Y203.000
G1 X770.000 Y203.000
G1 X771.000 Y203.000
G1 X772.000 Y203.000
G1 X773.000 Y203.000
G1 X774.000 Y203.000
G1 X775.000 Y203.000
G1 X776.000 Y203.000
G1 X777.000 Y203.000
G1 X778.000 Y203.000
G1 X779.000 Y203.000
G1 X780.000 Y203.000
G1 X781.000 Y203.000
G1 X782.000 Y203.000
G1 X783.000 Y203.000
G1 X784.000 Y203.000
G1 X785.000 Y203.000
G1 X786.000 Y203.000
G1 X787.000 Y203.000
G1 X788.000 Y203.000
G1 X789.000 Y203.000
G1 X790.000 Y203.000
G1 X791.000 Y203.000
G1 X792.000 Y203.000
G1 X793.000 Y203.000
G1 X794.000 Y203.000
G1 X795.000 Y203.000
G1 X796.000 Y203.000
G1 X797.000 Y203.000
G1 X798.000 Y203.000
G1 X799.000 Y203.000
G1 X800.000 Y203.000
G1 X801.000 Y203.000
G1 X802.000 Y203.000
G1 X803.000 Y203.000
G1 X804.000 Y203.000
G1 X805.000 Y203.000
G1 X806.000 Y203.000
G1 X807.000 Y203.000
G1 X808.000 Y203.000
G1 X809.000 Y203.000
G1 X810.000 Y203.000
G1 X811.000 Y203.000
G1 X812.000 Y203.000
G1 X813.000 Y203.000
G1 X814.000 Y203.000
G1 X815.000 Y203.000
G1 X816.000 Y203.000
G1 X817.000 Y203.000
G1 X818.000 Y203.000
G1 X819.000 Y203.000
G1 X820.000 Y203.000
G1 X821.000 Y203.000
G1 X822.000 Y203.000
G1 X823.000 Y203.000
G1 X824.000 Y203.000
G1 X825.000 Y203.000
G1 X826.000 Y203.000
G1 X827.000 Y203.000
G1 X828.000 Y203.000
G1 X829.000 Y203.000
G1 X830.000 Y203.000
G1 X831.000 Y203.000
G1 X832.000 Y203.000
G1 X833.000 Y203.000
G1 X834.000 Y203.000
G1 X835.000 Y203.000
G1 X836.000 Y203.000
G1 X837.000 Y203.000
G1 X838.000 Y203.000
G1 X839.000 Y203.000
G1 X840.000 Y203.000
G1 X841.000 Y203.000
G1 X842.000 Y203.000
G1 X843.000 Y203.000
G1 X844.000 Y203.000
G1 X845.000 Y203.000
G1 X846.000 Y203.000
G1 X847.000 Y203.000
G1 X848.000 Y203.000
G1 X849.000 Y203.000
G1 X850.000 Y203.000
G1 X851.000 Y203.000
G1 X852.000 Y203.000
G1 X853.000 Y203.000
G1 X854.000 Y203.000
G1 X855.000 Y203.000
G1 X856.000 Y203.000
G1 X857.000 Y203.000
G1 X858.000 Y203.000
G1 X859.000 Y203.000
G1 X860.000 Y203.000
G1 X861.000 Y203.000
G1 X862.000 Y203.000
G1 X863.000 Y203.000
G1 X864.000 Y203.000
G1 X865.000 Y203.000
G1 X866.000 Y203.000
G1 X867.000 Y203.000
G1 X868.000 Y203.000
G1 X869.000 Y203.000
G1 X870.000 Y203.000
G1 X871.000 Y203.000
G1 X872.000 Y203.000
G1 X873.000 Y203.000
G1 X874.000 Y203.000
G1 X875.000 Y203.000
G1 X875.000 Y204.000
G1 X875.000 Y205.000
G1 X875.000 Y206.000
G1 X875.000 Y207.000
G1 X874.000 Y207.000
G1 X873.000 Y207.000
G1 X872.000 Y207.000
G1 X871.000 Y207.000
G1 X870.000 Y207.000
G1 X869.000 Y207.000
G1 X868.000 Y207.000
G1 X867.000 Y207.000
G1 X866.000 Y207.000
G1 X865.000 Y207.000
G1 X864.000 Y207.000
G1 X863.000 Y207.000
G1 X862.000 Y207.000
G1 X861.000 Y207.000
G1 X860.000 Y207.000
G1 X859.000 Y207.000
G1 X858.000 Y207.000
G1 X857.000 Y207.000
G1 X856.000 Y207.000
G1 X855.000 Y207.000
G1 X854.000 Y207.000
G1 X853.000 Y207.000
G1 X852.000 Y207.000
G1 X851.000 Y207.000
G1 X850.000 Y207.000
G1 X849.000 Y207.000
G1 X848.000 Y207.000
G1 X847.000 Y207.000
G1 X846.000 Y207.000
G1 X845.000 Y207.000
G1 X844.000 Y207.000
G1 X843.000 Y207.000
G1 X842.000 Y207.000
G1 X841.000 Y207.000
G1 X840.000 Y207.000
G1 X839.000 Y207.000
G1 X838.000 Y207.000
G1 X837.000 Y207.000
G1 X836.000 Y207.000
G1 X835.000 Y207.000
G1 X834.000 Y207.000
G1 X833.000 Y207.000
G1 X832.000 Y207.000
G1 X831.000 Y207.000
G1 X830.000 Y207.000
G1 X829.000 Y207.000
G1 X828.000 Y207.000
G1 X827.000 Y207.000
G1 X826.000 Y207.000
G1 X825.000 Y207.000
G1 X824.000 Y207.000
G1 X823.000 Y207.000
G1 X822.000 Y207.000
G1 X821.000 Y207.000
G1 X820.000 Y207.000
G1 X819.000 Y207.000
G1 X818.000 Y207.000
G1 X817.000 Y207.000
G1 X816.000 Y207.000
G1 X815.000 Y207.000
G1 X814.000 Y207.000
G1 X813.000 Y207.000
G1 X812.000 Y207.000
G1 X811.000 Y207.000
G1 X810.000 Y207.000
G1 X809.000 Y207.000
G1 X808.000 Y207.000
G1 X807.000 Y207.000
G1 X806.000 Y207.000
G1 X805.000 Y207.000
G1 X804.000 Y207.000
G1 X803.000 Y207.000
G1 X802.000 Y207.000
G1 X801.000 Y207.000
G1 X800.000 Y207.000
G1 X799.000 Y207.000
G1 X798.000 Y207.000
G1 X797.000 Y207.000
G1 X796.000 Y207.000
G1 X795.000 Y207.000
G1 X794.000 Y207.000
G1 X793.000 Y207.000
G1 X792.000 Y207.000
G1 X791.000 Y207.000
G1 X790.000 Y207.000
G1 X789.000 Y207.000
G1 X788.000 Y207.000
G1 X787.000 Y207.000
G1 X786.000 Y207.000
G1 X785.000 Y207.000
G1 X784.000 Y207.000
G1 X783.000 Y207.000
G1 X782.000 Y207.000
G1 X781.000 Y207.000
G1 X780.000 Y207.000
G1 X779.000 Y207.000
G1 X778.000 Y207.000
G1 X777.000 Y207.000
G1 X776.000 Y207.000
G1 X775.000 Y207.000
G1 X774.000 Y207.000
G1 X773.000 Y207.000
G1 X772.000 Y207.000
G1 X771.000 Y207.000
G1 X770.000 Y207.000
G1 X769.000 Y207.000
G1 X768.000 Y207.000
G1 X767.000 Y207.000
G1 X766.000 Y207.000
G1 X765.000 Y207.000
G1 X764.000 Y207.000
G1 X763.000 Y207.000
G1 X762.000 Y207.000
G1 X761.000 Y207.000
G1 X760.000 Y207.000
G1 X759.000 Y207.000
G1 X758.000 Y207.000
G1 X757.000 Y207.000
G1 X756.000 Y207.000
G1 X755.000 Y207.000
G1 X754.000 Y207.000
G1 X753.000 Y207.000
G1 X752.000 Y207.000
G1 X751.000 Y207.000
G1 X750.000 Y207.000
G1 X749.000 Y207.000
G1 X748.000 Y207.000
G1 X747.000 Y207.000
G1 X746.000 Y207.000
G1 X745.000 Y207.000
G1 X744.000 Y207.000
G1 X743.000 Y207.000
G1 X742.000 Y207.000
G1 X741.000 Y207.000
G1 X740.000 Y207.000
G1 X739.000 Y207.000
G1 X738.000 Y207.000
G1 X737.000 Y207.000
G1 X736.000 Y207.000
G1 X735.000 Y207.000
G1 X734.000 Y207.000
G1 X733.000 Y207.000
G1 X732.000 Y207.000
G1 X731.000 Y207.000
G1 X730.000 Y207.000
G1 X729.000 Y207.000
G1 X728.000 Y207.000
G1 X727.000 Y207.000
G1 X726.000 Y207.000
G1 X725.000 Y207.000
G1 X724.000 Y207.000
G1 X723.000 Y207.000
G1 X722.000 Y207.000
G1 X721.000 Y207.000
G1 X720.000 Y207.000
G1 X719.000 Y207.000
G1 X718.000 Y207.000
G1 X717.000 Y207.000
G1 X716.000 Y207.000
G1 X715.000 Y207.000
G1 X714.000 Y207.000
G1 X713.000 Y207.000
G1 X712.000 Y207.000
G1 X711.000 Y207.000
G1 X710.000 Y207.000
G1 X710.000 Y206.000
G1 X710.000 Y205.000
G1 X710.000 Y204.000
M3
G1 X645.000 Y238.000
M5 S20
G1 X644.000 Y238.000
G1 X643.000 Y238.000
G1 X642.000 Y238.000
G1 X641.000 Y238.000
G1 X640.000 Y238.000
G1 X639.000 Y238.000
G1 X638.000 Y238.000
G1 X637.000 Y238.000
G1 X636.000 Y238.000
G1 X635.000 Y238.000
G1 X634.000 Y239.000
G1 X633.000 Y239.000
G1 X632.000 Y239.000
G1 X631.000 Y240.000
G1 X630.000 Y240.000
G1 X629.000 Y240.000
G1 X628.000 Y241.000
G1 X627.000 Y242.000
G1 X627.000 Y241.000
G1 X626.000 Y242.000
G1 X625.000 Y243.000
G1 X624.000 Y244.000
G1 X624.000 Y243.000
G1 X625.000 Y242.000
M3
G1 X772.000 Y237.000
M5 S20
G1 X773.000 Y237.000
G1 X774.000 Y237.000
G1 X774.000 Y238.000
G1 X775.000 Y238.000
G1 X776.000 Y238.000
G1 X777.000 Y238.000
G1 X778.000 Y238.000
G1 X779.000 Y238.000
G1 X780.000 Y238.000
G1 X781.000 Y238.000
G1 X782.000 Y238.000
G1 X783.000 Y238.000
G1 X784.000 Y238.000
G1 X785.000 Y238.000
G1 X785.000 Y239.000
G1 X786.000 Y239.000
G1 X787.000 Y239.000
G1 X788.000 Y239.000
G1 X789.000 Y239.000
G1 X790.000 Y239.000
G1 X791.000 Y239.000
G1 X791.000 Y240.000
G1 X792.000 Y240.000
G1 X793.000 Y240.000
G1 X794.000 Y240.000
G1 X795.000 Y240.000
G1 X795.000 Y241.000
G1 X796.000 Y241.000
G1 X797.000 Y241.000
G1 X798.000 Y241.000
G1 X798.000 Y242.000
G1 X799.000 Y243.000
G1 X799.000 Y242.000
M3
G1 X277.000 Y238.000
M5 S20
G1 X278.000 Y238.000
G1 X279.000 Y238.000
G1 X280.000 Y238.000
G1 X281.000 Y238.000
G1 X282.000 Y238.000
G1 X283.000 Y238.000
G1 X284.000 Y238.000
G1 X285.000 Y238.000
G1 X286.000 Y238.000
G1 X287.000 Y238.000
G1 X288.000 Y238.000
G1 X289.000 Y238.000
G1 X290.000 Y238.000
G1 X291.000 Y238.000
G1 X292.000 Y238.000
G1 X293.000 Y238.000
G1 X294.000 Y238.000
G1 X295.000 Y238.000
G1 X295.000 Y239.000
G1 X296.000 Y239.000
G1 X297.000 Y239.000
G1 X298.000 Y239.000
G1 X299.000 Y239.000
G1 X300.000 Y239.000
G1 X301.000 Y239.000
G1 X301.000 Y240.000
G1 X302.000 Y240.000
G1 X303.000 Y240.000
G1 X304.000 Y240.000
G1 X305.000 Y240.000
G1 X305.000 Y241.000
G1 X306.000 Y241.000
G1 X307.000 Y241.000
G1 X308.000 Y241.000
G1 X308.000 Y242.000
G1 X309.000 Y242.000
G1 X310.000 Y242.000
G1 X310.000 Y243.000
G1 X310.000 Y244.000
G1 X310.000 Y245.000
G1 X310.000 Y246.000
G1 X310.000 Y247.000
G1 X310.000 Y248.000
G1 X310.000 Y249.000
G1 X310.000 Y250.000
G1 X310.000 Y251.000
G1 X310.000 Y252.000
G1 X310.000 Y253.000
G1 X310.000 Y254.000
G1 X310.000 Y255.000
G1 X310.000 Y256.000
G1 X310.000 Y257.000
G1 X310.000 Y258.000
G1 X310.000 Y259.000
G1 X310.000 Y260.000
G1 X310.000 Y261.000
G1 X310.000 Y262.000
G1 X310.000 Y263.000
G1 X310.000 Y264.000
G1 X310.000 Y265.000
G1 X309.000 Y265.000
G1 X308.000 Y265.000
G1 X307.000 Y265.000
G1 X306.000 Y265.000
G1 X306.000 Y264.000
G1 X306.000 Y263.000
G1 X306.000 Y262.000
G1 X305.000 Y262.000
G1 X305.000 Y261.000
G1 X305.000 Y260.000
G1 X305.000 Y259.000
G1 X305.000 Y258.000
G1 X304.000 Y258.000
G1 X304.000 Y257.000
G1 X304.000 Y256.000
G1 X303.000 Y256.000
G1 X303.000 Y255.000
G1 X303.000 Y254.000
G1 X302.000 Y254.000
G1 X302.000 Y253.000
G1 X302.000 Y252.000
G1 X301.000 Y252.000
G1 X301.000 Y251.000
G1 X301.000 Y250.000
G1 X300.000 Y250.000
G1 X299.000 Y249.000
G1 X298.000 Y248.000
G1 X297.000 Y247.000
G1 X296.000 Y246.000
G1 X295.000 Y245.000
G1 X294.000 Y244.000
G1 X293.000 Y244.000
G1 X292.000 Y244.000
G1 X291.000 Y243.000
G1 X290.000 Y243.000
G1 X289.000 Y243.000
G1 X288.000 Y242.000
G1 X287.000 Y242.000
G1 X286.000 Y242.000
G1 X285.000 Y242.000
G1 X284.000 Y242.000
G1 X283.000 Y242.000
G1 X282.000 Y242.000
G1 X281.000 Y242.000
G1 X280.000 Y242.000
G1 X279.000 Y242.000
G1 X278.000 Y242.000
G1 X277.000 Y243.000
G1 X276.000 Y243.000
G1 X275.000 Y243.000
G1 X274.000 Y244.000
G1 X273.000 Y245.000
G1 X273.000 Y244.000
G1 X272.000 Y245.000
G1 X271.000 Y246.000
G1 X270.000 Y247.000
G1 X269.000 Y248.000
G1 X268.000 Y249.000
G1 X267.000 Y250.000
G1 X266.000 Y251.000
G1 X266.000 Y252.000
G1 X266.000 Y253.000
G1 X266.000 Y254.000
G1 X265.000 Y254.000
G1 X265.000 Y255.000
G1 X265.000 Y256.000
G1 X265.000 Y257.000
G1 X265.000 Y258.000
G1 X265.000 Y259.000
G1 X265.000 Y260.000
G1 X265.000 Y261.000
G1 X265.000 Y262.000
G1 X265.000 Y263.000
G1 X265.000 Y264.000
G1 X265.000 Y265.000
G1 X266.000 Y266.000
G1 X266.000 Y265.000
M3
G1 X647.000 Y238.000
M5 S20
G1 X648.000 Y238.000
G1 X649.000 Y238.000
G1 X650.000 Y238.000
G1 X651.000 Y238.000
G1 X652.000 Y238.000
G1 X653.000 Y238.000
G1 X654.000 Y238.000
G1 X655.000 Y238.000
G1 X655.000 Y239.000
G1 X656.000 Y239.000
G1 X657.000 Y239.000
G1 X658.000 Y239.000
G1 X659.000 Y239.000
G1 X659.000 Y240.000
G1 X660.000 Y240.000
G1 X661.000 Y240.000
G1 X662.000 Y240.000
G1 X662.000 Y241.000
G1 X663.000 Y241.000
G1 X664.000 Y241.000
G1 X665.000 Y241.000
G1 X665.000 Y242.000
G1 X666.000 Y243.000
G1 X666.000 Y242.000
M3
G1 X759.000 Y238.000
M5 S20
G1 X760.000 Y238.000
G1 X761.000 Y238.000
G1 X762.000 Y238.000
G1 X763.000 Y238.000
G1 X764.000 Y238.000
G1 X765.000 Y238.000
G1 X766.000 Y238.000
G1 X767.000 Y238.000
G1 X768.000 Y238.000
G1 X769.000 Y238.000
G1 X770.000 Y238.000
G1 X771.000 Y238.000
M3
G1 X20.000 Y239.000
M5 S20
G1 X21.000 Y239.000
G1 X22.000 Y239.000
G1 X23.000 Y239.000
G1 X24.000 Y239.000
G1 X25.000 Y239.000
G1 X26.000 Y239.000
G1 X27.000 Y239.000
G1 X28.000 Y239.000
G1 X29.000 Y239.000
G1 X30.000 Y239.000
G1 X31.000 Y239.000
G1 X32.000 Y239.000
G1 X33.000 Y239.000
G1 X34.000 Y239.000
G1 X35.000 Y239.000
G1 X36.000 Y239.000
G1 X37.000 Y239.000
G1 X38.000 Y239.000
G1 X39.000 Y239.000
G1 X40.000 Y239.000
G1 X41.000 Y239.000
G1 X42.000 Y239.000
G1 X43.000 Y239.000
G1 X44.000 Y239.000
G1 X45.000 Y239.000
G1 X46.000 Y239.000
G1 X47.000 Y239.000
G1 X48.000 Y239.000
G1 X49.000 Y239.000
G1 X50.000 Y239.000
G1 X51.000 Y239.000
G1 X52.000 Y239.000
G1 X53.000 Y239.000
G1 X54.000 Y239.000
G1 X55.000 Y239.000
G1 X56.000 Y239.000
G1 X57.000 Y239.000
G1 X58.000 Y239.000
G1 X59.000 Y239.000
G1 X60.000 Y239.000
G1 X61.000 Y239.000
G1 X62.000 Y239.000
G1 X63.000 Y239.000
G1 X64.000 Y239.000
G1 X65.000 Y239.000
G1 X66.000 Y239.000
G1 X67.000 Y239.000
G1 X68.000 Y239.000
G1 X69.000 Y239.000
G1 X70.000 Y239.000
G1 X70.000 Y240.000
G1 X71.000 Y240.000
G1 X72.000 Y240.000
G1 X73.000 Y240.000
G1 X74.000 Y240.000
G1 X75.000 Y240.000
G1 X75.000 Y241.000
G1 X76.000 Y241.000
G1 X77.000 Y241.000
G1 X78.000 Y241.000
G1 X79.000 Y241.000
G1 X80.000 Y241.000
G1 X80.000 Y242.000
G1 X81.000 Y242.000
G1 X82.000 Y242.000
G1 X83.000 Y242.000
G1 X83.000 Y243.000
G1 X84.000 Y243.000
G1 X85.000 Y243.000
G1 X86.000 Y243.000
G1 X86.000 Y244.000
G1 X87.000 Y244.000
G1 X88.000 Y244.000
G1 X88.000 Y245.000
G1 X89.000 Y245.000
G1 X90.000 Y245.000
G1 X90.000 Y246.000
G1 X91.000 Y246.000
G1 X92.000 Y246.000
G1 X92.000 Y247.000
G1 X93.000 Y248.000
G1 X93.000 Y247.000
G1 X94.000 Y248.000
G1 X95.000 Y249.000
G1 X96.000 Y250.000
G1 X97.000 Y251.000
G1 X98.000 Y252.000
G1 X99.000 Y253.000
G1 X100.000 Y254.000
G1 X101.000 Y255.000
G1 X102.000 Y256.000
G1 X103.000 Y257.000
G1 X104.000 Y258.000
G1 X103.000 Y258.000
G1 X104.000 Y259.000
G1 X105.000 Y260.000
G1 X106.000 Y261.000
G1 X105.000 Y261.000
G1 X106.000 Y262.000
G1 X107.000 Y263.000
G1 X106.000 Y263.000
G1 X107.000 Y264.000
G1 X107.000 Y265.000
G1 X107.000 Y266.000
G1 X108.000 Y267.000
G1 X108.000 Y266.000
M3
G1 X141.000 Y239.000
M5 S20
G1 X142.000 Y239.000
G1 X143.000 Y239.000
G1 X144.000 Y239.000
G1 X145.000 Y239.000
G1 X146.000 Y239.000
G1 X147.000 Y239.000
G1 X148.000 Y239.000
G1 X149.000 Y239.000
G1 X150.000 Y239.000
G1 X151.000 Y239.000
G1 X152.000 Y239.000
G1 X153.000 Y239.000
G1 X154.000 Y239.000
G1 X155.000 Y239.000
G1 X156.000 Y239.000
G1 X157.000 Y239.000
G1 X158.000 Y239.000
G1 X159.000 Y239.000
G1 X160.000 Y239.000
G1 X161.000 Y239.000
G1 X162.000 Y239.000
G1 X163.000 Y239.000
G1 X164.000 Y239.000
G1 X165.000 Y239.000
G1 X166.000 Y239.000
G1 X167.000 Y239.000
G1 X168.000 Y239.000
G1 X169.000 Y239.000
G1 X170.000 Y239.000
G1 X171.000 Y239.000
G1 X172.000 Y239.000
G1 X173.000 Y239.000
G1 X174.000 Y239.000
G1 X175.000 Y239.000
G1 X176.000 Y239.000
G1 X177.000 Y239.000
G1 X178.000 Y239.000
G1 X179.000 Y239.000
G1 X180.000 Y239.000
G1 X181.000 Y239.000
G1 X182.000 Y239.000
G1 X183.000 Y239.000
G1 X184.000 Y239.000
G1 X185.000 Y239.000
G1 X186.000 Y239.000
G1 X187.000 Y239.000
G1 X188.000 Y239.000
G1 X189.000 Y239.000
G1 X190.000 Y239.000
G1 X191.000 Y239.000
G1 X192.000 Y239.000
G1 X193.000 Y239.000
G1 X194.000 Y239.000
G1 X195.000 Y239.000
G1 X196.000 Y239.000
G1 X197.000 Y239.000
G1 X198.000 Y239.000
G1 X199.000 Y239.000
G1 X200.000 Y239.000
G1 X201.000 Y239.000
G1 X202.000 Y239.000
G1 X203.000 Y239.000
G1 X204.000 Y239.000
G1 X205.000 Y239.000
G1 X206.000 Y239.000
G1 X207.000 Y239.000
G1 X208.000 Y239.000
G1 X209.000 Y239.000
G1 X210.000 Y239.000
G1 X211.000 Y239.000
G1 X212.000 Y239.000
G1 X213.000 Y239.000
G1 X213.000 Y240.000
G1 X213.000 Y241.000
G1 X213.000 Y242.000
G1 X213.000 Y243.000
G1 X213.000 Y244.000
G1 X213.000 Y245.000
G1 X213.000 Y246.000
G1 X213.000 Y247.000
G1 X213.000 Y248.000
G1 X213.000 Y249.000
G1 X213.000 Y250.000
G1 X213.000 Y251.000
G1 X213.000 Y252.000
G1 X213.000 Y253.000
G1 X213.000 Y254.000
G1 X213.000 Y255.000
G1 X213.000 Y256.000
G1 X213.000 Y257.000
G1 X213.000 Y258.000
G1 X213.000 Y259.000
G1 X213.000 Y260.000
G1 X213.000 Y261.000
G1 X213.000 Y262.000
G1 X213.000 Y263.000
G1 X213.000 Y264.000
G1 X212.000 Y264.000
G1 X211.000 Y265.000
G1 X210.000 Y264.000
G1 X209.000 Y263.000
G1 X208.000 Y262.000
G1 X208.000 Y261.000
G1 X208.000 Y260.000
G1 X208.000 Y259.000
G1 X207.000 Y259.000
G1 X207.000 Y258.000
G1 X207.000 Y257.000
G1 X207.000 Y256.000
G1 X207.000 Y255.000
G1 X206.000 Y255.000
G1 X206.000 Y254.000
G1 X206.000 Y253.000
G1 X205.000 Y253.000
G1 X205.000 Y252.000
G1 X205.000 Y251.000
G1 X204.000 Y251.000
G1 X204.000 Y250.000
G1 X204.000 Y249.000
G1 X203.000 Y249.000
G1 X202.000 Y248.000
G1 X201.000 Y247.000
G1 X200.000 Y246.000
G1 X199.000 Y245.000
G1 X198.000 Y244.000
G1 X197.000 Y244.000
G1 X196.000 Y244.000
G1 X195.000 Y244.000
G1 X194.000 Y244.000
G1 X193.000 Y243.000
G1 X192.000 Y243.000
G1 X191.000 Y243.000
G1 X190.000 Y243.000
G1 X189.000 Y243.000
G1 X188.000 Y243.000
G1 X187.000 Y243.000
G1 X186.000 Y243.000
G1 X185.000 Y243.000
G1 X184.000 Y243.000
G1 X183.000 Y243.000
G1 X182.000 Y243.000
G1 X181.000 Y243.000
G1 X180.000 Y243.000
G1 X179.000 Y243.000
G1 X178.000 Y243.000
G1 X177.000 Y243.000
G1 X176.000 Y243.000
G1 X175.000 Y243.000
G1 X174.000 Y243.000
G1 X173.000 Y243.000
G1 X172.000 Y243.000
G1 X171.000 Y243.000
G1 X170.000 Y243.000
G1 X169.000 Y243.000
G1 X168.000 Y243.000
G1 X168.000 Y244.000
G1 X168.000 Y245.000
G1 X168.000 Y246.000
G1 X168.000 Y247.000
G1 X168.000 Y248.000
G1 X168.000 Y249.000
G1 X168.000 Y250.000
G1 X168.000 Y251.000
G1 X168.000 Y252.000
G1 X168.000 Y253.000
G1 X168.000 Y254.000
G1 X168.000 Y255.000
G1 X168.000 Y256.000
G1 X168.000 Y257.000
G1 X168.000 Y258.000
G1 X168.000 Y259.000
G1 X168.000 Y260.000
G1 X168.000 Y261.000
G1 X168.000 Y262.000
G1 X168.000 Y263.000
G1 X168.000 Y264.000
G1 X168.000 Y265.000
G1 X168.000 Y266.000
G1 X168.000 Y267.000
G1 X168.000 Y268.000
G1 X168.000 Y269.000
G1 X168.000 Y270.000
G1 X168.000 Y271.000
G1 X168.000 Y272.000
G1 X168.000 Y273.000
G1 X168.000 Y274.000
G1 X168.000 Y275.000
G1 X168.000 Y276.000
G1 X168.000 Y277.000
G1 X168.000 Y278.000
G1 X168.000 Y279.000
G1 X168.000 Y280.000
G1 X168.000 Y281.000
G1 X168.000 Y282.000
G1 X168.000 Y283.000
G1 X168.000 Y284.000
G1 X169.000 Y284.000
G1 X170.000 Y284.000
G1 X171.000 Y284.000
G1 X172.000 Y284.000
G1 X173.000 Y284.000
G1 X174.000 Y284.000
G1 X175.000 Y284.000
G1 X176.000 Y284.000
G1 X177.000 Y284.000
G1 X178.000 Y284.000
G1 X179.000 Y284.000
G1 X180.000 Y284.000
G1 X181.000 Y284.000
G1 X181.000 Y283.000
G1 X182.000 Y283.000
G1 X183.000 Y283.000
G1 X184.000 Y283.000
G1 X185.000 Y283.000
G1 X186.000 Y283.000
G1 X186.000 Y282.000
G1 X187.000 Y282.000
G1 X188.000 Y282.000
G1 X188.000 Y281.000
G1 X189.000 Y281.000
G1 X190.000 Y281.000
G1 X190.000 Y280.000
G1 X191.000 Y279.000
G1 X192.000 Y278.000
G1 X193.000 Y277.000
G1 X192.000 Y277.000
G1 X193.000 Y276.000
G1 X193.000 Y275.000
G1 X193.000 Y274.000
G1 X194.000 Y273.000
G1 X194.000 Y274.000
M3
G1 X272.000 Y239.000
M5 S20
G1 X273.000 Y239.000
G1 X274.000 Y239.000
G1 X275.000 Y239.000
G1 X276.000 Y239.000
M3
G1 X325.000 Y239.000
M5 S20
G1 X326.000 Y239.000
G1 X327.000 Y239.000
G1 X328.000 Y239.000
G1 X329.000 Y239.000
G1 X330.000 Y239.000
G1 X331.000 Y239.000
G1 X332.000 Y239.000
G1 X333.000 Y239.000
G1 X334.000 Y239.000
G1 X335.000 Y239.000
G1 X336.000 Y239.000
G1 X337.000 Y239.000
G1 X338.000 Y239.000
G1 X339.000 Y239.000
G1 X340.000 Y239.000
G1 X341.000 Y239.000
G1 X342.000 Y239.000
G1 X343.000 Y239.000
G1 X344.000 Y239.000
G1 X345.000 Y239.000
G1 X346.000 Y239.000
G1 X347.000 Y239.000
G1 X347.000 Y240.000
G1 X347.000 Y241.000
G1 X347.000 Y242.000
G1 X347.000 Y243.000
G1 X347.000 Y244.000
G1 X347.000 Y245.000
G1 X347.000 Y246.000
G1 X347.000 Y247.000
G1 X347.000 Y248.000
G1 X347.000 Y249.000
G1 X347.000 Y250.000
G1 X347.000 Y251.000
G1 X347.000 Y252.000
G1 X347.000 Y253.000
G1 X347.000 Y254.000
G1 X347.000 Y255.000
G1 X347.000 Y256.000
G1 X347.000 Y257.000
G1 X347.000 Y258.000
G1 X347.000 Y259.000
G1 X347.000 Y260.000
G1 X347.000 Y261.000
G1 X347.000 Y262.000
G1 X347.000 Y263.000
G1 X347.000 Y264.000
G1 X347.000 Y265.000
G1 X347.000 Y266.000
G1 X347.000 Y267.000
G1 X347.000 Y268.000
G1 X347.000 Y269.000
G1 X347.000 Y270.000
G1 X347.000 Y271.000
G1 X347.000 Y272.000
G1 X347.000 Y273.000
G1 X347.000 Y274.000
G1 X347.000 Y275.000
G1 X347.000 Y276.000
G1 X347.000 Y277.000
G1 X347.000 Y278.000
G1 X347.000 Y279.000
G1 X348.000 Y279.000
G1 X349.000 Y279.000
G1 X349.000 Y278.000
G1 X349.000 Y277.000
G1 X350.000 Y276.000
G1 X351.000 Y275.000
G1 X352.000 Y274.000
G1 X353.000 Y273.000
G1 X354.000 Y272.000
G1 X355.000 Y271.000
G1 X356.000 Y270.000
G1 X357.000 Y270.000
G1 X358.000 Y270.000
G1 X358.000 Y269.000
G1 X359.000 Y269.000
G1 X360.000 Y269.000
G1 X360.000 Y268.000
G1 X361.000 Y268.000
G1 X362.000 Y268.000
G1 X362.000 Y267.000
G1 X363.000 Y267.000
G1 X364.000 Y267.000
G1 X365.000 Y267.000
G1 X366.000 Y267.000
G1 X366.000 Y266.000
G1 X367.000 Y266.000
G1 X368.000 Y266.000
G1 X369.000 Y266.000
G1 X370.000 Y266.000
G1 X371.000 Y266.000
G1 X372.000 Y266.000
G1 X373.000 Y266.000
G1 X374.000 Y266.000
G1 X375.000 Y266.000
G1 X376.000 Y266.000
G1 X377.000 Y266.000
G1 X378.000 Y266.000
G1 X378.000 Y267.000
G1 X379.000 Y267.000
G1 X380.000 Y267.000
G1 X381.000 Y267.000
G1 X381.000 Y268.000
G1 X382.000 Y268.000
G1 X383.000 Y268.000
G1 X383.000 Y269.000
G1 X384.000 Y270.000
G1 X385.000 Y271.000
G1 X386.000 Y272.000
G1 X387.000 Y273.000
G1 X388.000 Y274.000
G1 X389.000 Y275.000
G1 X390.000 Y276.000
G1 X389.000 Y276.000
G1 X390.000 Y277.000
G1 X391.000 Y278.000
G1 X390.000 Y278.000
G1 X391.000 Y279.000
G1 X391.000 Y280.000
G1 X391.000 Y281.000
G1 X391.000 Y282.000
G1 X392.000 Y283.000
G1 X392.000 Y282.000
M3
G1 X755.000 Y239.000
M5 S20
G1 X756.000 Y239.000
G1 X757.000 Y239.000
G1 X758.000 Y239.000
M3
G1 X19.000 Y241.000
M5 S20
G1 X19.000 Y242.000
G1 X19.000 Y243.000
G1 X20.000 Y243.000
G1 X21.000 Y243.000
G1 X22.000 Y243.000
G1 X23.000 Y243.000
G1 X24.000 Y243.000
G1 X25.000 Y243.000
G1 X26.000 Y243.000
G1 X27.000 Y243.000
G1 X28.000 Y243.000
G1 X29.000 Y243.000
G1 X30.000 Y243.000
G1 X31.000 Y243.000
G1 X32.000 Y243.000
G1 X32.000 Y244.000
G1 X32.000 Y245.000
G1 X32.000 Y246.000
G1 X32.000 Y247.000
G1 X32.000 Y248.000
G1 X32.000 Y249.000
G1 X32.000 Y250.000
G1 X32.000 Y251.000
G1 X32.000 Y252.000
G1 X32.000 Y253.000
G1 X32.000 Y254.000
G1 X32.000 Y255.000
G1 X32.000 Y256.000
G1 X32.000 Y257.000
G1 X32.000 Y258.000
G1 X32.000 Y259.000
G1 X32.000 Y260.000
G1 X32.000 Y261.000
G1 X32.000 Y262.000
G1 X32.000 Y263.000
G1 X32.000 Y264.000
G1 X32.000 Y265.000
G1 X32.000 Y266.000
G1 X32.000 Y267.000
G1 X32.000 Y268.000
G1 X32.000 Y269.000
G1 X32.000 Y270.000
G1 X32.000 Y271.000
G1 X32.000 Y272.000
G1 X32.000 Y273.000
G1 X32.000 Y274.000
G1 X32.000 Y275.000
G1 X32.000 Y276.000
G1 X32.000 Y277.000
G1 X32.000 Y278.000
G1 X32.000 Y279.000
G1 X32.000 Y280.000
G1 X32.000 Y281.000
G1 X32.000 Y282.000
G1 X32.000 Y283.000
G1 X32.000 Y284.000
G1 X32.000 Y285.000
G1 X32.000 Y286.000
G1 X32.000 Y287.000
G1 X32.000 Y288.000
G1 X32.000 Y289.000
G1 X32.000 Y290.000
G1 X32.000 Y291.000
G1 X32.000 Y292.000
G1 X32.000 Y293.000
G1 X32.000 Y294.000
G1 X32.000 Y295.000
G1 X32.000 Y296.000
G1 X32.000 Y297.000
G1 X32.000 Y298.000
G1 X32.000 Y299.000
G1 X32.000 Y300.000
G1 X32.000 Y301.000
G1 X32.000 Y302.000
G1 X32.000 Y303.000
G1 X32.000 Y304.000
G1 X32.000 Y305.000
G1 X32.000 Y306.000
G1 X32.000 Y307.000
G1 X32.000 Y308.000
G1 X32.000 Y309.000
G1 X32.000 Y310.000
G1 X32.000 Y311.000
G1 X32.000 Y312.000
G1 X32.000 Y313.000
G1 X32.000 Y314.000
G1 X32.000 Y315.000
G1 X32.000 Y316.000
G1 X32.000 Y317.000
G1 X32.000 Y318.000
G1 X32.000 Y319.000
G1 X32.000 Y320.000
G1 X32.000 Y321.000
G1 X32.000 Y322.000
G1 X32.000 Y323.000
G1 X32.000 Y324.000
G1 X32.000 Y325.000
G1 X32.000 Y326.000
G1 X32.000 Y327.000
G1 X32.000 Y328.000
G1 X32.000 Y329.000
G1 X32.000 Y330.000
G1 X32.000 Y331.000
G1 X32.000 Y332.000
G1 X32.000 Y333.000
G1 X32.000 Y334.000
G1 X32.000 Y335.000
G1 X32.000 Y336.000
G1 X31.000 Y336.000
G1 X30.000 Y336.000
G1 X29.000 Y336.000
G1 X28.000 Y336.000
G1 X27.000 Y336.000
G1 X26.000 Y336.000
G1 X25.000 Y336.000
G1 X24.000 Y336.000
G1 X23.000 Y336.000
G1 X22.000 Y336.000
G1 X21.000 Y336.000
G1 X20.000 Y336.000
G1 X19.000 Y336.000
G1 X19.000 Y337.000
G1 X19.000 Y338.000
G1 X19.000 Y339.000
G1 X19.000 Y340.000
G1 X19.000 Y341.000
G1 X20.000 Y341.000
G1 X21.000 Y341.000
G1 X22.000 Y341.000
G1 X23.000 Y341.000
G1 X24.000 Y341.000
G1 X25.000 Y341.000
G1 X26.000 Y341.000
G1 X27.000 Y341.000
G1 X28.000 Y341.000
G1 X29.000 Y341.000
G1 X30.000 Y341.000
G1 X31.000 Y341.000
G1 X32.000 Y341.000
G1 X33.000 Y341.000
G1 X34.000 Y341.000
G1 X35.000 Y341.000
G1 X36.000 Y341.000
G1 X37.000 Y341.000
G1 X38.000 Y341.000
G1 X39.000 Y341.000
G1 X40.000 Y341.000
G1 X41.000 Y341.000
G1 X42.000 Y341.000
G1 X43.000 Y341.000
G1 X44.000 Y341.000
G1 X45.000 Y341.000
G1 X46.000 Y341.000
G1 X47.000 Y341.000
G1 X48.000 Y341.000
G1 X49.000 Y341.000
G1 X50.000 Y341.000
G1 X51.000 Y341.000
G1 X52.000 Y341.000
G1 X53.000 Y341.000
G1 X54.000 Y341.000
G1 X55.000 Y341.000
G1 X56.000 Y341.000
G1 X57.000 Y341.000
G1 X58.000 Y341.000
G1 X58.000 Y340.000
G1 X59.000 Y340.000
G1 X60.000 Y340.000
G1 X61.000 Y340.000
G1 X62.000 Y340.000
G1 X63.000 Y340.000
G1 X64.000 Y340.000
G1 X65.000 Y340.000
G1 X66.000 Y340.000
G1 X67.000 Y340.000
G1 X68.000 Y340.000
G1 X69.000 Y340.000
G1 X70.000 Y340.000
G1 X71.000 Y340.000
G1 X71.000 Y339.000
G1 X72.000 Y339.000
G1 X73.000 Y339.000
G1 X74.000 Y339.000
G1 X75.000 Y339.000
G1 X76.000 Y339.000
G1 X77.000 Y339.000
G1 X77.000 Y338.000
G1 X78.000 Y338.000
G1 X79.000 Y338.000
G1 X80.000 Y338.000
G1 X81.000 Y338.000
G1 X81.000 Y337.000
G1 X82.000 Y337.000
G1 X83.000 Y337.000
G1 X84.000 Y337.000
G1 X85.000 Y337.000
G1 X85.000 Y336.000
G1 X86.000 Y336.000
G1 X87.000 Y336.000
G1 X87.000 Y335.000
G1 X88.000 Y335.000
G1 X89.000 Y335.000
G1 X89.000 Y334.000
G1 X90.000 Y334.000
G1 X91.000 Y334.000
G1 X91.000 Y333.000
G1 X92.000 Y332.000
G1 X93.000 Y332.000
G1 X94.000 Y332.000
G1 X94.000 Y331.000
G1 X95.000 Y330.000
G1 X96.000 Y330.000
G1 X97.000 Y330.000
G1 X97.000 Y329.000
G1 X98.000 Y328.000
G1 X99.000 Y327.000
G1 X100.000 Y326.000
G1 X101.000 Y325.000
G1 X102.000 Y324.000
G1 X103.000 Y323.000
G1 X104.000 Y322.000
G1 X103.000 Y322.000
G1 X102.000 Y323.000
G1 X101.000 Y324.000
M3
G1 X140.000 Y241.000
M5 S20
G1 X140.000 Y242.000
G1 X140.000 Y243.000
G1 X141.000 Y243.000
G1 X142.000 Y243.000
G1 X143.000 Y243.000
G1 X144.000 Y243.000
G1 X145.000 Y243.000
G1 X146.000 Y243.000
G1 X147.000 Y243.000
G1 X148.000 Y243.000
G1 X149.000 Y243.000
G1 X150.000 Y243.000
G1 X151.000 Y243.000
G1 X152.000 Y243.000
G1 X153.000 Y243.000
G1 X153.000 Y244.000
G1 X153.000 Y245.000
G1 X153.000 Y246.000
G1 X153.000 Y247.000
G1 X153.000 Y248.000
G1 X153.000 Y249.000
G1 X153.000 Y250.000
G1 X153.000 Y251.000
G1 X153.000 Y252.000
G1 X153.000 Y253.000
G1 X153.000 Y254.000
G1 X153.000 Y255.000
G1 X153.000 Y256.000
G1 X153.000 Y257.000
G1 X153.000 Y258.000
G1 X153.000 Y259.000
G1 X153.000 Y260.000
G1 X153.000 Y261.000
G1 X153.000 Y262.000
G1 X153.000 Y263.000
G1 X153.000 Y264.000
G1 X153.000 Y265.000
G1 X153.000 Y266.000
G1 X153.000 Y267.000
G1 X153.000 Y268.000
G1 X153.000 Y269.000
G1 X153.000 Y270.000
G1 X153.000 Y271.000
G1 X153.000 Y272.000
G1 X153.000 Y273.000
G1 X153.000 Y274.000
G1 X153.000 Y275.000
G1 X153.000 Y276.000
G1 X153.000 Y277.000
G1 X153.000 Y278.000
G1 X153.000 Y279.000
G1 X153.000 Y280.000
G1 X153.000 Y281.000
G1 X153.000 Y282.000
G1 X153.000 Y283.000
G1 X153.000 Y284.000
G1 X153.000 Y285.000
G1 X153.000 Y286.000
G1 X153.000 Y287.000
G1 X153.000 Y288.000
G1 X153.000 Y289.000
G1 X153.000 Y290.000
G1 X153.000 Y291.000
G1 X153.000 Y292.000
G1 X153.000 Y293.000
G1 X153.000 Y294.000
G1 X153.000 Y295.000
G1 X153.000 Y296.000
G1 X153.000 Y297.000
G1 X153.000 Y298.000
G1 X153.000 Y299.000
G1 X153.000 Y300.000
G1 X153.000 Y301.000
G1 X153.000 Y302.000
G1 X153.000 Y303.000
G1 X153.000 Y304.000
G1 X153.000 Y305.000
G1 X153.000 Y306.000
G1 X153.000 Y307.000
G1 X153.000 Y308.000
G1 X153.000 Y309.000
G1 X153.000 Y310.000
G1 X153.000 Y311.000
G1 X153.000 Y312.000
G1 X153.000 Y313.000
G1 X153.000 Y314.000
G1 X153.000 Y315.000
G1 X153.000 Y316.000
G1 X153.000 Y317.000
G1 X153.000 Y318.000
G1 X153.000 Y319.000
G1 X153.000 Y320.000
G1 X153.000 Y321.000
G1 X153.000 Y322.000
G1 X153.000 Y323.000
G1 X153.000 Y324.000
G1 X153.000 Y325.000
G1 X153.000 Y326.000
G1 X153.000 Y327.000
G1 X153.000 Y328.000
G1 X153.000 Y329.000
G1 X153.000 Y330.000
G1 X153.000 Y331.000
G1 X153.000 Y332.000
G1 X153.000 Y333.000
G1 X153.000 Y334.000
G1 X153.000 Y335.000
G1 X153.000 Y336.000
G1 X152.000 Y336.000
G1 X151.000 Y336.000
G1 X150.000 Y336.000
G1 X149.000 Y336.000
G1 X148.000 Y336.000
G1 X147.000 Y336.000
G1 X146.000 Y336.000
G1 X145.000 Y336.000
G1 X144.000 Y336.000
G1 X143.000 Y336.000
G1 X142.000 Y336.000
G1 X141.000 Y336.000
G1 X140.000 Y336.000
G1 X140.000 Y337.000
G1 X140.000 Y338.000
G1 X140.000 Y339.000
G1 X140.000 Y340.000
G1 X140.000 Y341.000
G1 X141.000 Y341.000
G1 X142.000 Y341.000
G1 X143.000 Y341.000
G1 X144.000 Y341.000
G1 X145.000 Y341.000
G1 X146.000 Y341.000
G1 X147.000 Y341.000
G1 X148.000 Y341.000
G1 X149.000 Y341.000
G1 X150.000 Y341.000
G1 X151.000 Y341.000
G1 X152.000 Y341.000
G1 X153.000 Y341.000
G1 X154.000 Y341.000
G1 X155.000 Y341.000
G1 X156.000 Y341.000
G1 X157.000 Y341.000
G1 X158.000 Y341.000
G1 X159.000 Y341.000
G1 X160.000 Y341.000
G1 X161.000 Y341.000
G1 X162.000 Y341.000
G1 X163.000 Y341.000
G1 X164.000 Y341.000
G1 X165.000 Y341.000
G1 X166.000 Y341.000
G1 X167.000 Y341.000
G1 X168.000 Y341.000
G1 X169.000 Y341.000
G1 X170.000 Y341.000
G1 X171.000 Y341.000
G1 X172.000 Y341.000
G1 X173.000 Y341.000
G1 X174.000 Y341.000
G1 X175.000 Y341.000
G1 X176.000 Y341.000
G1 X177.000 Y341.000
G1 X178.000 Y341.000
G1 X179.000 Y341.000
G1 X180.000 Y341.000
G1 X181.000 Y341.000
G1 X182.000 Y341.000
G1 X183.000 Y341.000
G1 X184.000 Y341.000
G1 X185.000 Y341.000
G1 X186.000 Y341.000
G1 X187.000 Y341.000
G1 X188.000 Y341.000
G1 X189.000 Y341.000
G1 X190.000 Y341.000
G1 X191.000 Y341.000
G1 X192.000 Y341.000
G1 X193.000 Y341.000
G1 X194.000 Y341.000
G1 X195.000 Y341.000
G1 X196.000 Y341.000
G1 X197.000 Y341.000
G1 X198.000 Y341.000
G1 X199.000 Y341.000
G1 X200.000 Y341.000
G1 X201.000 Y341.000
G1 X202.000 Y341.000
G1 X203.000 Y341.000
G1 X204.000 Y341.000
G1 X205.000 Y341.000
G1 X206.000 Y341.000
G1 X207.000 Y341.000
G1 X208.000 Y341.000
G1 X209.000 Y341.000
G1 X210.000 Y341.000
G1 X211.000 Y341.000
G1 X212.000 Y341.000
G1 X212.000 Y340.000
G1 X213.000 Y339.000
G1 X213.000 Y340.000
M3
G1 X269.000 Y240.000
M5 S20
G1 X270.000 Y240.000
G1 X271.000 Y240.000
M3
G1 X324.000 Y241.000
M5 S20
G1 X324.000 Y242.000
G1 X324.000 Y243.000
G1 X325.000 Y243.000
G1 X326.000 Y243.000
G1 X327.000 Y243.000
G1 X328.000 Y243.000
G1 X329.000 Y243.000
G1 X330.000 Y243.000
G1 X331.000 Y243.000
G1 X332.000 Y243.000
G1 X333.000 Y243.000
G1 X334.000 Y243.000
G1 X334.000 Y244.000
G1 X334.000 Y245.000
G1 X334.000 Y246.000
G1 X334.000 Y247.000
G1 X334.000 Y248.000
G1 X334.000 Y249.000
G1 X334.000 Y250.000
G1 X334.000 Y251.000
G1 X334.000 Y252.000
G1 X334.000 Y253.000
G1 X334.000 Y254.000
G1 X334.000 Y255.000
G1 X334.000 Y256.000
G1 X334.000 Y257.000
G1 X334.000 Y258.000
G1 X334.000 Y259.000
G1 X334.000 Y260.000
G1 X334.000 Y261.000
G1 X334.000 Y262.000
G1 X334.000 Y263.000
G1 X334.000 Y264.000
G1 X334.000 Y265.000
G1 X334.000 Y266.000
G1 X334.000 Y267.000
G1 X334.000 Y268.000
G1 X334.000 Y269.000
G1 X334.000 Y270.000
G1 X334.000 Y271.000
G1 X334.000 Y272.000
G1 X334.000 Y273.000
G1 X334.000 Y274.000
G1 X334.000 Y275.000
G1 X334.000 Y276.000
G1 X334.000 Y277.000
G1 X334.000 Y278.000
G1 X334.000 Y279.000
G1 X334.000 Y280.000
G1 X334.000 Y281.000
G1 X334.000 Y282.000
G1 X334.000 Y283.000
G1 X334.000 Y284.000
G1 X334.000 Y285.000
G1 X334.000 Y286.000
G1 X334.000 Y287.000
G1 X334.000 Y288.000
G1 X334.000 Y289.000
G1 X334.000 Y290.000
G1 X334.000 Y291.000
G1 X334.000 Y292.000
G1 X334.000 Y293.000
G1 X334.000 Y294.000
G1 X334.000 Y295.000
G1 X334.000 Y296.000
G1 X334.000 Y297.000
G1 X334.000 Y298.000
G1 X334.000 Y299.000
G1 X334.000 Y300.000
G1 X334.000 Y301.000
G1 X334.000 Y302.000
G1 X334.000 Y303.000
G1 X334.000 Y304.000
G1 X334.000 Y305.000
G1 X334.000 Y306.000
G1 X334.000 Y307.000
G1 X334.000 Y308.000
G1 X334.000 Y309.000
G1 X334.000 Y310.000
G1 X334.000 Y311.000
G1 X334.000 Y312.000
G1 X334.000 Y313.000
G1 X334.000 Y314.000
G1 X334.000 Y315.000
G1 X334.000 Y316.000
G1 X334.000 Y317.000
G1 X334.000 Y318.000
G1 X334.000 Y319.000
G1 X334.000 Y320.000
G1 X334.000 Y321.000
G1 X334.000 Y322.000
G1 X334.000 Y323.000
G1 X334.000 Y324.000
G1 X334.000 Y325.000
G1 X334.000 Y326.000
G1 X334.000 Y327.000
G1 X334.000 Y328.000
G1 X334.000 Y329.000
G1 X334.000 Y330.000
G1 X334.000 Y331.000
G1 X334.000 Y332.000
G1 X334.000 Y333.000
G1 X334.000 Y334.000
G1 X334.000 Y335.000
G1 X334.000 Y336.000
G1 X333.000 Y336.000
G1 X332.000 Y336.000
G1 X331.000 Y336.000
G1 X330.000 Y336.000
G1 X329.000 Y336.000
G1 X328.000 Y336.000
G1 X327.000 Y336.000
G1 X326.000 Y336.000
G1 X325.000 Y336.000
G1 X324.000 Y336.000
G1 X324.000 Y337.000
G1 X324.000 Y338.000
G1 X324.000 Y339.000
G1 X324.000 Y340.000
G1 X324.000 Y341.000
G1 X325.000 Y341.000
G1 X326.000 Y341.000
G1 X327.000 Y341.000
G1 X328.000 Y341.000
G1 X329.000 Y341.000
G1 X330.000 Y341.000
G1 X331.000 Y341.000
G1 X332.000 Y341.000
G1 X333.000 Y341.000
G1 X334.000 Y341.000
G1 X335.000 Y341.000
G1 X336.000 Y341.000
G1 X337.000 Y341.000
G1 X338.000 Y341.000
G1 X339.000 Y341.000
G1 X340.000 Y341.000
G1 X341.000 Y341.000
G1 X342.000 Y341.000
G1 X343.000 Y341.000
G1 X344.000 Y341.000
G1 X345.000 Y341.000
G1 X346.000 Y341.000
G1 X347.000 Y341.000
G1 X348.000 Y341.000
G1 X349.000 Y341.000
G1 X350.000 Y341.000
G1 X351.000 Y341.000
G1 X352.000 Y341.000
G1 X353.000 Y341.000
G1 X354.000 Y341.000
G1 X355.000 Y341.000
G1 X356.000 Y341.000
G1 X357.000 Y341.000
G1 X357.000 Y340.000
G1 X358.000 Y339.000
G1 X358.000 Y340.000
M3
G1 X638.000 Y241.000
M5 S20
G1 X639.000 Y241.000
G1 X640.000 Y241.000
G1 X641.000 Y241.000
G1 X642.000 Y241.000
G1 X643.000 Y241.000
G1 X644.000 Y241.000
G1 X645.000 Y241.000
G1 X646.000 Y241.000
G1 X646.000 Y242.000
G1 X647.000 Y242.000
G1 X648.000 Y242.000
G1 X649.000 Y242.000
G1 X649.000 Y243.000
G1 X650.000 Y243.000
G1 X651.000 Y243.000
G1 X652.000 Y243.000
G1 X652.000 Y244.000
G1 X653.000 Y245.000
G1 X654.000 Y246.000
G1 X655.000 Y247.000
G1 X656.000 Y248.000
G1 X657.000 Y249.000
G1 X658.000 Y250.000
G1 X659.000 Y251.000
G1 X658.000 Y251.000
G1 X659.000 Y252.000
G1 X660.000 Y253.000
G1 X659.000 Y253.000
G1 X660.000 Y254.000
G1 X660.000 Y255.000
G1 X660.000 Y256.000
G1 X661.000 Y257.000
G1 X661.000 Y256.000
M3
G1 X752.000 Y240.000
M5 S20
G1 X753.000 Y240.000
G1 X754.000 Y240.000
M3
G1 X267.000 Y241.000
M5 S20
G1 X268.000 Y241.000
M3
G1 X635.000 Y242.000
M5 S20
G1 X636.000 Y242.000
G1 X637.000 Y242.000
G1 X638.000 Y242.000
M3
G1 X749.000 Y241.000
M5 S20
G1 X750.000 Y241.000
G1 X751.000 Y241.000
M3
G1 X762.000 Y242.000
M5 S20
G1 X763.000 Y242.000
G1 X764.000 Y242.000
G1 X765.000 Y242.000
G1 X766.000 Y242.000
G1 X767.000 Y242.000
G1 X768.000 Y242.000
G1 X769.000 Y242.000
G1 X770.000 Y242.000
G1 X771.000 Y242.000
G1 X772.000 Y242.000
G1 X773.000 Y242.000
G1 X774.000 Y242.000
G1 X775.000 Y242.000
G1 X776.000 Y242.000
G1 X776.000 Y243.000
G1 X777.000 Y243.000
G1 X778.000 Y243.000
G1 X779.000 Y243.000
G1 X779.000 Y244.000
G1 X780.000 Y244.000
G1 X781.000 Y244.000
G1 X782.000 Y244.000
G1 X782.000 Y245.000
G1 X783.000 Y245.000
G1 X784.000 Y245.000
G1 X784.000 Y246.000
G1 X785.000 Y247.000
G1 X786.000 Y248.000
G1 X787.000 Y249.000
G1 X787.000 Y248.000
G1 X788.000 Y249.000
G1 X789.000 Y250.000
G1 X790.000 Y251.000
G1 X791.000 Y252.000
G1 X790.000 Y252.000
G1 X791.000 Y253.000
G1 X792.000 Y254.000
G1 X793.000 Y255.000
G1 X792.000 Y255.000
G1 X793.000 Y256.000
G1 X794.000 Y257.000
G1 X793.000 Y257.000
G1 X794.000 Y258.000
G1 X794.000 Y259.000
G1 X794.000 Y260.000
G1 X795.000 Y261.000
G1 X795.000 Y260.000
M3
G1 X46.000 Y243.000
M5 S20
G1 X47.000 Y243.000
G1 X48.000 Y243.000
G1 X49.000 Y243.000
G1 X50.000 Y243.000
G1 X51.000 Y243.000
G1 X52.000 Y243.000
G1 X53.000 Y243.000
G1 X54.000 Y243.000
G1 X55.000 Y243.000
G1 X56.000 Y243.000
G1 X57.000 Y243.000
G1 X58.000 Y243.000
G1 X59.000 Y243.000
G1 X60.000 Y243.000
G1 X61.000 Y243.000
G1 X62.000 Y243.000
G1 X63.000 Y243.000
G1 X64.000 Y243.000
G1 X65.000 Y243.000
G1 X66.000 Y243.000
G1 X66.000 Y244.000
G1 X67.000 Y244.000
G1 X68.000 Y244.000
G1 X69.000 Y244.000
G1 X70.000 Y244.000
G1 X71.000 Y244.000
G1 X72.000 Y244.000
G1 X72.000 Y245.000
G1 X73.000 Y245.000
G1 X74.000 Y245.000
G1 X75.000 Y245.000
G1 X75.000 Y246.000
G1 X76.000 Y246.000
G1 X77.000 Y246.000
G1 X78.000 Y246.000
G1 X78.000 Y247.000
G1 X79.000 Y247.000
G1 X80.000 Y247.000
G1 X80.000 Y248.000
G1 X81.000 Y248.000
G1 X82.000 Y248.000
G1 X82.000 Y249.000
G1 X83.000 Y250.000
G1 X83.000 Y249.000
G1 X84.000 Y250.000
G1 X85.000 Y251.000
G1 X86.000 Y252.000
G1 X87.000 Y253.000
G1 X88.000 Y254.000
G1 X89.000 Y255.000
G1 X88.000 Y255.000
G1 X89.000 Y256.000
G1 X90.000 Y257.000
G1 X89.000 Y257.000
G1 X90.000 Y258.000
G1 X91.000 Y259.000
G1 X90.000 Y259.000
G1 X91.000 Y260.000
G1 X92.000 Y261.000
G1 X91.000 Y261.000
G1 X92.000 Y262.000
G1 X92.000 Y263.000
G1 X92.000 Y264.000
G1 X93.000 Y265.000
G1 X93.000 Y264.000
M3
G1 X265.000 Y242.000
M5 S20
G1 X266.000 Y242.000
M3
G1 X633.000 Y243.000
M5 S20
G1 X634.000 Y243.000
G1 X635.000 Y243.000
M3
G1 X746.000 Y242.000
M5 S20
G1 X747.000 Y242.000
G1 X748.000 Y242.000
M3
G1 X758.000 Y243.000
M5 S20
G1 X759.000 Y243.000
G1 X760.000 Y243.000
G1 X761.000 Y243.000
G1 X762.000 Y243.000
M3
G1 X46.000 Y244.000
M5 S20
G1 X46.000 Y245.000
G1 X46.000 Y246.000
G1 X46.000 Y247.000
G1 X46.000 Y248.000
G1 X46.000 Y249.000
G1 X46.000 Y250.000
G1 X46.000 Y251.000
G1 X46.000 Y252.000
G1 X46.000 Y253.000
G1 X46.000 Y254.000
G1 X46.000 Y255.000
G1 X46.000 Y256.000
G1 X46.000 Y257.000
G1 X46.000 Y258.000
G1 X46.000 Y259.000
G1 X46.000 Y260.000
G1 X46.000 Y261.000
G1 X46.000 Y262.000
G1 X46.000 Y263.000
G1 X46.000 Y264.000
G1 X46.000 Y265.000
G1 X46.000 Y266.000
G1 X46.000 Y267.000
G1 X46.000 Y268.000
G1 X46.000 Y269.000
G1 X46.000 Y270.000
G1 X46.000 Y271.000
G1 X46.000 Y272.000
G1 X46.000 Y273.000
G1 X46.000 Y274.000
G1 X46.000 Y275.000
G1 X46.000 Y276.000
G1 X46.000 Y277.000
G1 X46.000 Y278.000
G1 X46.000 Y279.000
G1 X46.000 Y280.000
G1 X46.000 Y281.000
G1 X46.000 Y282.000
G1 X46.000 Y283.000
G1 X46.000 Y284.000
G1 X46.000 Y285.000
G1 X46.000 Y286.000
G1 X46.000 Y287.000
G1 X46.000 Y288.000
G1 X46.000 Y289.000
G1 X46.000 Y290.000
G1 X46.000 Y291.000
G1 X46.000 Y292.000
G1 X46.000 Y293.000
G1 X46.000 Y294.000
G1 X46.000 Y295.000
G1 X46.000 Y296.000
G1 X46.000 Y297.000
G1 X46.000 Y298.000
G1 X46.000 Y299.000
G1 X46.000 Y300.000
G1 X46.000 Y301.000
G1 X46.000 Y302.000
G1 X46.000 Y303.000
G1 X46.000 Y304.000
G1 X46.000 Y305.000
G1 X46.000 Y306.000
G1 X46.000 Y307.000
G1 X46.000 Y308.000
G1 X46.000 Y309.000
G1 X46.000 Y310.000
G1 X46.000 Y311.000
G1 X46.000 Y312.000
G1 X46.000 Y313.000
G1 X46.000 Y314.000
G1 X46.000 Y315.000
G1 X46.000 Y316.000
G1 X46.000 Y317.000
G1 X46.000 Y318.000
G1 X46.000 Y319.000
G1 X46.000 Y320.000
G1 X46.000 Y321.000
G1 X46.000 Y322.000
G1 X46.000 Y323.000
G1 X46.000 Y324.000
G1 X46.000 Y325.000
G1 X46.000 Y326.000
G1 X46.000 Y327.000
G1 X46.000 Y328.000
G1 X46.000 Y329.000
G1 X46.000 Y330.000
G1 X46.000 Y331.000
G1 X46.000 Y332.000
G1 X46.000 Y333.000
G1 X46.000 Y334.000
G1 X46.000 Y335.000
G1 X46.000 Y336.000
G1 X47.000 Y336.000
G1 X48.000 Y336.000
G1 X49.000 Y336.000
G1 X50.000 Y336.000
G1 X51.000 Y336.000
G1 X52.000 Y336.000
G1 X53.000 Y336.000
G1 X54.000 Y336.000
G1 X55.000 Y336.000
G1 X56.000 Y336.000
G1 X57.000 Y336.000
G1 X58.000 Y336.000
G1 X59.000 Y336.000
G1 X60.000 Y336.000
G1 X61.000 Y336.000
G1 X62.000 Y336.000
G1 X63.000 Y336.000
G1 X64.000 Y336.000
G1 X65.000 Y336.000
G1 X66.000 Y336.000
G1 X67.000 Y336.000
G1 X68.000 Y336.000
G1 X68.000 Y335.000
G1 X69.000 Y335.000
G1 X70.000 Y335.000
G1 X71.000 Y335.000
G1 X72.000 Y335.000
G1 X73.000 Y335.000
G1 X73.000 Y334.000
G1 X74.000 Y334.000
G1 X75.000 Y334.000
G1 X76.000 Y334.000
G1 X77.000 Y334.000
G1 X77.000 Y333.000
G1 X78.000 Y333.000
G1 X79.000 Y333.000
G1 X79.000 Y332.000
G1 X80.000 Y332.000
G1 X81.000 Y332.000
G1 X81.000 Y331.000
G1 X82.000 Y331.000
G1 X83.000 Y331.000
G1 X83.000 Y330.000
G1 X84.000 Y329.000
G1 X85.000 Y328.000
G1 X86.000 Y327.000
G1 X87.000 Y326.000
G1 X88.000 Y325.000
G1 X89.000 Y324.000
G1 X90.000 Y323.000
G1 X89.000 Y323.000
G1 X88.000 Y324.000
M3
G1 X263.000 Y243.000
M5 S20
G1 X264.000 Y243.000
M3
G1 X632.000 Y244.000
M5 S20
G1 X633.000 Y244.000
G1 X632.000 Y245.000
G1 X631.000 Y246.000
G1 X630.000 Y247.000
G1 X629.000 Y248.000
G1 X628.000 Y249.000
G1 X627.000 Y250.000
G1 X627.000 Y251.000
G1 X627.000 Y252.000
G1 X627.000 Y253.000
G1 X627.000 Y254.000
G1 X627.000 Y255.000
G1 X627.000 Y256.000
G1 X627.000 Y257.000
G1 X627.000 Y258.000
G1 X627.000 Y259.000
G1 X627.000 Y260.000
G1 X627.000 Y261.000
G1 X627.000 Y262.000
G1 X627.000 Y263.000
G1 X628.000 Y264.000
G1 X628.000 Y263.000
M3
G1 X653.000 Y244.000
M5 S20
G1 X654.000 Y245.000
G1 X655.000 Y246.000
G1 X656.000 Y247.000
G1 X657.000 Y248.000
G1 X658.000 Y249.000
M3
G1 X666.000 Y244.000
M5 S20
G1 X666.000 Y245.000
G1 X666.000 Y246.000
G1 X666.000 Y247.000
G1 X666.000 Y248.000
G1 X666.000 Y249.000
G1 X666.000 Y250.000
G1 X666.000 Y251.000
G1 X666.000 Y252.000
G1 X666.000 Y253.000
G1 X666.000 Y254.000
G1 X666.000 Y255.000
G1 X666.000 Y256.000
G1 X666.000 Y257.000
G1 X666.000 Y258.000
G1 X666.000 Y259.000
G1 X666.000 Y260.000
G1 X666.000 Y261.000
G1 X666.000 Y262.000
G1 X666.000 Y263.000
G1 X666.000 Y264.000
G1 X665.000 Y264.000
G1 X664.000 Y264.000
G1 X663.000 Y264.000
G1 X662.000 Y263.000
G1 X662.000 Y262.000
G1 X662.000 Y261.000
G1 X662.000 Y260.000
G1 X662.000 Y259.000
G1 X661.000 Y259.000
G1 X661.000 Y258.000
M3
G1 X744.000 Y243.000
M5 S20
G1 X745.000 Y243.000
M3
G1 X756.000 Y244.000
M5 S20
G1 X757.000 Y244.000
G1 X758.000 Y244.000
M3
G1 X799.000 Y244.000
M5 S20
G1 X799.000 Y245.000
G1 X799.000 Y246.000
G1 X799.000 Y247.000
G1 X799.000 Y248.000
G1 X799.000 Y249.000
G1 X799.000 Y250.000
G1 X799.000 Y251.000
G1 X799.000 Y252.000
G1 X799.000 Y253.000
G1 X799.000 Y254.000
G1 X799.000 Y255.000
G1 X799.000 Y256.000
G1 X799.000 Y257.000
G1 X799.000 Y258.000
G1 X799.000 Y259.000
G1 X799.000 Y260.000
G1 X799.000 Y261.000
G1 X799.000 Y262.000
G1 X799.000 Y263.000
G1 X799.000 Y264.000
G1 X799.000 Y265.000
G1 X798.000 Y265.000
G1 X797.000 Y265.000
G1 X796.000 Y265.000
G1 X796.000 Y264.000
G1 X796.000 Y263.000
G1 X795.000 Y263.000
G1 X795.000 Y262.000
M3
G1 X200.000 Y245.000
M5 S20
G1 X201.000 Y246.000
G1 X202.000 Y247.000
G1 X203.000 Y248.000
M3
G1 X262.000 Y244.000
M5 S20
G1 X261.000 Y245.000
G1 X260.000 Y246.000
G1 X259.000 Y247.000
G1 X258.000 Y248.000
G1 X257.000 Y249.000
G1 X256.000 Y250.000
G1 X255.000 Y251.000
G1 X254.000 Y252.000
G1 X254.000 Y253.000
G1 X254.000 Y254.000
G1 X253.000 Y254.000
G1 X253.000 Y255.000
G1 X253.000 Y256.000
G1 X253.000 Y257.000
G1 X252.000 Y257.000
G1 X252.000 Y258.000
G1 X252.000 Y259.000
G1 X252.000 Y260.000
G1 X252.000 Y261.000
G1 X252.000 Y262.000
G1 X252.000 Y263.000
G1 X252.000 Y264.000
G1 X252.000 Y265.000
G1 X252.000 Y266.000
G1 X252.000 Y267.000
G1 X252.000 Y268.000
G1 X252.000 Y269.000
G1 X252.000 Y270.000
G1 X252.000 Y271.000
G1 X253.000 Y272.000
G1 X253.000 Y271.000
M3
G1 X271.000 Y245.000
M5 S20
G1 X270.000 Y246.000
G1 X269.000 Y247.000
G1 X268.000 Y248.000
G1 X267.000 Y249.000
M3
G1 X296.000 Y245.000
M5 S20
G1 X297.000 Y246.000
G1 X298.000 Y247.000
G1 X299.000 Y248.000
G1 X300.000 Y249.000
M3
G1 X623.000 Y244.000
M5 S20
G1 X622.000 Y245.000
G1 X621.000 Y246.000
G1 X620.000 Y247.000
G1 X619.000 Y248.000
G1 X618.000 Y249.000
G1 X618.000 Y250.000
G1 X618.000 Y251.000
G1 X617.000 Y251.000
G1 X617.000 Y252.000
G1 X617.000 Y253.000
G1 X616.000 Y253.000
G1 X616.000 Y254.000
G1 X616.000 Y255.000
G1 X616.000 Y256.000
G1 X616.000 Y257.000
G1 X615.000 Y257.000
G1 X615.000 Y258.000
G1 X615.000 Y259.000
G1 X615.000 Y260.000
G1 X615.000 Y261.000
G1 X615.000 Y262.000
G1 X615.000 Y263.000
G1 X615.000 Y264.000
G1 X615.000 Y265.000
G1 X615.000 Y266.000
G1 X616.000 Y267.000
G1 X616.000 Y266.000
M3
G1 X631.000 Y245.000
M5 S20
G1 X630.000 Y246.000
G1 X629.000 Y247.000
G1 X628.000 Y248.000
M3
G1 X742.000 Y244.000
M5 S20
G1 X743.000 Y244.000
M3
G1 X754.000 Y245.000
M5 S20
G1 X755.000 Y245.000
G1 X756.000 Y245.000
M3
G1 X259.000 Y246.000
M5 S20
G1 X258.000 Y247.000
G1 X257.000 Y248.000
G1 X256.000 Y249.000
G1 X255.000 Y250.000
M3
G1 X741.000 Y245.000
M5 S20
G1 X740.000 Y246.000
G1 X739.000 Y246.000
G1 X738.000 Y246.000
G1 X737.000 Y247.000
G1 X736.000 Y248.000
G1 X735.000 Y249.000
G1 X734.000 Y250.000
G1 X733.000 Y251.000
G1 X732.000 Y252.000
G1 X731.000 Y253.000
G1 X730.000 Y254.000
G1 X729.000 Y255.000
G1 X729.000 Y256.000
G1 X729.000 Y257.000
G1 X728.000 Y257.000
G1 X727.000 Y258.000
G1 X727.000 Y259.000
G1 X727.000 Y260.000
G1 X726.000 Y260.000
G1 X726.000 Y261.000
G1 X726.000 Y262.000
G1 X725.000 Y262.000
G1 X725.000 Y263.000
G1 X725.000 Y264.000
G1 X724.000 Y264.000
G1 X724.000 Y265.000
G1 X724.000 Y266.000
G1 X724.000 Y267.000
G1 X723.000 Y267.000
G1 X723.000 Y268.000
G1 X723.000 Y269.000
G1 X723.000 Y270.000
G1 X722.000 Y270.000
G1 X722.000 Y271.000
G1 X722.000 Y272.000
G1 X722.000 Y273.000
G1 X722.000 Y274.000
G1 X721.000 Y274.000
G1 X721.000 Y275.000
G1 X721.000 Y276.000
G1 X721.000 Y277.000
G1 X721.000 Y278.000
G1 X721.000 Y279.000
G1 X721.000 Y280.000
G1 X720.000 Y280.000
G1 X720.000 Y281.000
G1 X720.000 Y282.000
G1 X720.000 Y283.000
G1 X720.000 Y284.000
G1 X720.000 Y285.000
G1 X720.000 Y286.000
G1 X720.000 Y287.000
G1 X720.000 Y288.000
G1 X720.000 Y289.000
G1 X720.000 Y290.000
G1 X720.000 Y291.000
G1 X720.000 Y292.000
G1 X720.000 Y293.000
G1 X720.000 Y294.000
G1 X720.000 Y295.000
G1 X720.000 Y296.000
G1 X720.000 Y297.000
G1 X720.000 Y298.000
G1 X720.000 Y299.000
G1 X721.000 Y300.000
G1 X721.000 Y299.000
M3
G1 X752.000 Y246.000
M5 S20
G1 X753.000 Y246.000
G1 X754.000 Y246.000
M3
G1 X785.000 Y246.000
M5 S20
G1 X786.000 Y247.000
M3
G1 X751.000 Y247.000
M5 S20
G1 X752.000 Y247.000
G1 X751.000 Y248.000
G1 X750.000 Y249.000
G1 X749.000 Y250.000
G1 X748.000 Y251.000
G1 X747.000 Y252.000
G1 X746.000 Y253.000
G1 X745.000 Y254.000
G1 X744.000 Y255.000
G1 X744.000 Y256.000
G1 X744.000 Y257.000
G1 X743.000 Y257.000
G1 X743.000 Y258.000
G1 X743.000 Y259.000
G1 X742.000 Y259.000
G1 X742.000 Y260.000
G1 X742.000 Y261.000
G1 X742.000 Y262.000
G1 X741.000 Y262.000
G1 X741.000 Y263.000
G1 X741.000 Y264.000
G1 X741.000 Y265.000
G1 X740.000 Y265.000
G1 X740.000 Y266.000
G1 X740.000 Y267.000
G1 X740.000 Y268.000
G1 X740.000 Y269.000
G1 X739.000 Y269.000
G1 X739.000 Y270.000
G1 X739.000 Y271.000
G1 X739.000 Y272.000
G1 X739.000 Y273.000
G1 X739.000 Y274.000
G1 X739.000 Y275.000
G1 X738.000 Y275.000
G1 X738.000 Y276.000
G1 X738.000 Y277.000
G1 X738.000 Y278.000
G1 X738.000 Y279.000
G1 X738.000 Y280.000
G1 X738.000 Y281.000
G1 X738.000 Y282.000
G1 X738.000 Y283.000
G1 X738.000 Y284.000
G1 X738.000 Y285.000
G1 X738.000 Y286.000
G1 X738.000 Y287.000
G1 X738.000 Y288.000
G1 X738.000 Y289.000
G1 X738.000 Y290.000
G1 X738.000 Y291.000
G1 X738.000 Y292.000
G1 X738.000 Y293.000
G1 X738.000 Y294.000
G1 X738.000 Y295.000
G1 X738.000 Y296.000
G1 X738.000 Y297.000
G1 X738.000 Y298.000
G1 X738.000 Y299.000
G1 X738.000 Y300.000
G1 X738.000 Y301.000
G1 X738.000 Y302.000
G1 X738.000 Y303.000
G1 X738.000 Y304.000
G1 X738.000 Y305.000
G1 X739.000 Y306.000
G1 X739.000 Y305.000
M3
G1 X620.000 Y248.000
M5 S20
G1 X619.000 Y249.000
M3
G1 X750.000 Y248.000
M5 S20
G1 X749.000 Y249.000
G1 X748.000 Y250.000
G1 X747.000 Y251.000
G1 X746.000 Y252.000
M3
G1 X96.000 Y249.000
M5 S20
G1 X97.000 Y250.000
G1 X98.000 Y251.000
G1 X99.000 Y252.000
G1 X100.000 Y253.000
G1 X101.000 Y254.000
G1 X102.000 Y255.000
G1 X103.000 Y256.000
M3
G1 X734.000 Y249.000
M5 S20
G1 X733.000 Y250.000
G1 X732.000 Y251.000
M3
G1 X85.000 Y250.000
M5 S20
G1 X86.000 Y251.000
G1 X87.000 Y252.000
M3
G1 X732.000 Y253.000
M5 S20
G1 X731.000 Y254.000
G1 X730.000 Y255.000
M3
G1 X746.000 Y254.000
M5 S20
G1 X745.000 Y255.000
M3
G1 X209.000 Y264.000
M5 S20
G1 X210.000 Y265.000
M3
G1 X628.000 Y265.000
M5 S20
G1 X629.000 Y266.000
G1 X628.000 Y266.000
G1 X629.000 Y267.000
G1 X630.000 Y268.000
G1 X629.000 Y268.000
G1 X630.000 Y269.000
G1 X630.000 Y270.000
G1 X630.000 Y271.000
G1 X631.000 Y272.000
G1 X632.000 Y273.000
G1 X633.000 Y274.000
G1 X632.000 Y274.000
G1 X633.000 Y275.000
G1 X634.000 Y276.000
G1 X633.000 Y276.000
G1 X634.000 Y277.000
G1 X635.000 Y278.000
G1 X636.000 Y279.000
G1 X635.000 Y279.000
G1 X636.000 Y280.000
G1 X637.000 Y281.000
G1 X638.000 Y282.000
G1 X637.000 Y282.000
G1 X638.000 Y283.000
G1 X639.000 Y284.000
G1 X638.000 Y284.000
G1 X639.000 Y285.000
G1 X640.000 Y286.000
G1 X641.000 Y287.000
G1 X642.000 Y288.000
G1 X641.000 Y288.000
G1 X642.000 Y289.000
G1 X643.000 Y290.000
G1 X644.000 Y291.000
G1 X643.000 Y291.000
G1 X644.000 Y292.000
G1 X645.000 Y293.000
G1 X646.000 Y294.000
G1 X645.000 Y294.000
G1 X646.000 Y295.000
G1 X647.000 Y296.000
G1 X648.000 Y297.000
G1 X649.000 Y298.000
G1 X650.000 Y299.000
G1 X649.000 Y299.000
G1 X650.000 Y300.000
G1 X651.000 Y301.000
G1 X652.000 Y302.000
G1 X653.000 Y303.000
G1 X654.000 Y304.000
G1 X655.000 Y305.000
G1 X654.000 Y305.000
G1 X655.000 Y306.000
G1 X656.000 Y307.000
G1 X657.000 Y308.000
G1 X658.000 Y309.000
G1 X659.000 Y310.000
G1 X660.000 Y311.000
G1 X661.000 Y312.000
G1 X660.000 Y312.000
G1 X661.000 Y313.000
G1 X662.000 Y314.000
G1 X663.000 Y315.000
G1 X664.000 Y316.000
G1 X665.000 Y317.000
G1 X666.000 Y318.000
G1 X667.000 Y319.000
G1 X668.000 Y320.000
G1 X669.000 Y321.000
G1 X670.000 Y322.000
G1 X671.000 Y323.000
G1 X672.000 Y324.000
G1 X673.000 Y325.000
G1 X674.000 Y324.000
G1 X675.000 Y323.000
G1 X676.000 Y322.000
G1 X677.000 Y321.000
G1 X676.000 Y321.000
G1 X675.000 Y322.000
G1 X674.000 Y323.000
M3
G1 X93.000 Y266.000
M5 S20
G1 X93.000 Y267.000
G1 X93.000 Y268.000
G1 X94.000 Y269.000
G1 X94.000 Y268.000
M3
G1 X266.000 Y267.000
M5 S20
G1 X267.000 Y268.000
G1 X266.000 Y268.000
G1 X267.000 Y269.000
G1 X268.000 Y270.000
G1 X267.000 Y270.000
G1 X268.000 Y271.000
G1 X269.000 Y272.000
G1 X270.000 Y273.000
G1 X271.000 Y274.000
G1 X272.000 Y275.000
G1 X273.000 Y276.000
G1 X273.000 Y275.000
G1 X274.000 Y276.000
G1 X275.000 Y277.000
G1 X275.000 Y276.000
G1 X276.000 Y277.000
G1 X277.000 Y278.000
G1 X277.000 Y277.000
G1 X278.000 Y278.000
G1 X279.000 Y279.000
G1 X279.000 Y278.000
G1 X280.000 Y279.000
G1 X281.000 Y279.000
G1 X282.000 Y279.000
G1 X282.000 Y280.000
G1 X283.000 Y280.000
G1 X284.000 Y280.000
G1 X284.000 Y281.000
G1 X285.000 Y281.000
G1 X286.000 Y281.000
G1 X286.000 Y282.000
G1 X287.000 Y282.000
G1 X288.000 Y282.000
G1 X289.000 Y282.000
G1 X289.000 Y283.000
G1 X290.000 Y283.000
G1 X291.000 Y283.000
G1 X291.000 Y284.000
G1 X292.000 Y284.000
G1 X293.000 Y284.000
G1 X294.000 Y284.000
G1 X294.000 Y285.000
G1 X295.000 Y285.000
G1 X296.000 Y285.000
G1 X296.000 Y286.000
G1 X297.000 Y286.000
G1 X298.000 Y286.000
G1 X298.000 Y287.000
G1 X299.000 Y287.000
G1 X300.000 Y287.000
G1 X300.000 Y288.000
G1 X301.000 Y288.000
G1 X302.000 Y288.000
G1 X302.000 Y289.000
G1 X303.000 Y290.000
G1 X304.000 Y291.000
G1 X304.000 Y290.000
G1 X305.000 Y291.000
G1 X306.000 Y292.000
G1 X307.000 Y293.000
G1 X308.000 Y294.000
G1 X309.000 Y295.000
G1 X310.000 Y296.000
G1 X311.000 Y297.000
G1 X310.000 Y297.000
G1 X311.000 Y298.000
G1 X312.000 Y299.000
G1 X311.000 Y299.000
G1 X312.000 Y300.000
G1 X313.000 Y301.000
G1 X312.000 Y301.000
G1 X313.000 Y302.000
G1 X313.000 Y303.000
G1 X313.000 Y304.000
G1 X314.000 Y305.000
G1 X314.000 Y304.000
M3
G1 X433.000 Y266.000
M5 S20
G1 X434.000 Y266.000
G1 X435.000 Y266.000
G1 X436.000 Y266.000
G1 X437.000 Y266.000
G1 X438.000 Y266.000
G1 X439.000 Y266.000
G1 X440.000 Y266.000
G1 X441.000 Y266.000
G1 X442.000 Y266.000
G1 X443.000 Y266.000
G1 X444.000 Y266.000
G1 X445.000 Y266.000
G1 X446.000 Y266.000
G1 X447.000 Y266.000
G1 X448.000 Y266.000
G1 X448.000 Y267.000
G1 X449.000 Y267.000
G1 X450.000 Y267.000
G1 X451.000 Y267.000
G1 X452.000 Y267.000
G1 X452.000 Y268.000
G1 X453.000 Y268.000
G1 X454.000 Y268.000
G1 X455.000 Y268.000
G1 X455.000 Y269.000
G1 X456.000 Y269.000
G1 X457.000 Y269.000
G1 X457.000 Y270.000
G1 X458.000 Y270.000
G1 X459.000 Y270.000
G1 X459.000 Y271.000
G1 X460.000 Y271.000
G1 X461.000 Y271.000
G1 X461.000 Y272.000
G1 X462.000 Y273.000
G1 X463.000 Y274.000
G1 X464.000 Y275.000
G1 X465.000 Y276.000
G1 X464.000 Y276.000
G1 X465.000 Y277.000
G1 X465.000 Y278.000
G1 X465.000 Y279.000
G1 X466.000 Y280.000
G1 X466.000 Y279.000
M3
G1 X843.000 Y266.000
M5 S20
G1 X844.000 Y266.000
G1 X845.000 Y266.000
G1 X846.000 Y266.000
G1 X846.000 Y267.000
G1 X847.000 Y267.000
G1 X848.000 Y267.000
G1 X849.000 Y267.000
G1 X850.000 Y267.000
G1 X851.000 Y267.000
G1 X852.000 Y267.000
G1 X853.000 Y267.000
G1 X854.000 Y267.000
G1 X855.000 Y267.000
G1 X856.000 Y267.000
G1 X856.000 Y268.000
G1 X857.000 Y268.000
G1 X858.000 Y268.000
G1 X859.000 Y268.000
G1 X860.000 Y268.000
G1 X860.000 Y269.000
G1 X861.000 Y269.000
G1 X862.000 Y269.000
G1 X863.000 Y269.000
G1 X863.000 Y270.000
G1 X864.000 Y270.000
G1 X865.000 Y270.000
G1 X865.000 Y271.000
G1 X866.000 Y272.000
G1 X866.000 Y271.000
G1 X867.000 Y272.000
G1 X868.000 Y273.000
G1 X869.000 Y274.000
G1 X870.000 Y275.000
G1 X871.000 Y276.000
G1 X872.000 Y277.000
G1 X873.000 Y278.000
G1 X874.000 Y279.000
G1 X875.000 Y280.000
G1 X874.000 Y280.000
G1 X875.000 Y281.000
G1 X876.000 Y282.000
G1 X875.000 Y282.000
G1 X876.000 Y283.000
G1 X877.000 Y284.000
G1 X876.000 Y284.000
G1 X877.000 Y285.000
G1 X877.000 Y286.000
G1 X877.000 Y287.000
G1 X878.000 Y288.000
G1 X878.000 Y287.000
M3
G1 X108.000 Y268.000
M5 S20
G1 X109.000 Y269.000
G1 X108.000 Y269.000
G1 X109.000 Y270.000
G1 X109.000 Y271.000
G1 X109.000 Y272.000
G1 X110.000 Y273.000
G1 X110.000 Y272.000
M3
G1 X428.000 Y267.000
M5 S20
G1 X429.000 Y267.000
G1 X430.000 Y267.000
G1 X431.000 Y267.000
G1 X432.000 Y267.000
M3
G1 X478.000 Y267.000
M5 S20
G1 X479.000 Y267.000
G1 X480.000 Y267.000
G1 X481.000 Y267.000
G1 X482.000 Y267.000
G1 X483.000 Y267.000
G1 X484.000 Y267.000
G1 X485.000 Y267.000
G1 X486.000 Y267.000
G1 X487.000 Y267.000
G1 X488.000 Y267.000
G1 X489.000 Y267.000
G1 X490.000 Y267.000
G1 X491.000 Y267.000
G1 X492.000 Y267.000
G1 X493.000 Y267.000
G1 X494.000 Y267.000
G1 X495.000 Y267.000
G1 X496.000 Y267.000
G1 X497.000 Y267.000
G1 X498.000 Y267.000
G1 X499.000 Y267.000
G1 X500.000 Y267.000
G1 X501.000 Y267.000
G1 X502.000 Y267.000
G1 X503.000 Y267.000
G1 X504.000 Y267.000
G1 X505.000 Y267.000
G1 X506.000 Y267.000
G1 X507.000 Y267.000
G1 X508.000 Y267.000
G1 X509.000 Y267.000
G1 X509.000 Y268.000
G1 X510.000 Y269.000
G1 X510.000 Y268.000
M3
G1 X553.000 Y267.000
M5 S20
G1 X554.000 Y267.000
G1 X555.000 Y267.000
G1 X556.000 Y267.000
G1 X557.000 Y267.000
G1 X558.000 Y267.000
G1 X559.000 Y267.000
G1 X560.000 Y267.000
G1 X561.000 Y267.000
G1 X562.000 Y267.000
G1 X563.000 Y267.000
G1 X564.000 Y267.000
G1 X565.000 Y267.000
G1 X566.000 Y267.000
G1 X567.000 Y267.000
G1 X568.000 Y267.000
G1 X569.000 Y267.000
G1 X570.000 Y267.000
G1 X571.000 Y267.000
G1 X572.000 Y267.000
G1 X573.000 Y267.000
G1 X574.000 Y267.000
G1 X575.000 Y267.000
G1 X576.000 Y267.000
G1 X577.000 Y267.000
G1 X578.000 Y267.000
G1 X578.000 Y268.000
G1 X579.000 Y269.000
G1 X579.000 Y268.000
M3
G1 X616.000 Y268.000
M5 S20
G1 X616.000 Y269.000
G1 X616.000 Y270.000
G1 X617.000 Y271.000
G1 X617.000 Y270.000
M3
G1 X836.000 Y267.000
M5 S20
G1 X837.000 Y267.000
G1 X838.000 Y267.000
G1 X839.000 Y267.000
G1 X840.000 Y267.000
G1 X841.000 Y267.000
G1 X842.000 Y267.000
M3
G1 X196.000 Y268.000
M5 S20
G1 X197.000 Y268.000
G1 X198.000 Y268.000
G1 X198.000 Y269.000
G1 X198.000 Y270.000
G1 X198.000 Y271.000
G1 X198.000 Y272.000
G1 X198.000 Y273.000
G1 X198.000 Y274.000
G1 X198.000 Y275.000
G1 X198.000 Y276.000
G1 X198.000 Y277.000
G1 X198.000 Y278.000
G1 X198.000 Y279.000
G1 X198.000 Y280.000
G1 X198.000 Y281.000
G1 X198.000 Y282.000
G1 X198.000 Y283.000
G1 X198.000 Y284.000
G1 X198.000 Y285.000
G1 X198.000 Y286.000
G1 X198.000 Y287.000
G1 X198.000 Y288.000
G1 X198.000 Y289.000
G1 X198.000 Y290.000
G1 X198.000 Y291.000
G1 X198.000 Y292.000
G1 X198.000 Y293.000
G1 X198.000 Y294.000
G1 X198.000 Y295.000
G1 X198.000 Y296.000
G1 X198.000 Y297.000
G1 X198.000 Y298.000
G1 X198.000 Y299.000
G1 X198.000 Y300.000
G1 X198.000 Y301.000
G1 X198.000 Y302.000
G1 X198.000 Y303.000
G1 X198.000 Y304.000
G1 X197.000 Y304.000
G1 X196.000 Y304.000
G1 X195.000 Y304.000
G1 X194.000 Y304.000
G1 X194.000 Y303.000
G1 X194.000 Y302.000
G1 X194.000 Y301.000
G1 X194.000 Y300.000
G1 X193.000 Y300.000
G1 X193.000 Y299.000
G1 X193.000 Y298.000
G1 X193.000 Y297.000
G1 X193.000 Y296.000
G1 X192.000 Y296.000
G1 X191.000 Y295.000
G1 X191.000 Y294.000
G1 X191.000 Y293.000
G1 X190.000 Y293.000
G1 X189.000 Y292.000
G1 X188.000 Y291.000
G1 X187.000 Y291.000
G1 X186.000 Y291.000
G1 X185.000 Y290.000
G1 X184.000 Y290.000
G1 X183.000 Y290.000
G1 X182.000 Y290.000
G1 X181.000 Y290.000
G1 X180.000 Y289.000
G1 X179.000 Y289.000
G1 X178.000 Y289.000
G1 X177.000 Y289.000
G1 X176.000 Y289.000
G1 X175.000 Y289.000
G1 X174.000 Y289.000
G1 X173.000 Y289.000
G1 X172.000 Y289.000
G1 X171.000 Y289.000
G1 X170.000 Y289.000
G1 X169.000 Y289.000
G1 X168.000 Y289.000
G1 X168.000 Y290.000
G1 X168.000 Y291.000
G1 X168.000 Y292.000
G1 X168.000 Y293.000
G1 X168.000 Y294.000
G1 X168.000 Y295.000
G1 X168.000 Y296.000
G1 X168.000 Y297.000
G1 X168.000 Y298.000
G1 X168.000 Y299.000
G1 X168.000 Y300.000
G1 X168.000 Y301.000
G1 X168.000 Y302.000
G1 X168.000 Y303.000
G1 X168.000 Y304.000
G1 X168.000 Y305.000
G1 X168.000 Y306.000
G1 X168.000 Y307.000
G1 X168.000 Y308.000
G1 X168.000 Y309.000
G1 X168.000 Y310.000
G1 X168.000 Y311.000
G1 X168.000 Y312.000
G1 X168.000 Y313.000
G1 X168.000 Y314.000
G1 X168.000 Y315.000
G1 X168.000 Y316.000
G1 X168.000 Y317.000
G1 X168.000 Y318.000
G1 X168.000 Y319.000
G1 X168.000 Y320.000
G1 X168.000 Y321.000
G1 X168.000 Y322.000
G1 X168.000 Y323.000
G1 X168.000 Y324.000
G1 X168.000 Y325.000
G1 X168.000 Y326.000
G1 X168.000 Y327.000
G1 X168.000 Y328.000
G1 X168.000 Y329.000
G1 X168.000 Y330.000
G1 X168.000 Y331.000
G1 X168.000 Y332.000
G1 X168.000 Y333.000
G1 X168.000 Y334.000
G1 X168.000 Y335.000
G1 X168.000 Y336.000
G1 X169.000 Y336.000
G1 X170.000 Y336.000
G1 X171.000 Y336.000
G1 X172.000 Y336.000
G1 X173.000 Y336.000
G1 X174.000 Y336.000
G1 X175.000 Y336.000
G1 X175.000 Y337.000
G1 X176.000 Y337.000
G1 X177.000 Y337.000
G1 X177.000 Y336.000
G1 X178.000 Y336.000
G1 X179.000 Y336.000
G1 X180.000 Y336.000
G1 X181.000 Y336.000
G1 X182.000 Y336.000
G1 X183.000 Y336.000
G1 X184.000 Y336.000
G1 X185.000 Y336.000
G1 X186.000 Y336.000
G1 X187.000 Y336.000
G1 X188.000 Y336.000
G1 X188.000 Y335.000
G1 X189.000 Y335.000
G1 X190.000 Y335.000
G1 X191.000 Y335.000
G1 X192.000 Y335.000
G1 X193.000 Y335.000
G1 X194.000 Y335.000
G1 X194.000 Y334.000
G1 X195.000 Y334.000
G1 X196.000 Y334.000
G1 X197.000 Y334.000
G1 X197.000 Y333.000
G1 X198.000 Y333.000
G1 X199.000 Y333.000
G1 X199.000 Y332.000
G1 X200.000 Y332.000
G1 X201.000 Y332.000
G1 X201.000 Y331.000
G1 X202.000 Y330.000
G1 X203.000 Y330.000
G1 X204.000 Y330.000
G1 X204.000 Y329.000
G1 X205.000 Y328.000
G1 X206.000 Y327.000
G1 X207.000 Y326.000
G1 X208.000 Y325.000
G1 X207.000 Y325.000
G1 X206.000 Y326.000
M3
G1 X425.000 Y268.000
M5 S20
G1 X426.000 Y268.000
G1 X427.000 Y268.000
M3
G1 X477.000 Y268.000
M5 S20
G1 X476.000 Y269.000
G1 X476.000 Y270.000
G1 X476.000 Y271.000
G1 X477.000 Y272.000
G1 X477.000 Y271.000
G1 X478.000 Y272.000
G1 X479.000 Y272.000
G1 X480.000 Y272.000
G1 X481.000 Y272.000
G1 X482.000 Y272.000
G1 X483.000 Y272.000
G1 X484.000 Y272.000
G1 X485.000 Y272.000
G1 X486.000 Y272.000
G1 X486.000 Y273.000
G1 X487.000 Y274.000
G1 X487.000 Y273.000
M3
G1 X552.000 Y269.000
M5 S20
G1 X552.000 Y270.000
G1 X552.000 Y271.000
G1 X552.000 Y272.000
G1 X553.000 Y272.000
G1 X554.000 Y272.000
G1 X555.000 Y272.000
G1 X556.000 Y272.000
G1 X557.000 Y272.000
G1 X558.000 Y272.000
G1 X559.000 Y272.000
G1 X560.000 Y272.000
G1 X561.000 Y272.000
G1 X562.000 Y272.000
G1 X563.000 Y272.000
G1 X564.000 Y272.000
G1 X564.000 Y273.000
G1 X564.000 Y274.000
G1 X564.000 Y275.000
G1 X564.000 Y276.000
G1 X563.000 Y276.000
G1 X563.000 Y277.000
G1 X563.000 Y278.000
G1 X563.000 Y279.000
G1 X563.000 Y280.000
G1 X562.000 Y280.000
G1 X562.000 Y281.000
G1 X562.000 Y282.000
G1 X562.000 Y283.000
G1 X562.000 Y284.000
G1 X561.000 Y284.000
G1 X561.000 Y285.000
G1 X561.000 Y286.000
G1 X561.000 Y287.000
G1 X561.000 Y288.000
G1 X560.000 Y288.000
G1 X560.000 Y289.000
G1 X560.000 Y290.000
G1 X560.000 Y291.000
G1 X560.000 Y292.000
G1 X559.000 Y292.000
G1 X559.000 Y293.000
G1 X559.000 Y294.000
G1 X559.000 Y295.000
G1 X559.000 Y296.000
G1 X559.000 Y297.000
G1 X558.000 Y297.000
G1 X558.000 Y298.000
G1 X558.000 Y299.000
G1 X558.000 Y300.000
G1 X558.000 Y301.000
G1 X557.000 Y301.000
G1 X557.000 Y302.000
G1 X557.000 Y303.000
G1 X557.000 Y304.000
G1 X557.000 Y305.000
G1 X556.000 Y305.000
G1 X556.000 Y306.000
G1 X556.000 Y307.000
G1 X556.000 Y308.000
G1 X556.000 Y309.000
G1 X555.000 Y309.000
G1 X555.000 Y310.000
G1 X555.000 Y311.000
G1 X555.000 Y312.000
G1 X555.000 Y313.000
G1 X555.000 Y314.000
G1 X554.000 Y314.000
G1 X554.000 Y315.000
G1 X554.000 Y316.000
G1 X554.000 Y317.000
G1 X554.000 Y318.000
G1 X553.000 Y318.000
G1 X553.000 Y319.000
G1 X553.000 Y320.000
G1 X553.000 Y321.000
G1 X553.000 Y322.000
G1 X552.000 Y322.000
G1 X552.000 Y323.000
G1 X552.000 Y324.000
G1 X552.000 Y325.000
G1 X551.000 Y325.000
G1 X550.000 Y325.000
G1 X550.000 Y324.000
G1 X550.000 Y323.000
G1 X550.000 Y322.000
G1 X549.000 Y322.000
G1 X549.000 Y321.000
G1 X549.000 Y320.000
G1 X549.000 Y319.000
G1 X549.000 Y318.000
G1 X548.000 Y318.000
G1 X548.000 Y317.000
G1 X548.000 Y316.000
G1 X548.000 Y315.000
G1 X548.000 Y314.000
G1 X547.000 Y314.000
G1 X547.000 Y313.000
G1 X547.000 Y312.000
G1 X547.000 Y311.000
G1 X547.000 Y310.000
G1 X546.000 Y310.000
G1 X546.000 Y309.000
G1 X546.000 Y308.000
G1 X546.000 Y307.000
G1 X545.000 Y307.000
G1 X545.000 Y306.000
G1 X545.000 Y305.000
G1 X545.000 Y304.000
G1 X545.000 Y303.000
G1 X544.000 Y303.000
G1 X544.000 Y302.000
G1 X544.000 Y301.000
G1 X544.000 Y300.000
G1 X543.000 Y300.000
G1 X543.000 Y299.000
G1 X543.000 Y298.000
G1 X543.000 Y297.000
G1 X542.000 Y297.000
G1 X542.000 Y296.000
G1 X542.000 Y295.000
G1 X542.000 Y294.000
G1 X542.000 Y293.000
G1 X541.000 Y293.000
G1 X541.000 Y292.000
G1 X541.000 Y291.000
G1 X541.000 Y290.000
G1 X540.000 Y290.000
G1 X540.000 Y289.000
G1 X540.000 Y288.000
G1 X540.000 Y287.000
G1 X540.000 Y286.000
G1 X539.000 Y286.000
G1 X539.000 Y285.000
G1 X539.000 Y284.000
G1 X539.000 Y283.000
G1 X538.000 Y283.000
G1 X538.000 Y282.000
G1 X538.000 Y281.000
G1 X538.000 Y280.000
G1 X538.000 Y279.000
G1 X537.000 Y279.000
G1 X537.000 Y278.000
G1 X537.000 Y277.000
G1 X537.000 Y276.000
G1 X536.000 Y276.000
G1 X536.000 Y275.000
G1 X536.000 Y274.000
G1 X535.000 Y274.000
G1 X534.000 Y274.000
G1 X533.000 Y274.000
G1 X532.000 Y274.000
G1 X531.000 Y274.000
G1 X530.000 Y274.000
G1 X529.000 Y274.000
G1 X528.000 Y274.000
G1 X527.000 Y274.000
G1 X526.000 Y275.000
G1 X526.000 Y276.000
G1 X526.000 Y277.000
G1 X526.000 Y278.000
G1 X525.000 Y278.000
G1 X525.000 Y279.000
G1 X525.000 Y280.000
G1 X525.000 Y281.000
G1 X525.000 Y282.000
G1 X524.000 Y282.000
G1 X524.000 Y283.000
G1 X524.000 Y284.000
G1 X524.000 Y285.000
G1 X523.000 Y285.000
G1 X523.000 Y286.000
G1 X523.000 Y287.000
G1 X523.000 Y288.000
G1 X523.000 Y289.000
G1 X522.000 Y289.000
G1 X522.000 Y290.000
G1 X522.000 Y291.000
G1 X522.000 Y292.000
G1 X521.000 Y292.000
G1 X521.000 Y293.000
G1 X521.000 Y294.000
G1 X521.000 Y295.000
G1 X521.000 Y296.000
G1 X520.000 Y296.000
G1 X520.000 Y297.000
G1 X520.000 Y298.000
G1 X520.000 Y299.000
G1 X519.000 Y299.000
G1 X519.000 Y300.000
G1 X519.000 Y301.000
G1 X519.000 Y302.000
G1 X519.000 Y303.000
G1 X518.000 Y303.000
G1 X518.000 Y304.000
G1 X518.000 Y305.000
G1 X518.000 Y306.000
G1 X517.000 Y306.000
G1 X517.000 Y307.000
G1 X517.000 Y308.000
G1 X517.000 Y309.000
G1 X517.000 Y310.000
G1 X516.000 Y310.000
G1 X516.000 Y311.000
G1 X516.000 Y312.000
G1 X516.000 Y313.000
G1 X515.000 Y313.000
G1 X515.000 Y314.000
G1 X515.000 Y315.000
G1 X515.000 Y316.000
G1 X514.000 Y316.000
G1 X514.000 Y317.000
G1 X514.000 Y318.000
G1 X514.000 Y319.000
G1 X514.000 Y320.000
G1 X513.000 Y320.000
G1 X513.000 Y321.000
G1 X513.000 Y322.000
G1 X513.000 Y323.000
G1 X512.000 Y323.000
G1 X512.000 Y324.000
G1 X512.000 Y325.000
G1 X511.000 Y325.000
G1 X510.000 Y325.000
G1 X510.000 Y324.000
G1 X510.000 Y323.000
G1 X510.000 Y322.000
G1 X510.000 Y321.000
G1 X510.000 Y320.000
G1 X509.000 Y320.000
G1 X509.000 Y319.000
G1 X509.000 Y318.000
G1 X509.000 Y317.000
G1 X509.000 Y316.000
G1 X509.000 Y315.000
G1 X508.000 Y315.000
G1 X508.000 Y314.000
G1 X508.000 Y313.000
G1 X508.000 Y312.000
G1 X508.000 Y311.000
G1 X508.000 Y310.000
G1 X507.000 Y310.000
G1 X507.000 Y309.000
G1 X507.000 Y308.000
G1 X507.000 Y307.000
G1 X507.000 Y306.000
G1 X506.000 Y306.000
G1 X506.000 Y305.000
G1 X506.000 Y304.000
G1 X506.000 Y303.000
G1 X506.000 Y302.000
G1 X505.000 Y302.000
G1 X505.000 Y301.000
G1 X505.000 Y300.000
G1 X505.000 Y299.000
G1 X505.000 Y298.000
G1 X504.000 Y298.000
G1 X504.000 Y297.000
G1 X504.000 Y296.000
G1 X504.000 Y295.000
G1 X504.000 Y294.000
G1 X504.000 Y293.000
G1 X503.000 Y293.000
G1 X503.000 Y292.000
G1 X503.000 Y291.000
G1 X503.000 Y290.000
G1 X503.000 Y289.000
G1 X502.000 Y289.000
G1 X502.000 Y288.000
G1 X502.000 Y287.000
G1 X502.000 Y286.000
G1 X502.000 Y285.000
G1 X501.000 Y285.000
G1 X501.000 Y284.000
G1 X501.000 Y283.000
G1 X501.000 Y282.000
G1 X501.000 Y281.000
G1 X500.000 Y281.000
G1 X500.000 Y280.000
G1 X500.000 Y279.000
G1 X500.000 Y278.000
G1 X500.000 Y277.000
G1 X499.000 Y277.000
G1 X499.000 Y276.000
G1 X499.000 Y275.000
G1 X499.000 Y274.000
G1 X499.000 Y273.000
G1 X499.000 Y272.000
G1 X500.000 Y272.000
G1 X501.000 Y272.000
G1 X502.000 Y272.000
G1 X503.000 Y272.000
G1 X504.000 Y272.000
G1 X505.000 Y272.000
G1 X506.000 Y272.000
G1 X507.000 Y272.000
G1 X508.000 Y272.000
G1 X509.000 Y272.000
G1 X509.000 Y271.000
G1 X510.000 Y270.000
G1 X510.000 Y271.000
M3
G1 X832.000 Y268.000
M5 S20
G1 X833.000 Y268.000
G1 X834.000 Y268.000
G1 X835.000 Y268.000
M3
G1 X94.000 Y270.000
M5 S20
G1 X94.000 Y271.000
G1 X94.000 Y272.000
G1 X94.000 Y273.000
G1 X94.000 Y274.000
G1 X95.000 Y275.000
G1 X95.000 Y274.000
M3
G1 X195.000 Y269.000
M5 S20
G1 X194.000 Y270.000
G1 X194.000 Y271.000
G1 X194.000 Y272.000
M3
G1 X385.000 Y270.000
M5 S20
G1 X386.000 Y271.000
G1 X387.000 Y272.000
G1 X388.000 Y273.000
G1 X389.000 Y274.000
M3
G1 X423.000 Y269.000
M5 S20
G1 X424.000 Y269.000
M3
G1 X434.000 Y270.000
M5 S20
G1 X435.000 Y270.000
G1 X436.000 Y270.000
G1 X437.000 Y270.000
G1 X438.000 Y270.000
G1 X439.000 Y270.000
G1 X440.000 Y270.000
G1 X441.000 Y270.000
G1 X442.000 Y270.000
G1 X443.000 Y270.000
G1 X444.000 Y270.000
G1 X445.000 Y270.000
G1 X446.000 Y270.000
G1 X446.000 Y271.000
G1 X447.000 Y271.000
G1 X448.000 Y271.000
G1 X448.000 Y272.000
G1 X449.000 Y273.000
G1 X450.000 Y274.000
G1 X451.000 Y275.000
G1 X452.000 Y276.000
G1 X453.000 Y277.000
G1 X452.000 Y277.000
G1 X453.000 Y278.000
G1 X453.000 Y279.000
G1 X453.000 Y280.000
G1 X453.000 Y281.000
G1 X453.000 Y282.000
G1 X453.000 Y283.000
G1 X453.000 Y284.000
G1 X453.000 Y285.000
G1 X453.000 Y286.000
G1 X453.000 Y287.000
G1 X453.000 Y288.000
G1 X453.000 Y289.000
G1 X453.000 Y290.000
G1 X453.000 Y291.000
G1 X453.000 Y292.000
G1 X453.000 Y293.000
G1 X453.000 Y294.000
G1 X453.000 Y295.000
G1 X452.000 Y295.000
G1 X451.000 Y295.000
G1 X450.000 Y295.000
G1 X449.000 Y296.000
G1 X448.000 Y296.000
G1 X447.000 Y296.000
G1 X446.000 Y297.000
G1 X445.000 Y297.000
G1 X444.000 Y297.000
G1 X443.000 Y298.000
G1 X442.000 Y298.000
G1 X441.000 Y298.000
G1 X440.000 Y299.000
G1 X439.000 Y299.000
G1 X438.000 Y299.000
G1 X437.000 Y300.000
G1 X436.000 Y300.000
G1 X435.000 Y300.000
G1 X434.000 Y300.000
G1 X433.000 Y301.000
G1 X432.000 Y301.000
G1 X431.000 Y301.000
G1 X430.000 Y302.000
G1 X429.000 Y302.000
G1 X428.000 Y302.000
G1 X427.000 Y303.000
G1 X426.000 Y303.000
G1 X425.000 Y303.000
G1 X424.000 Y304.000
G1 X423.000 Y305.000
G1 X423.000 Y304.000
G1 X422.000 Y305.000
G1 X421.000 Y306.000
G1 X421.000 Y305.000
G1 X420.000 Y306.000
G1 X419.000 Y307.000
G1 X418.000 Y308.000
G1 X417.000 Y309.000
G1 X416.000 Y310.000
G1 X415.000 Y311.000
G1 X414.000 Y312.000
G1 X413.000 Y313.000
G1 X412.000 Y314.000
G1 X412.000 Y315.000
G1 X412.000 Y316.000
G1 X411.000 Y316.000
G1 X411.000 Y317.000
G1 X411.000 Y318.000
G1 X411.000 Y319.000
G1 X411.000 Y320.000
G1 X411.000 Y321.000
G1 X411.000 Y322.000
G1 X411.000 Y323.000
G1 X411.000 Y324.000
G1 X411.000 Y325.000
G1 X411.000 Y326.000
G1 X411.000 Y327.000
G1 X412.000 Y328.000
G1 X412.000 Y327.000
M3
G1 X579.000 Y270.000
M5 S20
G1 X578.000 Y271.000
G1 X577.000 Y272.000
G1 X576.000 Y272.000
G1 X575.000 Y272.000
G1 X574.000 Y272.000
G1 X573.000 Y272.000
G1 X572.000 Y272.000
G1 X571.000 Y272.000
G1 X570.000 Y272.000
G1 X569.000 Y272.000
G1 X568.000 Y273.000
G1 X568.000 Y274.000
G1 X568.000 Y275.000
G1 X568.000 Y276.000
G1 X568.000 Y277.000
G1 X567.000 Y277.000
G1 X567.000 Y278.000
G1 X567.000 Y279.000
G1 X567.000 Y280.000
G1 X567.000 Y281.000
G1 X566.000 Y281.000
G1 X566.000 Y282.000
G1 X566.000 Y283.000
G1 X566.000 Y284.000
G1 X566.000 Y285.000
G1 X566.000 Y286.000
G1 X565.000 Y286.000
G1 X565.000 Y287.000
G1 X565.000 Y288.000
G1 X565.000 Y289.000
G1 X565.000 Y290.000
G1 X564.000 Y290.000
G1 X564.000 Y291.000
G1 X564.000 Y292.000
G1 X564.000 Y293.000
G1 X564.000 Y294.000
G1 X563.000 Y294.000
G1 X563.000 Y295.000
G1 X563.000 Y296.000
G1 X563.000 Y297.000
G1 X563.000 Y298.000
G1 X563.000 Y299.000
G1 X562.000 Y299.000
G1 X562.000 Y300.000
G1 X562.000 Y301.000
G1 X562.000 Y302.000
